ncols 125
nrows 115
xllcorner -126.65405073896639
yllcorner 57.89166178640494
cellsize 0.02
NODATA_value -9999
1092.69 1085.53 1078.74 1072.38 1066.55 1061.31 1056.74 1052.89 1049.80 1047.52 1046.05 1045.37 1045.46 1046.27 1047.77 1049.88 1052.56 1055.74 1059.38 1063.41 1067.77 1072.41 1077.26 1082.24 1087.29 1092.33 1097.29 1102.12 1106.77 1111.18 1115.32 1119.15 1122.66 1125.84 1128.67 1131.15 1133.28 1135.07 1136.52 1137.65 1138.48 1139.00 1139.25 1139.23 1138.97 1138.48 1137.78 1136.90 1135.84 1134.62 1133.27 1131.81 1130.25 1128.61 1126.90 1125.14 1123.34 1121.51 1119.66 1117.78 1115.87 1113.92 1111.92 1109.84 1107.67 1105.38 1102.93 1100.29 1097.43 1094.33 1090.96 1087.28 1083.30 1078.99 1074.35 1069.38 1064.08 1058.47 1052.56 1046.39 1039.97 1033.33 1026.53 1019.58 1012.55 1005.48 998.42 991.42 984.54 977.82 971.33 965.10 959.18 953.62 948.45 943.70 939.39 935.55 932.19 929.31 926.93 925.06 923.69 922.84 922.49 922.66 923.34 924.52 926.20 928.38 931.02 934.12 937.66 941.62 945.96 950.67 955.71 961.06 966.69 972.56 978.65 984.93 991.36 997.94 1004.62
1074.22 1065.88 1057.94 1050.51 1043.70 1037.63 1032.39 1028.08 1024.77 1022.49 1021.24 1020.99 1021.69 1023.23 1025.52 1028.47 1031.98 1036.00 1040.48 1045.37 1050.63 1056.20 1062.01 1067.99 1074.05 1080.10 1086.07 1091.87 1097.44 1102.72 1107.66 1112.23 1116.42 1120.19 1123.55 1126.50 1129.04 1131.18 1132.93 1134.32 1135.35 1136.04 1136.42 1136.51 1136.33 1135.89 1135.23 1134.35 1133.30 1132.08 1130.72 1129.24 1127.66 1126.01 1124.31 1122.57 1120.81 1119.04 1117.27 1115.50 1113.74 1111.96 1110.15 1108.28 1106.32 1104.23 1101.96 1099.46 1096.70 1093.63 1090.20 1086.40 1082.19 1077.56 1072.50 1067.01 1061.10 1054.79 1048.10 1041.06 1033.71 1026.08 1018.24 1010.21 1002.07 993.87 985.67 977.54 969.55 961.76 954.23 947.03 940.22 933.83 927.91 922.49 917.59 913.23 909.42 906.17 903.47 901.34 899.77 898.77 898.35 898.50 899.23 900.54 902.41 904.85 907.82 911.32 915.32 919.79 924.69 930.01 935.69 941.71 948.03 954.61 961.41 968.41 975.57 982.86 990.25
1054.56 1044.76 1035.40 1026.62 1018.59 1011.48 1005.44 1000.64 997.18 995.13 994.49 995.18 997.04 999.86 1003.44 1007.56 1012.09 1016.97 1022.19 1027.78 1033.76 1040.11 1046.78 1053.71 1060.78 1067.87 1074.88 1081.71 1088.25 1094.45 1100.25 1105.60 1110.48 1114.87 1118.78 1122.21 1125.16 1127.65 1129.70 1131.34 1132.57 1133.43 1133.94 1134.12 1134.00 1133.61 1132.97 1132.10 1131.04 1129.81 1128.43 1126.92 1125.33 1123.66 1121.96 1120.23 1118.51 1116.81 1115.15 1113.54 1111.97 1110.43 1108.91 1107.36 1105.74 1103.98 1102.02 1099.80 1097.24 1094.30 1090.90 1087.00 1082.58 1077.60 1072.06 1065.97 1059.34 1052.19 1044.56 1036.50 1028.04 1019.24 1010.16 1000.86 991.41 981.88 972.35 962.91 953.63 944.60 935.90 927.61 919.79 912.50 905.78 899.66 894.16 889.27 885.01 881.36 878.33 875.90 874.10 872.92 872.38 872.49 873.25 874.68 876.76 879.48 882.84 886.79 891.32 896.39 901.96 907.98 914.42 921.22 928.35 935.75 943.38 951.21 959.19 967.29 975.47
1033.91 1022.32 1011.18 1000.67 991.05 982.56 975.49 970.10 966.62 965.21 965.89 968.54 972.81 978.20 984.13 990.12 995.87 1001.37 1006.82 1012.47 1018.56 1025.19 1032.38 1040.02 1047.96 1056.03 1064.08 1071.93 1079.48 1086.62 1093.29 1099.43 1105.02 1110.04 1114.49 1118.39 1121.74 1124.57 1126.91 1128.77 1130.19 1131.20 1131.82 1132.08 1132.02 1131.66 1131.03 1130.17 1129.09 1127.83 1126.41 1124.88 1123.25 1121.56 1119.83 1118.10 1116.40 1114.76 1113.20 1111.75 1110.42 1109.20 1108.06 1106.97 1105.86 1104.63 1103.18 1101.42 1099.25 1096.58 1093.32 1089.41 1084.80 1079.45 1073.36 1066.54 1059.02 1050.86 1042.09 1032.79 1023.01 1012.82 1002.29 991.50 980.52 969.45 958.38 947.42 936.67 926.24 916.23 906.73 897.84 889.61 882.08 875.29 869.21 863.84 859.14 855.09 851.67 848.90 846.77 845.32 844.57 844.55 845.29 846.80 849.07 852.12 855.90 860.39 865.55 871.33 877.68 884.54 891.86 899.58 907.65 916.00 924.58 933.36 942.27 951.29 960.36
1012.71 998.94 985.54 972.77 960.97 950.52 941.86 935.48 931.89 931.52 934.64 941.19 950.54 961.50 972.43 981.84 988.98 994.09 998.10 1002.09 1006.81 1012.65 1019.62 1027.53 1036.10 1045.03 1054.04 1062.90 1071.44 1079.51 1087.04 1093.95 1100.23 1105.85 1110.82 1115.15 1118.88 1122.02 1124.61 1126.67 1128.26 1129.39 1130.10 1130.43 1130.41 1130.07 1129.44 1128.56 1127.45 1126.16 1124.70 1123.12 1121.43 1119.69 1117.91 1116.14 1114.40 1112.75 1111.22 1109.87 1108.74 1107.85 1107.21 1106.76 1106.40 1105.98 1105.35 1104.35 1102.84 1100.71 1097.82 1094.05 1089.32 1083.57 1076.79 1069.03 1060.38 1050.91 1040.74 1029.93 1018.58 1006.76 994.55 982.03 969.30 956.47 943.66 930.99 918.60 906.62 895.19 884.43 874.45 865.33 857.09 849.74 843.21 837.45 832.35 827.87 823.97 820.68 818.02 816.08 814.92 814.61 815.20 816.72 819.17 822.55 826.82 831.94 837.85 844.48 851.77 859.63 868.00 876.80 885.96 895.42 905.10 914.96 924.93 934.98 945.04
991.73 975.36 959.15 943.43 928.59 915.14 903.72 895.13 890.33 890.45 896.64 909.65 929.13 952.60 975.30 991.96 1000.15 1001.53 999.88 998.55 999.38 1002.88 1008.78 1016.53 1025.53 1035.22 1045.15 1054.98 1064.47 1073.44 1081.78 1089.41 1096.32 1102.48 1107.91 1112.63 1116.67 1120.07 1122.86 1125.10 1126.80 1128.03 1128.81 1129.18 1129.17 1128.84 1128.20 1127.29 1126.15 1124.82 1123.31 1121.67 1119.92 1118.09 1116.22 1114.33 1112.45 1110.63 1108.93 1107.42 1106.24 1105.53 1105.40 1105.83 1106.65 1107.53 1108.19 1108.40 1108.02 1106.92 1104.87 1101.64 1096.97 1090.75 1082.99 1073.85 1063.56 1052.34 1040.35 1027.71 1014.52 1000.82 986.71 972.26 957.59 942.82 928.10 913.58 899.44 885.85 872.98 861.01 850.08 840.28 831.62 824.04 817.37 811.40 805.93 800.85 796.15 791.90 788.26 785.37 783.41 782.51 782.74 784.16 786.76 790.52 795.38 801.27 808.09 815.76 824.18 833.25 842.87 852.94 863.39 874.13 885.07 896.16 907.33 918.52 929.69
972.23 952.91 933.41 914.02 895.14 877.30 861.21 847.83 838.54 835.32 841.02 859.29 893.18 941.00 990.58 1022.47 1029.18 1020.72 1007.53 997.42 992.93 993.77 998.74 1006.58 1016.21 1026.79 1037.71 1048.53 1058.93 1068.73 1077.79 1086.06 1093.49 1100.10 1105.90 1110.92 1115.20 1118.79 1121.74 1124.08 1125.87 1127.14 1127.95 1128.34 1128.33 1127.98 1127.32 1126.38 1125.21 1123.83 1122.27 1120.57 1118.76 1116.84 1114.85 1112.79 1110.64 1108.42 1106.12 1103.81 1101.71 1100.27 1100.17 1101.91 1105.05 1108.39 1111.04 1112.97 1114.42 1115.40 1115.49 1113.91 1109.83 1102.83 1093.14 1081.41 1068.37 1054.55 1040.21 1025.42 1010.19 994.50 978.36 961.87 945.13 928.32 911.61 895.21 879.36 864.26 850.17 837.31 825.88 816.01 807.68 800.64 794.43 788.50 782.46 776.14 769.69 763.45 757.81 753.15 749.74 747.80 747.43 748.66 751.43 755.69 761.32 768.19 776.17 785.13 794.94 805.46 816.56 828.15 840.10 852.31 864.70 877.18 889.69 902.16 914.54
955.94 933.64 910.67 887.26 863.71 840.43 817.97 797.03 778.60 764.35 757.60 765.18 797.95 863.77 947.64 1007.06 1021.12 1009.74 993.61 982.66 978.80 980.97 987.52 996.95 1008.06 1019.98 1032.08 1043.91 1055.18 1065.70 1075.36 1084.11 1091.94 1098.87 1104.91 1110.13 1114.55 1118.25 1121.26 1123.65 1125.46 1126.75 1127.55 1127.91 1127.89 1127.50 1126.81 1125.84 1124.62 1123.21 1121.62 1119.89 1118.04 1116.08 1114.02 1111.82 1109.42 1106.69 1103.43 1099.35 1094.22 1088.40 1084.31 1087.43 1098.77 1108.42 1112.42 1115.72 1120.42 1126.45 1132.87 1136.80 1134.54 1124.69 1109.16 1091.14 1072.91 1055.32 1038.30 1021.46 1004.40 986.88 968.84 950.34 931.54 912.68 894.03 875.90 858.59 842.43 827.73 814.83 804.07 795.64 789.41 784.66 780.05 774.19 766.31 756.63 746.05 735.62 726.24 718.54 712.90 709.53 708.43 709.54 712.71 717.74 724.45 732.63 742.10 752.67 764.17 776.44 789.32 802.67 816.36 830.27 844.29 858.34 872.32 886.19 899.88
944.93 920.08 894.08 867.06 839.23 810.89 782.44 754.35 727.05 700.73 675.61 656.95 664.83 714.44 791.80 864.79 910.51 931.46 940.49 946.74 954.15 963.72 975.25 988.11 1001.66 1015.36 1028.77 1041.58 1053.58 1064.65 1074.72 1083.78 1091.83 1098.90 1105.04 1110.31 1114.77 1118.47 1121.47 1123.83 1125.60 1126.84 1127.59 1127.91 1127.83 1127.40 1126.65 1125.64 1124.39 1122.95 1121.35 1119.62 1117.80 1115.89 1113.90 1111.80 1109.48 1106.77 1103.27 1098.24 1090.25 1076.64 1054.38 1042.82 1098.70 1115.22 1094.42 1110.58 1125.07 1142.01 1166.80 1189.58 1190.58 1164.86 1128.04 1094.79 1068.87 1048.34 1030.41 1013.15 995.47 976.90 957.38 937.07 916.28 895.42 874.92 855.27 836.94 820.41 806.18 794.80 786.84 782.71 782.01 782.63 781.20 774.21 760.49 742.51 723.51 705.82 690.79 679.07 670.88 666.19 664.75 666.25 670.32 676.63 684.88 694.79 706.13 718.67 732.21 746.56 761.52 776.92 792.61 808.43 824.28 840.05 855.65 871.02 886.09
941.14 914.70 886.77 857.40 826.76 795.14 762.99 731.06 700.48 673.07 651.43 638.22 642.16 671.03 717.75 771.51 820.52 859.13 888.21 911.07 930.62 948.59 965.80 982.47 998.57 1013.97 1028.49 1042.03 1054.50 1065.85 1076.07 1085.18 1093.23 1100.26 1106.33 1111.51 1115.87 1119.46 1122.35 1124.61 1126.28 1127.41 1128.07 1128.30 1128.14 1127.64 1126.83 1125.77 1124.48 1123.02 1121.43 1119.73 1117.98 1116.20 1114.43 1112.67 1110.91 1109.10 1107.13 1104.82 1102.04 1099.45 1101.90 1128.05 1192.84 1221.23 1166.71 1139.46 1137.12 1153.10 1195.83 1253.11 1259.66 1179.22 1097.35 1055.79 1036.44 1024.11 1012.28 998.61 982.49 964.00 943.52 921.58 898.76 875.73 853.19 831.90 812.60 796.03 782.93 774.05 770.16 771.81 778.04 783.69 783.59 773.56 749.92 720.65 691.84 666.66 646.42 631.55 621.93 617.13 616.48 619.31 625.03 633.15 643.34 655.32 668.85 683.69 699.61 716.37 733.74 751.49 769.44 787.40 805.26 822.89 840.20 857.14 873.64
945.82 919.14 890.85 860.99 829.70 797.25 764.02 730.61 697.75 666.29 637.87 620.78 639.03 671.69 710.25 752.32 794.13 832.43 865.93 894.90 920.28 942.99 963.70 982.79 1000.48 1016.84 1031.89 1045.66 1058.16 1069.42 1079.46 1088.36 1096.16 1102.94 1108.76 1113.70 1117.82 1121.20 1123.89 1125.96 1127.46 1128.44 1128.97 1129.07 1128.80 1128.20 1127.31 1126.18 1124.85 1123.36 1121.75 1120.08 1118.39 1116.73 1115.18 1113.78 1112.61 1111.79 1111.47 1111.95 1113.83 1118.29 1127.08 1141.01 1155.53 1160.12 1151.10 1137.22 1126.06 1119.80 1115.20 1093.16 1010.33 911.55 914.67 951.62 977.02 988.10 988.32 980.62 967.04 949.00 927.64 903.88 878.63 852.78 827.29 803.22 781.69 763.81 750.52 742.47 739.80 741.91 746.78 750.03 745.63 729.61 703.43 672.36 641.53 614.38 592.92 578.02 569.52 566.43 567.58 572.11 579.46 589.25 601.22 615.21 631.03 648.42 667.06 686.62 706.76 727.19 747.66 767.98 787.98 807.57 826.64 845.16 863.08
959.12 933.63 906.70 878.40 848.91 818.55 787.78 757.32 728.31 702.69 684.03 677.53 686.58 708.75 738.82 772.56 807.12 840.53 871.68 900.16 926.00 949.46 970.83 990.34 1008.15 1024.40 1039.18 1052.54 1064.56 1075.30 1084.83 1093.21 1100.53 1106.85 1112.25 1116.80 1120.57 1123.63 1126.03 1127.84 1129.11 1129.89 1130.23 1130.17 1129.77 1129.05 1128.06 1126.84 1125.43 1123.88 1122.23 1120.53 1118.84 1117.21 1115.70 1114.41 1113.43 1112.86 1112.86 1113.61 1115.33 1118.15 1121.93 1125.86 1128.26 1127.15 1121.49 1111.45 1097.11 1076.63 1044.63 993.19 925.84 880.92 890.37 924.95 953.60 968.73 971.82 965.62 952.40 933.77 910.96 884.96 856.63 826.88 796.72 767.39 740.43 717.65 700.87 691.18 688.00 688.76 689.72 687.22 678.49 662.30 639.52 612.82 585.80 562.06 544.80 535.75 532.35 529.51 527.88 530.34 536.82 546.52 559.15 574.69 592.89 613.29 635.27 658.22 681.65 705.14 728.40 751.22 773.44 794.97 815.77 835.79 855.03
979.93 956.82 932.65 907.55 881.81 855.82 830.20 805.84 784.00 766.40 755.08 751.96 757.87 772.08 792.61 817.15 843.63 870.50 896.69 921.58 944.86 966.43 986.29 1004.51 1021.14 1036.28 1049.98 1062.33 1073.38 1083.22 1091.91 1099.52 1106.14 1111.83 1116.66 1120.70 1124.01 1126.66 1128.70 1130.19 1131.17 1131.70 1131.82 1131.57 1131.00 1130.13 1129.01 1127.68 1126.18 1124.53 1122.80 1121.01 1119.22 1117.48 1115.85 1114.38 1113.15 1112.21 1111.61 1111.40 1111.54 1111.90 1112.16 1111.82 1110.16 1106.44 1100.02 1090.37 1076.88 1058.76 1035.39 1007.78 980.79 962.42 957.17 961.24 967.07 969.23 965.54 955.77 940.39 920.08 895.49 867.20 835.73 801.64 765.59 728.56 692.18 659.28 634.29 621.94 622.91 630.61 636.09 634.52 625.19 608.94 587.25 562.51 538.34 519.06 509.39 516.00 530.15 506.88 489.46 489.18 493.64 501.11 513.39 531.11 553.31 578.48 605.27 632.70 660.09 687.01 713.20 738.50 762.84 786.16 808.48 829.79 850.13
1006.22 986.19 965.52 944.42 923.22 902.33 882.36 864.07 848.41 836.43 829.17 827.42 831.43 840.85 854.79 872.07 891.46 911.91 932.56 952.79 972.20 990.54 1007.67 1023.54 1038.12 1051.42 1063.49 1074.35 1084.08 1092.72 1100.33 1106.98 1112.73 1117.65 1121.79 1125.22 1127.99 1130.16 1131.78 1132.90 1133.56 1133.81 1133.68 1133.21 1132.44 1131.41 1130.14 1128.67 1127.04 1125.28 1123.41 1121.49 1119.54 1117.61 1115.72 1113.92 1112.24 1110.69 1109.28 1107.97 1106.68 1105.27 1103.50 1101.08 1097.67 1092.87 1086.37 1077.89 1067.24 1054.47 1039.97 1024.79 1010.58 999.01 990.75 984.92 979.56 972.65 962.73 949.05 931.32 909.53 883.79 854.27 821.13 784.56 744.80 702.39 658.59 616.44 582.24 564.86 574.77 592.30 600.96 597.83 586.72 569.95 547.38 519.39 489.63 465.16 451.00 433.72 390.70 393.52 430.02 441.81 436.95 437.60 453.50 480.53 512.77 546.66 580.47 613.38 645.04 675.31 704.14 731.54 757.56 782.25 805.67 827.89 848.98
1035.62 1018.81 1001.75 984.65 967.81 951.60 936.49 923.04 911.86 903.55 898.63 897.47 900.15 906.47 915.98 928.02 941.91 956.94 972.53 988.18 1003.51 1018.25 1032.22 1045.29 1057.40 1068.52 1078.65 1087.79 1095.97 1103.24 1109.63 1115.19 1119.98 1124.04 1127.42 1130.18 1132.36 1134.01 1135.17 1135.88 1136.19 1136.12 1135.72 1135.01 1134.03 1132.81 1131.38 1129.76 1127.99 1126.08 1124.07 1121.98 1119.84 1117.68 1115.51 1113.35 1111.21 1109.09 1106.96 1104.79 1102.49 1099.96 1097.06 1093.62 1089.46 1084.38 1078.26 1070.98 1062.56 1053.13 1042.95 1032.48 1022.18 1012.41 1003.21 994.16 984.56 973.58 960.46 944.64 925.76 903.61 878.10 849.21 817.03 781.75 743.75 703.88 663.83 626.93 598.64 585.05 585.45 586.22 576.34 560.26 546.98 536.67 520.53 490.32 445.83 397.87 375.15 402.75 423.77 429.43 427.05 399.37 360.43 359.56 395.24 440.88 486.47 529.36 569.21 606.26 640.83 673.17 703.52 732.04 758.89 784.21 808.11 830.68 852.03
1065.96 1052.16 1038.36 1024.77 1011.62 999.21 987.86 977.96 969.86 963.91 960.39 959.47 961.17 965.37 971.81 980.11 989.88 1000.66 1012.06 1023.72 1035.34 1046.67 1057.55 1067.84 1077.45 1086.33 1094.45 1101.80 1108.38 1114.22 1119.35 1123.78 1127.56 1130.73 1133.32 1135.38 1136.94 1138.05 1138.72 1139.01 1138.94 1138.55 1137.86 1136.90 1135.70 1134.28 1132.67 1130.89 1128.96 1126.90 1124.74 1122.49 1120.16 1117.78 1115.35 1112.87 1110.36 1107.79 1105.14 1102.37 1099.43 1096.25 1092.74 1088.80 1084.34 1079.28 1073.53 1067.08 1059.93 1052.14 1043.84 1035.14 1026.17 1016.95 1007.38 997.23 986.13 973.69 959.47 943.14 924.40 903.06 879.05 852.36 823.14 791.72 758.73 725.20 692.70 663.29 638.74 618.72 598.60 571.01 534.12 499.90 487.52 498.74 508.67 497.93 468.08 435.62 421.70 432.17 448.33 454.38 445.22 420.77 396.16 395.14 420.39 458.80 500.60 541.57 580.40 616.81 650.91 682.86 712.84 741.02 767.54 792.53 816.12 838.39 859.45
1095.61 1084.38 1073.32 1062.57 1052.33 1042.80 1034.21 1026.79 1020.76 1016.33 1013.63 1012.75 1013.69 1016.37 1020.62 1026.24 1032.95 1040.49 1048.59 1056.99 1065.48 1073.86 1082.00 1089.75 1097.05 1103.83 1110.05 1115.68 1120.72 1125.18 1129.06 1132.38 1135.17 1137.46 1139.27 1140.63 1141.57 1142.12 1142.31 1142.17 1141.72 1140.99 1140.00 1138.79 1137.35 1135.73 1133.94 1131.99 1129.91 1127.70 1125.39 1122.98 1120.49 1117.92 1115.28 1112.56 1109.77 1106.88 1103.88 1100.74 1097.42 1093.87 1090.05 1085.89 1081.34 1076.35 1070.88 1064.91 1058.43 1051.46 1044.00 1036.08 1027.68 1018.76 1009.20 998.85 987.49 974.87 960.77 944.96 927.24 907.51 885.71 861.88 836.18 808.93 780.61 751.86 723.42 695.78 668.75 640.84 609.30 571.78 530.36 495.70 483.89 498.24 517.46 524.19 517.45 505.82 497.77 496.04 497.55 497.53 493.22 485.66 480.07 482.89 496.91 520.25 549.23 580.74 612.81 644.35 674.83 704.01 731.81 758.21 783.25 807.00 829.50 850.84 871.07
1123.50 1114.37 1105.47 1096.93 1088.87 1081.45 1074.81 1069.09 1064.43 1060.94 1058.70 1057.74 1058.06 1059.60 1062.26 1065.90 1070.35 1075.44 1080.99 1086.82 1092.78 1098.73 1104.55 1110.13 1115.41 1120.32 1124.83 1128.90 1132.53 1135.70 1138.42 1140.70 1142.56 1144.00 1145.05 1145.74 1146.07 1146.09 1145.80 1145.23 1144.40 1143.33 1142.05 1140.57 1138.91 1137.08 1135.10 1132.98 1130.75 1128.40 1125.95 1123.40 1120.77 1118.05 1115.25 1112.36 1109.37 1106.28 1103.07 1099.71 1096.19 1092.46 1088.49 1084.26 1079.71 1074.82 1069.56 1063.90 1057.82 1051.30 1044.33 1036.88 1028.90 1020.33 1011.07 1001.01 990.01 977.92 964.59 949.88 933.68 915.91 896.55 875.63 853.29 829.70 805.13 779.88 754.18 728.10 701.40 673.56 644.18 613.88 585.41 563.88 553.98 555.25 561.35 565.49 565.18 561.85 558.08 555.43 554.00 553.06 552.21 552.00 554.02 560.12 571.44 587.92 608.56 632.03 657.09 682.81 708.52 733.79 758.36 782.08 804.85 826.67 847.51 867.40 886.37
1149.06 1141.58 1134.34 1127.45 1120.99 1115.06 1109.76 1105.18 1101.39 1098.47 1096.45 1095.35 1095.15 1095.82 1097.28 1099.44 1102.20 1105.43 1109.03 1112.86 1116.83 1120.81 1124.73 1128.51 1132.08 1135.40 1138.43 1141.13 1143.50 1145.52 1147.19 1148.52 1149.51 1150.17 1150.51 1150.55 1150.31 1149.81 1149.06 1148.07 1146.87 1145.48 1143.90 1142.16 1140.26 1138.22 1136.06 1133.78 1131.39 1128.91 1126.33 1123.66 1120.91 1118.08 1115.16 1112.15 1109.04 1105.83 1102.50 1099.04 1095.41 1091.62 1087.61 1083.38 1078.90 1074.13 1069.06 1063.65 1057.88 1051.72 1045.14 1038.11 1030.57 1022.46 1013.71 1004.25 993.96 982.76 970.55 957.23 942.75 927.05 910.12 891.99 872.73 852.45 831.29 809.40 786.92 763.96 740.60 716.99 693.57 671.26 651.54 636.17 626.21 621.26 619.47 618.69 617.57 615.85 613.98 612.50 611.73 611.84 613.02 615.63 620.26 627.51 637.77 651.09 667.15 685.40 705.22 726.02 747.28 768.62 789.76 810.48 830.65 850.19 869.04 887.18 904.61
1172.10 1165.86 1159.86 1154.17 1148.85 1143.96 1139.57 1135.74 1132.50 1129.90 1127.95 1126.66 1126.01 1125.98 1126.51 1127.55 1129.02 1130.85 1132.94 1135.23 1137.62 1140.04 1142.43 1144.74 1146.90 1148.88 1150.65 1152.18 1153.45 1154.46 1155.20 1155.67 1155.87 1155.82 1155.51 1154.95 1154.18 1153.18 1151.98 1150.60 1149.04 1147.32 1145.45 1143.45 1141.32 1139.08 1136.73 1134.29 1131.75 1129.13 1126.44 1123.66 1120.81 1117.88 1114.88 1111.79 1108.61 1105.33 1101.95 1098.44 1094.79 1090.99 1087.02 1082.85 1078.47 1073.86 1068.98 1063.82 1058.34 1052.53 1046.35 1039.76 1032.72 1025.18 1017.09 1008.39 999.00 988.87 977.93 966.13 953.42 939.77 925.18 909.67 893.29 876.09 858.20 839.71 820.77 801.56 782.27 763.23 744.86 727.77 712.64 700.09 690.42 683.48 678.71 675.38 672.91 671.00 669.62 668.88 668.95 670.01 672.26 675.94 681.28 688.52 697.78 709.07 722.23 737.01 753.07 770.05 787.64 805.54 823.50 841.35 858.93 876.14 892.91 909.18 924.93
1192.62 1187.31 1182.22 1177.39 1172.86 1168.69 1164.90 1161.53 1158.61 1156.16 1154.19 1152.69 1151.65 1151.06 1150.86 1151.03 1151.50 1152.24 1153.17 1154.24 1155.40 1156.58 1157.75 1158.85 1159.85 1160.72 1161.44 1161.97 1162.30 1162.43 1162.36 1162.07 1161.56 1160.85 1159.95 1158.84 1157.56 1156.10 1154.48 1152.72 1150.81 1148.77 1146.62 1144.36 1142.00 1139.55 1137.02 1134.41 1131.74 1128.99 1126.18 1123.30 1120.36 1117.36 1114.29 1111.14 1107.92 1104.60 1101.20 1097.69 1094.06 1090.29 1086.39 1082.32 1078.07 1073.62 1068.95 1064.05 1058.88 1053.43 1047.67 1041.56 1035.07 1028.16 1020.80 1012.94 1004.54 995.54 985.92 975.64 964.66 952.98 940.59 927.51 913.78 899.45 884.60 869.34 853.80 838.15 822.58 807.37 792.82 779.27 767.06 756.48 747.65 740.56 735.04 730.85 727.76 725.59 724.29 723.86 724.36 725.88 728.53 732.45 737.72 744.45 752.66 762.32 773.35 785.59 798.84 812.89 827.53 842.55 857.77 873.04 888.24 903.25 918.00 932.43 946.50
1210.77 1206.14 1201.69 1197.47 1193.49 1189.78 1186.38 1183.29 1180.54 1178.14 1176.08 1174.37 1172.99 1171.92 1171.14 1170.61 1170.31 1170.18 1170.20 1170.32 1170.49 1170.69 1170.87 1171.00 1171.05 1171.00 1170.83 1170.51 1170.04 1169.41 1168.62 1167.65 1166.52 1165.22 1163.77 1162.16 1160.40 1158.51 1156.49 1154.35 1152.11 1149.76 1147.33 1144.82 1142.23 1139.57 1136.86 1134.09 1131.26 1128.39 1125.46 1122.49 1119.47 1116.39 1113.26 1110.07 1106.81 1103.48 1100.07 1096.57 1092.97 1089.26 1085.43 1081.47 1077.36 1073.09 1068.64 1064.00 1059.14 1054.05 1048.71 1043.09 1037.17 1030.92 1024.31 1017.31 1009.89 1002.03 993.70 984.87 975.53 965.68 955.32 944.46 933.13 921.39 909.29 896.93 884.41 871.86 859.45 847.37 835.80 824.97 815.06 806.24 798.59 792.15 786.90 782.75 779.65 777.51 776.30 776.01 776.67 778.31 780.99 784.74 789.62 795.65 802.83 811.11 820.43 830.68 841.75 853.50 865.77 878.43 891.35 904.40 917.48 930.51 943.41 956.12 968.60
1226.76 1222.61 1218.62 1214.80 1211.18 1207.78 1204.61 1201.67 1198.99 1196.56 1194.39 1192.46 1190.77 1189.31 1188.04 1186.96 1186.03 1185.22 1184.51 1183.87 1183.26 1182.66 1182.04 1181.38 1180.64 1179.83 1178.91 1177.87 1176.71 1175.42 1173.99 1172.43 1170.73 1168.90 1166.93 1164.85 1162.65 1160.35 1157.95 1155.45 1152.88 1150.23 1147.52 1144.76 1141.94 1139.08 1136.18 1133.24 1130.27 1127.27 1124.23 1121.16 1118.05 1114.91 1111.72 1108.48 1105.19 1101.84 1098.42 1094.93 1091.36 1087.69 1083.94 1080.07 1076.09 1071.98 1067.73 1063.33 1058.76 1054.02 1049.08 1043.93 1038.56 1032.93 1027.05 1020.88 1014.40 1007.61 1000.48 993.00 985.17 976.98 968.45 959.58 950.40 940.94 931.27 921.44 911.54 901.66 891.91 882.43 873.35 864.79 856.88 849.73 843.42 837.99 833.47 829.84 827.11 825.25 824.25 824.12 824.86 826.49 829.03 832.48 836.87 842.19 848.42 855.52 863.45 872.12 881.45 891.35 901.72 912.45 923.45 934.62 945.89 957.19 968.44 979.60 990.63
1240.81 1237.00 1233.31 1229.76 1226.37 1223.14 1220.09 1217.22 1214.53 1212.04 1209.73 1207.59 1205.63 1203.82 1202.16 1200.62 1199.18 1197.83 1196.53 1195.28 1194.04 1192.79 1191.51 1190.19 1188.80 1187.34 1185.79 1184.14 1182.38 1180.50 1178.52 1176.41 1174.20 1171.87 1169.44 1166.92 1164.30 1161.60 1158.82 1155.99 1153.09 1150.15 1147.16 1144.15 1141.10 1138.04 1134.95 1131.85 1128.73 1125.60 1122.45 1119.28 1116.08 1112.86 1109.60 1106.31 1102.97 1099.58 1096.14 1092.64 1089.07 1085.43 1081.72 1077.91 1074.02 1070.04 1065.94 1061.74 1057.42 1052.98 1048.39 1043.66 1038.78 1033.72 1028.49 1023.07 1017.44 1011.62 1005.57 999.31 992.83 986.13 979.22 972.11 964.82 957.37 949.82 942.19 934.55 926.97 919.51 912.27 905.33 898.78 892.69 887.16 882.23 877.96 874.38 871.52 869.39 867.99 867.34 867.43 868.29 869.91 872.30 875.46 879.39 884.09 889.51 895.65 902.44 909.84 917.79 926.21 935.04 944.20 953.62 963.23 972.97 982.78 992.60 1002.40 1012.13
1253.15 1249.55 1246.05 1242.66 1239.39 1236.25 1233.24 1230.37 1227.64 1225.05 1222.59 1220.26 1218.05 1215.95 1213.95 1212.03 1210.18 1208.38 1206.61 1204.86 1203.10 1201.32 1199.51 1197.64 1195.71 1193.70 1191.60 1189.42 1187.13 1184.74 1182.25 1179.66 1176.97 1174.18 1171.31 1168.36 1165.34 1162.26 1159.12 1155.94 1152.73 1149.49 1146.24 1142.97 1139.70 1136.43 1133.17 1129.90 1126.64 1123.38 1120.11 1116.84 1113.55 1110.25 1106.91 1103.55 1100.15 1096.70 1093.20 1089.65 1086.05 1082.38 1078.65 1074.86 1071.00 1067.07 1063.07 1059.00 1054.85 1050.62 1046.31 1041.91 1037.42 1032.83 1028.15 1023.36 1018.47 1013.47 1008.37 1003.16 997.86 992.45 986.96 981.39 975.76 970.09 964.39 958.70 953.06 947.49 942.06 936.80 931.78 927.05 922.66 918.68 915.14 912.10 909.58 907.61 906.22 905.42 905.22 905.65 906.70 908.38 910.70 913.66 917.24 921.44 926.23 931.59 937.50 943.89 950.74 957.99 965.59 973.48 981.61 989.93 998.39 1006.94 1015.55 1024.17 1032.77
1263.96 1260.48 1257.08 1253.77 1250.54 1247.42 1244.40 1241.48 1238.67 1235.96 1233.35 1230.83 1228.41 1226.06 1223.78 1221.55 1219.36 1217.20 1215.04 1212.89 1210.71 1208.50 1206.24 1203.92 1201.52 1199.05 1196.48 1193.83 1191.07 1188.22 1185.27 1182.22 1179.09 1175.87 1172.57 1169.21 1165.80 1162.34 1158.84 1155.33 1151.80 1148.27 1144.75 1141.24 1137.76 1134.29 1130.86 1127.44 1124.04 1120.66 1117.29 1113.92 1110.54 1107.14 1103.72 1100.27 1096.77 1093.22 1089.63 1085.97 1082.27 1078.50 1074.68 1070.81 1066.90 1062.93 1058.93 1054.88 1050.80 1046.68 1042.53 1038.34 1034.13 1029.88 1025.61 1021.31 1016.99 1012.66 1008.32 1003.98 999.66 995.36 991.09 986.86 982.69 978.58 974.55 970.60 966.75 963.02 959.43 956.00 952.77 949.76 947.00 944.54 942.40 940.61 939.21 938.22 937.67 937.57 937.94 938.79 940.14 941.99 944.35 947.21 950.58 954.43 958.77 963.55 968.78 974.40 980.39 986.72 993.34 1000.22 1007.31 1014.58 1021.98 1029.49 1037.07 1044.69 1052.31
1273.42 1269.98 1266.60 1263.29 1260.05 1256.89 1253.80 1250.80 1247.88 1245.04 1242.28 1239.60 1236.98 1234.41 1231.90 1229.42 1226.96 1224.51 1222.05 1219.58 1217.06 1214.50 1211.88 1209.18 1206.40 1203.53 1200.56 1197.49 1194.32 1191.04 1187.66 1184.19 1180.63 1176.99 1173.29 1169.52 1165.72 1161.88 1158.03 1154.18 1150.34 1146.53 1142.75 1139.01 1135.32 1131.69 1128.10 1124.56 1121.05 1117.58 1114.12 1110.66 1107.20 1103.71 1100.18 1096.61 1092.98 1089.29 1085.52 1081.69 1077.79 1073.83 1069.81 1065.75 1061.65 1057.53 1053.39 1049.24 1045.09 1040.94 1036.81 1032.69 1028.59 1024.52 1020.49 1016.49 1012.55 1008.68 1004.89 1001.22 997.66 994.25 991.01 987.94 985.05 982.35 979.84 977.51 975.36 973.37 971.55 969.90 968.40 967.08 965.95 965.01 964.30 963.82 963.60 963.67 964.03 964.72 965.75 967.13 968.88 971.01 973.52 976.42 979.70 983.36 987.39 991.78 996.50 1001.55 1006.90 1012.51 1018.38 1024.45 1030.71 1037.13 1043.68 1050.33 1057.05 1063.82 1070.62
1281.67 1278.20 1274.77 1271.39 1268.07 1264.82 1261.62 1258.50 1255.45 1252.47 1249.55 1246.71 1243.92 1241.18 1238.48 1235.80 1233.14 1230.48 1227.80 1225.08 1222.32 1219.49 1216.58 1213.58 1210.48 1207.28 1203.96 1200.53 1196.97 1193.31 1189.54 1185.66 1181.69 1177.64 1173.53 1169.36 1165.16 1160.95 1156.74 1152.55 1148.40 1144.32 1140.30 1136.36 1132.50 1128.74 1125.05 1121.43 1117.87 1114.34 1110.84 1107.33 1103.80 1100.22 1096.59 1092.87 1089.06 1085.14 1081.12 1076.99 1072.77 1068.47 1064.10 1059.69 1055.25 1050.80 1046.36 1041.94 1037.56 1033.22 1028.93 1024.71 1020.54 1016.45 1012.44 1008.53 1004.72 1001.06 997.56 994.27 991.23 988.47 986.02 983.92 982.17 980.78 979.73 978.99 978.53 978.31 978.31 978.47 978.78 979.22 979.77 980.44 981.22 982.12 983.16 984.36 985.73 987.30 989.07 991.08 993.33 995.83 998.60 1001.64 1004.96 1008.56 1012.43 1016.56 1020.96 1025.60 1030.47 1035.55 1040.83 1046.28 1051.88 1057.62 1063.48 1069.42 1075.44 1081.51 1087.61
1288.80 1285.23 1281.68 1278.18 1274.71 1271.30 1267.95 1264.66 1261.44 1258.30 1255.23 1252.23 1249.29 1246.41 1243.58 1240.77 1237.98 1235.18 1232.36 1229.50 1226.57 1223.56 1220.46 1217.24 1213.89 1210.42 1206.81 1203.06 1199.17 1195.15 1191.00 1186.73 1182.36 1177.91 1173.38 1168.81 1164.21 1159.61 1155.03 1150.51 1146.07 1141.73 1137.50 1133.41 1129.46 1125.63 1121.93 1118.33 1114.81 1111.33 1107.85 1104.35 1100.80 1097.16 1093.41 1089.51 1085.44 1081.20 1076.78 1072.20 1067.47 1062.62 1057.68 1052.69 1047.69 1042.70 1037.75 1032.86 1028.05 1023.32 1018.69 1014.16 1009.73 1005.39 1001.16 997.04 993.07 989.27 985.71 982.44 979.54 977.10 975.18 973.83 973.09 972.96 973.39 974.34 975.73 977.47 979.48 981.67 983.98 986.36 988.76 991.17 993.58 995.98 998.39 1000.81 1003.28 1005.81 1008.41 1011.12 1013.95 1016.91 1020.03 1023.32 1026.78 1030.42 1034.24 1038.25 1042.44 1046.80 1051.33 1056.02 1060.86 1065.83 1070.93 1076.13 1081.43 1086.80 1092.24 1097.73 1103.26
1294.91 1291.15 1287.41 1283.69 1280.00 1276.36 1272.78 1269.27 1265.83 1262.49 1259.24 1256.08 1253.02 1250.04 1247.13 1244.27 1241.44 1238.61 1235.76 1232.86 1229.88 1226.80 1223.59 1220.24 1216.74 1213.07 1209.23 1205.22 1201.03 1196.69 1192.18 1187.54 1182.77 1177.91 1172.96 1167.97 1162.95 1157.95 1153.01 1148.15 1143.42 1138.86 1134.49 1130.33 1126.39 1122.66 1119.12 1115.73 1112.42 1109.13 1105.82 1102.43 1098.92 1095.26 1091.39 1087.27 1082.86 1078.14 1073.11 1067.80 1062.25 1056.53 1050.71 1044.83 1038.96 1033.15 1027.43 1021.82 1016.36 1011.04 1005.87 1000.83 995.91 991.09 986.35 981.70 977.15 972.75 968.59 964.78 961.47 958.83 957.00 956.13 956.27 957.43 959.55 962.51 966.14 970.27 974.73 979.38 984.07 988.72 993.26 997.65 1001.88 1005.94 1009.84 1013.61 1017.26 1020.82 1024.33 1027.80 1031.27 1034.77 1038.31 1041.91 1045.58 1049.35 1053.21 1057.18 1061.26 1065.46 1069.76 1074.17 1078.68 1083.29 1087.98 1092.76 1097.61 1102.52 1107.49 1112.50 1117.55
1300.06 1296.03 1291.99 1287.95 1283.93 1279.95 1276.03 1272.19 1268.46 1264.84 1261.37 1258.04 1254.86 1251.82 1248.90 1246.08 1243.33 1240.61 1237.88 1235.09 1232.21 1229.20 1226.03 1222.67 1219.11 1215.34 1211.35 1207.13 1202.70 1198.06 1193.23 1188.22 1183.06 1177.77 1172.39 1166.96 1161.51 1156.09 1150.75 1145.55 1140.55 1135.81 1131.37 1127.29 1123.58 1120.22 1117.17 1114.33 1111.57 1108.77 1105.81 1102.65 1099.27 1095.63 1091.69 1087.33 1082.46 1077.01 1070.99 1064.48 1057.61 1050.51 1043.31 1036.10 1028.96 1021.97 1015.15 1008.56 1002.20 996.08 990.18 984.46 978.87 973.34 967.81 962.23 956.58 950.90 945.31 940.01 935.30 931.52 929.03 928.15 929.04 931.72 936.05 941.75 948.48 955.89 963.64 971.48 979.19 986.64 993.74 1000.44 1006.74 1012.64 1018.18 1023.39 1028.30 1032.96 1037.42 1041.70 1045.86 1049.92 1053.91 1057.87 1061.81 1065.75 1069.71 1073.71 1077.75 1081.84 1085.99 1090.20 1094.47 1098.80 1103.18 1107.63 1112.12 1116.66 1121.24 1125.86 1130.51
1304.32 1299.89 1295.42 1290.92 1286.41 1281.93 1277.50 1273.18 1268.99 1264.98 1261.17 1257.61 1254.30 1251.23 1248.40 1245.77 1243.27 1240.86 1238.47 1236.02 1233.46 1230.72 1227.77 1224.57 1221.09 1217.33 1213.27 1208.93 1204.31 1199.42 1194.28 1188.92 1183.37 1177.66 1171.83 1165.93 1160.00 1154.12 1148.36 1142.78 1137.50 1132.61 1128.21 1124.40 1121.25 1118.76 1116.87 1115.37 1113.91 1112.14 1109.76 1106.78 1103.39 1099.80 1095.97 1091.57 1086.19 1079.58 1071.82 1063.19 1054.06 1044.73 1035.42 1026.27 1017.36 1008.75 1000.48 992.59 985.10 978.01 971.26 964.77 958.41 952.04 945.47 938.55 931.14 923.21 914.84 906.36 898.34 891.55 886.87 885.06 886.59 891.47 899.31 909.41 921.01 933.36 945.87 958.10 969.78 980.75 990.93 1000.32 1008.96 1016.89 1024.18 1030.90 1037.11 1042.90 1048.31 1053.42 1058.26 1062.89 1067.34 1071.66 1075.88 1080.02 1084.11 1088.16 1092.20 1096.24 1100.28 1104.34 1108.43 1112.54 1116.68 1120.85 1125.06 1129.29 1133.56 1137.85 1142.17
1307.76 1302.80 1297.73 1292.57 1287.35 1282.12 1276.93 1271.83 1266.91 1262.25 1257.91 1253.96 1250.44 1247.39 1244.76 1242.51 1240.56 1238.78 1237.07 1235.31 1233.40 1231.24 1228.77 1225.94 1222.74 1219.14 1215.14 1210.77 1206.02 1200.94 1195.53 1189.84 1183.90 1177.76 1171.45 1165.04 1158.60 1152.19 1145.92 1139.90 1134.26 1129.18 1124.84 1121.48 1119.31 1118.52 1119.14 1120.86 1122.83 1123.65 1122.03 1117.95 1113.01 1109.00 1106.21 1103.15 1097.78 1089.12 1077.71 1064.84 1051.65 1038.76 1026.42 1014.65 1003.43 992.76 982.65 973.16 964.34 956.17 948.57 941.37 934.34 927.19 919.56 911.05 901.23 889.75 876.48 861.75 846.56 832.66 822.34 817.73 820.05 829.17 843.78 862.00 881.96 902.21 921.78 940.11 956.96 972.25 986.05 998.45 1009.61 1019.66 1028.74 1036.96 1044.46 1051.33 1057.66 1063.53 1069.01 1074.17 1079.05 1083.71 1088.19 1092.51 1096.72 1100.84 1104.89 1108.89 1112.85 1116.79 1120.73 1124.66 1128.59 1132.54 1136.50 1140.49 1144.49 1148.51 1152.55
1310.54 1304.87 1299.00 1292.92 1286.69 1280.34 1273.96 1267.64 1261.50 1255.70 1250.39 1245.72 1241.81 1238.73 1236.47 1234.94 1233.99 1233.40 1232.96 1232.45 1231.70 1230.57 1228.96 1226.83 1224.14 1220.89 1217.10 1212.80 1208.02 1202.80 1197.17 1191.17 1184.86 1178.27 1171.47 1164.52 1157.49 1150.48 1143.58 1136.95 1130.77 1125.27 1120.78 1117.71 1116.62 1118.22 1123.32 1132.44 1144.79 1155.96 1157.33 1144.59 1127.80 1119.36 1121.27 1127.84 1126.54 1111.92 1090.41 1068.36 1048.29 1030.53 1014.59 999.91 986.11 973.02 960.68 949.25 938.92 929.71 921.46 913.85 906.48 898.90 890.56 880.70 868.33 852.24 831.36 805.31 775.33 745.20 721.15 709.74 714.44 733.92 763.37 797.39 831.88 864.43 893.94 920.14 943.16 963.31 980.95 996.43 1010.07 1022.14 1032.88 1042.48 1051.12 1058.94 1066.06 1072.59 1078.62 1084.22 1089.46 1094.40 1099.08 1103.55 1107.85 1112.01 1116.05 1120.00 1123.88 1127.71 1131.51 1135.28 1139.03 1142.79 1146.54 1150.30 1154.08 1157.87 1161.68
1312.90 1306.36 1299.44 1292.15 1284.50 1276.54 1268.36 1260.08 1251.91 1244.09 1236.96 1230.84 1226.04 1222.78 1221.09 1220.83 1221.70 1223.26 1225.09 1226.77 1227.99 1228.56 1228.34 1227.29 1225.42 1222.75 1219.34 1215.24 1210.51 1205.21 1199.40 1193.14 1186.47 1179.46 1172.16 1164.64 1156.98 1149.26 1141.60 1134.15 1127.10 1120.72 1115.39 1111.68 1110.43 1113.00 1121.57 1139.65 1172.09 1219.05 1248.19 1203.65 1137.29 1110.86 1085.13 1194.89 1206.90 1148.23 1099.09 1063.11 1036.43 1015.35 997.29 980.66 964.62 948.91 933.78 919.86 907.82 897.91 889.61 882.04 874.54 866.80 858.44 848.51 835.15 815.54 786.17 743.82 687.87 624.52 569.89 544.53 558.39 603.41 663.09 724.19 779.95 828.22 869.09 903.50 932.51 957.11 978.12 996.20 1011.88 1025.58 1037.63 1048.31 1057.83 1066.37 1074.09 1081.11 1087.53 1093.44 1098.93 1104.04 1108.85 1113.39 1117.72 1121.87 1125.86 1129.74 1133.52 1137.23 1140.88 1144.49 1148.08 1151.65 1155.21 1158.78 1162.36 1165.95 1169.56
1315.23 1307.68 1299.53 1290.73 1281.26 1271.11 1260.34 1249.08 1237.59 1226.28 1215.74 1206.69 1199.87 1195.91 1195.03 1197.01 1201.17 1206.60 1212.37 1217.71 1222.10 1225.26 1227.09 1227.59 1226.85 1224.98 1222.10 1218.31 1213.72 1208.41 1202.48 1195.99 1189.01 1181.60 1173.82 1165.74 1157.43 1148.96 1140.43 1131.97 1123.73 1115.92 1108.86 1102.96 1098.92 1097.75 1101.11 1111.46 1131.71 1159.76 1169.84 1128.58 1081.49 1075.37 1111.63 1167.24 1150.55 1097.00 1055.29 1027.00 1006.50 989.58 973.71 957.52 940.36 922.05 903.15 885.32 871.23 862.14 855.46 847.60 837.95 828.24 819.96 812.58 803.11 786.50 755.95 703.71 624.09 522.35 427.06 382.97 416.27 497.30 590.99 677.39 750.22 809.69 857.98 897.42 929.96 957.12 980.05 999.60 1016.44 1031.07 1043.88 1055.17 1065.19 1074.14 1082.19 1089.46 1096.08 1102.14 1107.72 1112.88 1117.71 1122.23 1126.51 1130.58 1134.47 1138.23 1141.87 1145.43 1148.92 1152.36 1155.76 1159.15 1162.53 1165.92 1169.32 1172.73 1176.17
1318.09 1309.52 1300.07 1289.62 1278.06 1265.26 1251.18 1235.85 1219.51 1202.66 1186.24 1171.64 1160.59 1154.68 1154.79 1160.58 1170.53 1182.57 1194.76 1205.72 1214.69 1221.39 1225.86 1228.29 1228.92 1227.99 1225.72 1222.30 1217.90 1212.64 1206.64 1199.97 1192.73 1184.98 1176.78 1168.20 1159.28 1150.11 1140.74 1131.25 1121.72 1112.27 1103.02 1094.11 1085.71 1078.00 1071.04 1064.50 1057.06 1045.83 1028.01 1005.39 978.36 939.25 897.45 904.21 934.47 955.40 965.15 967.70 965.20 958.51 948.13 934.54 918.09 898.90 877.16 854.69 837.98 834.07 830.93 814.61 791.12 771.28 762.15 762.99 766.93 765.40 750.12 713.27 649.61 564.14 482.53 444.63 469.57 538.16 620.67 698.89 766.31 822.39 868.61 906.82 938.67 965.46 988.21 1007.72 1024.58 1039.26 1052.13 1063.49 1073.57 1082.56 1090.63 1097.90 1104.49 1110.50 1116.01 1121.08 1125.79 1130.18 1134.31 1138.22 1141.95 1145.52 1148.97 1152.34 1155.63 1158.87 1162.09 1165.29 1168.49 1171.70 1174.93 1178.19 1181.48
1322.17 1312.75 1302.18 1290.27 1276.76 1261.40 1243.93 1224.17 1202.14 1178.26 1153.70 1130.64 1112.35 1102.48 1103.53 1115.04 1133.69 1155.19 1176.00 1193.98 1208.28 1218.86 1226.08 1230.42 1232.35 1232.30 1230.61 1227.55 1223.34 1218.14 1212.10 1205.31 1197.88 1189.87 1181.35 1172.37 1162.99 1153.26 1143.23 1132.93 1122.40 1111.66 1100.69 1089.43 1077.73 1065.33 1051.80 1036.64 1019.59 1002.07 991.18 1009.89 1073.37 922.76 451.63 693.70 792.29 855.94 897.67 921.85 932.61 933.31 926.69 915.16 900.77 884.78 867.58 850.22 836.87 828.65 809.03 766.54 709.82 664.12 660.31 689.05 721.99 745.86 755.76 749.12 725.90 691.21 657.45 640.37 649.06 680.59 725.11 773.34 819.63 861.47 898.24 930.14 957.74 981.62 1002.36 1020.43 1036.25 1050.17 1062.45 1073.35 1083.05 1091.72 1099.50 1106.50 1112.84 1118.60 1123.86 1128.69 1133.15 1137.29 1141.16 1144.81 1148.28 1151.60 1154.81 1157.92 1160.98 1164.00 1166.99 1169.99 1173.00 1176.04 1179.11 1182.23 1185.40
1328.09 1318.22 1307.04 1294.28 1279.62 1262.67 1243.03 1220.29 1194.24 1165.08 1133.94 1103.40 1077.57 1060.84 1063.18 1082.04 1108.90 1138.48 1166.15 1189.38 1207.47 1220.69 1229.71 1235.27 1238.04 1238.54 1237.20 1234.36 1230.27 1225.12 1219.06 1212.21 1204.66 1196.49 1187.77 1178.55 1168.89 1158.84 1148.44 1137.73 1126.74 1115.49 1103.94 1092.01 1079.51 1066.11 1051.30 1034.39 1014.67 991.83 966.13 934.69 876.53 752.10 587.51 643.08 758.49 834.94 882.41 909.20 920.62 920.32 911.38 897.33 882.17 869.16 858.45 847.17 833.03 814.10 781.72 724.31 653.40 593.47 599.76 651.98 701.19 739.96 766.64 781.34 785.63 782.96 778.54 778.06 785.53 801.82 825.15 852.60 881.45 909.77 936.45 960.95 983.11 1003.00 1020.76 1036.60 1050.70 1063.27 1074.48 1084.50 1093.47 1101.50 1108.72 1115.22 1121.09 1126.41 1131.25 1135.67 1139.74 1143.50 1147.00 1150.29 1153.41 1156.40 1159.28 1162.09 1164.87 1167.62 1170.37 1173.15 1175.97 1178.83 1181.76 1184.76 1187.83
1336.26 1326.47 1315.39 1302.73 1288.19 1271.40 1251.95 1229.49 1203.82 1175.21 1144.83 1115.28 1090.86 1076.98 1078.61 1095.02 1120.52 1149.03 1175.90 1198.60 1216.35 1229.38 1238.31 1243.84 1246.60 1247.11 1245.80 1242.97 1238.89 1233.74 1227.67 1220.79 1213.20 1204.97 1196.18 1186.88 1177.13 1167.00 1156.54 1145.83 1134.95 1123.99 1113.04 1102.22 1091.62 1081.28 1071.05 1060.34 1047.56 1029.66 1002.70 964.20 915.00 861.44 824.45 829.61 863.38 896.11 917.52 927.90 928.46 919.70 902.52 879.49 856.04 840.55 839.43 839.45 828.97 820.22 807.76 737.96 635.94 597.92 642.12 687.16 727.41 762.92 791.96 813.97 829.65 840.68 849.32 857.94 868.38 881.63 897.69 915.92 935.39 955.19 974.61 993.16 1010.53 1026.60 1041.31 1054.69 1066.81 1077.76 1087.62 1096.49 1104.46 1111.63 1118.07 1123.86 1129.08 1133.78 1138.04 1141.91 1145.44 1148.69 1151.70 1154.52 1157.20 1159.76 1162.24 1164.69 1167.12 1169.56 1172.05 1174.58 1177.20 1179.89 1182.69 1185.59 1188.59
1346.67 1337.51 1327.21 1315.58 1302.40 1287.42 1270.44 1251.32 1230.13 1207.37 1184.21 1162.75 1145.97 1137.05 1137.95 1148.23 1165.11 1184.82 1204.15 1221.07 1234.68 1244.88 1251.91 1256.18 1258.12 1258.12 1256.47 1253.46 1249.27 1244.07 1237.99 1231.13 1223.57 1215.39 1206.65 1197.40 1187.73 1177.70 1167.39 1156.93 1146.46 1136.20 1126.44 1117.64 1110.46 1105.94 1105.65 1111.67 1125.42 1142.17 1141.06 1099.27 1035.67 985.90 964.18 968.99 982.57 982.14 971.91 961.11 948.92 932.07 908.89 880.74 853.25 835.19 832.62 841.29 838.94 829.02 816.32 788.08 750.20 728.92 734.75 756.38 782.75 808.95 832.89 853.71 871.34 886.28 899.38 911.60 923.81 936.58 950.16 964.50 979.35 994.37 1009.22 1023.62 1037.35 1050.26 1062.28 1073.37 1083.54 1092.80 1101.19 1108.78 1115.61 1121.75 1127.25 1132.17 1136.57 1140.50 1144.03 1147.19 1150.06 1152.66 1155.06 1157.29 1159.41 1161.45 1163.45 1165.45 1167.49 1169.58 1171.75 1174.04 1176.44 1178.98 1181.67 1184.50 1187.49
1358.95 1350.78 1341.73 1331.71 1320.59 1308.30 1294.80 1280.16 1264.63 1248.75 1233.41 1219.90 1209.72 1204.23 1204.15 1209.15 1217.93 1228.72 1239.81 1249.93 1258.33 1264.71 1269.04 1271.44 1272.11 1271.25 1269.07 1265.72 1261.36 1256.09 1250.02 1243.23 1235.78 1227.74 1219.15 1210.09 1200.60 1190.78 1180.71 1170.54 1160.45 1150.73 1141.80 1134.30 1129.27 1128.49 1134.98 1154.06 1193.87 1258.01 1301.39 1245.66 1113.96 1014.44 965.73 985.58 1054.12 1032.48 1001.95 985.52 971.86 955.53 935.20 912.38 890.98 875.81 869.26 868.06 865.88 860.10 851.45 840.83 830.41 824.42 825.97 834.88 848.83 865.30 882.42 899.05 914.62 929.02 942.39 955.04 967.28 979.38 991.50 1003.69 1015.91 1028.03 1039.92 1051.44 1062.46 1072.89 1082.66 1091.72 1100.07 1107.70 1114.63 1120.88 1126.49 1131.49 1135.92 1139.84 1143.29 1146.31 1148.96 1151.28 1153.32 1155.14 1156.79 1158.31 1159.75 1161.16 1162.58 1164.06 1165.62 1167.31 1169.15 1171.16 1173.37 1175.77 1178.38 1181.21 1184.24
1372.47 1365.46 1357.84 1349.57 1340.62 1331.01 1320.81 1310.15 1299.29 1288.64 1278.74 1270.25 1263.83 1260.00 1258.98 1260.54 1264.13 1268.93 1274.12 1279.01 1283.10 1286.11 1287.89 1288.44 1287.79 1286.04 1283.26 1279.56 1275.02 1269.71 1263.70 1257.05 1249.80 1241.99 1233.68 1224.89 1215.70 1206.16 1196.35 1186.40 1176.49 1166.85 1157.86 1150.02 1144.14 1141.36 1143.35 1152.13 1168.74 1187.91 1188.97 1145.83 1066.07 976.91 885.09 827.36 906.61 974.90 996.98 1000.18 994.47 983.48 969.15 953.34 938.27 925.93 917.21 911.42 907.03 902.84 898.56 894.63 891.93 891.55 894.33 900.46 909.47 920.54 932.80 945.51 958.20 970.57 982.52 994.05 1005.23 1016.14 1026.82 1037.31 1047.60 1057.64 1067.37 1076.72 1085.63 1094.04 1101.91 1109.20 1115.89 1121.98 1127.47 1132.37 1136.70 1140.49 1143.77 1146.57 1148.94 1150.91 1152.53 1153.85 1154.93 1155.81 1156.54 1157.20 1157.82 1158.47 1159.20 1160.05 1161.07 1162.30 1163.77 1165.50 1167.52 1169.83 1172.43 1175.32 1178.50
1386.63 1380.75 1374.48 1367.82 1360.77 1353.39 1345.76 1338.02 1330.35 1323.01 1316.29 1310.50 1305.92 1302.73 1301.00 1300.58 1301.21 1302.53 1304.13 1305.65 1306.79 1307.34 1307.18 1306.23 1304.49 1301.96 1298.69 1294.70 1290.05 1284.77 1278.90 1272.48 1265.54 1258.09 1250.18 1241.82 1233.04 1223.88 1214.40 1204.69 1194.84 1185.01 1175.42 1166.34 1158.10 1151.05 1145.42 1140.96 1136.34 1128.40 1112.56 1085.80 1050.19 1012.89 985.24 983.46 1014.64 1047.19 1048.17 1035.60 1023.65 1012.76 1001.85 990.86 980.36 971.08 963.46 957.55 953.07 949.72 947.33 945.98 945.91 947.41 950.73 955.90 962.76 971.00 980.23 990.07 1000.19 1010.36 1020.43 1030.30 1039.94 1049.33 1058.47 1067.35 1075.94 1084.23 1092.18 1099.75 1106.90 1113.59 1119.79 1125.49 1130.65 1135.28 1139.36 1142.91 1145.94 1148.46 1150.49 1152.07 1153.22 1154.00 1154.43 1154.58 1154.50 1154.25 1153.89 1153.49 1153.12 1152.85 1152.73 1152.84 1153.22 1153.93 1155.00 1156.46 1158.32 1160.60 1163.29 1166.37 1169.83
1400.92 1396.07 1390.96 1385.62 1380.08 1374.37 1368.59 1362.81 1357.17 1351.80 1346.85 1342.47 1338.77 1335.82 1333.62 1332.09 1331.10 1330.47 1330.00 1329.49 1328.78 1327.72 1326.23 1324.23 1321.70 1318.62 1315.01 1310.86 1306.21 1301.06 1295.45 1289.39 1282.89 1275.96 1268.61 1260.85 1252.69 1244.11 1235.15 1225.83 1216.18 1206.29 1196.23 1186.12 1176.05 1166.09 1156.17 1145.97 1134.91 1122.14 1106.94 1089.34 1070.79 1054.31 1044.02 1043.55 1052.42 1061.16 1060.11 1052.45 1044.36 1037.15 1030.29 1023.50 1016.90 1010.79 1005.47 1001.11 997.78 995.48 994.19 993.95 994.82 996.87 1000.12 1004.57 1010.10 1016.57 1023.76 1031.48 1039.51 1047.69 1055.90 1064.03 1072.01 1079.80 1087.36 1094.66 1101.68 1108.39 1114.75 1120.74 1126.33 1131.48 1136.19 1140.41 1144.15 1147.37 1150.08 1152.27 1153.96 1155.14 1155.83 1156.06 1155.86 1155.27 1154.33 1153.10 1151.64 1150.02 1148.33 1146.64 1145.04 1143.62 1142.47 1141.67 1141.30 1141.40 1142.04 1143.25 1145.03 1147.39 1150.31 1153.77 1157.71
1415.02 1411.04 1406.89 1402.59 1398.19 1393.70 1389.19 1384.72 1380.35 1376.16 1372.23 1368.62 1365.38 1362.52 1360.05 1357.91 1356.04 1354.33 1352.69 1351.01 1349.19 1347.14 1344.81 1342.15 1339.12 1335.72 1331.93 1327.77 1323.24 1318.35 1313.12 1307.56 1301.67 1295.45 1288.90 1282.00 1274.73 1267.05 1258.95 1250.37 1241.30 1231.73 1221.68 1211.19 1200.32 1189.10 1177.55 1165.61 1153.21 1140.24 1126.74 1113.01 1099.74 1087.90 1078.54 1072.26 1068.86 1067.26 1066.17 1064.81 1062.94 1060.50 1057.55 1054.21 1050.69 1047.24 1044.11 1041.48 1039.50 1038.25 1037.78 1038.14 1039.35 1041.43 1044.35 1048.10 1052.58 1057.70 1063.34 1069.38 1075.68 1082.14 1088.65 1095.12 1101.50 1107.73 1113.76 1119.55 1125.09 1130.32 1135.23 1139.78 1143.94 1147.70 1151.01 1153.86 1156.23 1158.10 1159.45 1160.28 1160.58 1160.35 1159.60 1158.35 1156.63 1154.46 1151.91 1149.04 1145.91 1142.62 1139.26 1135.95 1132.80 1129.94 1127.49 1125.57 1124.27 1123.68 1123.86 1124.86 1126.67 1129.30 1132.68 1136.78 1141.52
1428.76 1425.49 1422.11 1418.64 1415.09 1411.49 1407.88 1404.28 1400.74 1397.30 1393.99 1390.85 1387.88 1385.11 1382.50 1380.05 1377.70 1375.41 1373.13 1370.78 1368.32 1365.70 1362.89 1359.84 1356.55 1353.01 1349.21 1345.16 1340.87 1336.35 1331.63 1326.71 1321.61 1316.33 1310.86 1305.16 1299.21 1292.91 1286.18 1278.90 1270.97 1262.27 1252.78 1242.48 1231.44 1219.77 1207.63 1195.14 1182.46 1169.72 1157.10 1144.84 1133.27 1122.76 1113.66 1106.24 1100.59 1096.59 1093.92 1092.12 1090.72 1089.36 1087.85 1086.14 1084.31 1082.49 1080.82 1079.43 1078.45 1077.95 1078.00 1078.65 1079.90 1081.77 1084.23 1087.25 1090.78 1094.76 1099.10 1103.72 1108.53 1113.47 1118.45 1123.42 1128.30 1133.06 1137.66 1142.04 1146.19 1150.06 1153.63 1156.86 1159.72 1162.17 1164.20 1165.76 1166.83 1167.39 1167.40 1166.84 1165.71 1163.99 1161.68 1158.79 1155.34 1151.37 1146.92 1142.06 1136.89 1131.51 1126.05 1120.66 1115.51 1110.78 1106.64 1103.26 1100.80 1099.38 1099.09 1099.97 1102.02 1105.19 1109.41 1114.58 1120.56
1442.06 1439.39 1436.64 1433.81 1430.92 1427.98 1425.02 1422.05 1419.09 1416.17 1413.28 1410.46 1407.70 1405.01 1402.38 1399.78 1397.20 1394.61 1391.98 1389.28 1386.47 1383.55 1380.47 1377.24 1373.85 1370.29 1366.59 1362.74 1358.78 1354.73 1350.61 1346.48 1342.35 1338.25 1334.19 1330.15 1326.08 1321.87 1317.35 1312.27 1306.34 1299.28 1290.88 1281.08 1269.98 1257.82 1244.95 1231.73 1218.49 1205.50 1192.97 1181.11 1170.11 1160.13 1151.33 1143.84 1137.69 1132.85 1129.17 1126.41 1124.31 1122.62 1121.14 1119.78 1118.50 1117.33 1116.32 1115.53 1115.04 1114.88 1115.10 1115.74 1116.79 1118.27 1120.16 1122.43 1125.05 1127.96 1131.13 1134.48 1137.97 1141.55 1145.15 1148.73 1152.25 1155.66 1158.94 1162.03 1164.91 1167.54 1169.89 1171.92 1173.59 1174.86 1175.70 1176.06 1175.91 1175.20 1173.89 1171.95 1169.35 1166.06 1162.07 1157.37 1151.97 1145.89 1139.18 1131.92 1124.22 1116.20 1108.03 1099.93 1092.13 1084.88 1078.47 1073.16 1069.18 1066.74 1065.96 1066.89 1069.51 1073.72 1079.35 1086.22 1094.12
1454.92 1452.75 1450.52 1448.22 1445.86 1443.45 1440.99 1438.50 1435.98 1433.44 1430.88 1428.32 1425.74 1423.16 1420.55 1417.92 1415.24 1412.51 1409.72 1406.84 1403.86 1400.78 1397.59 1394.29 1390.89 1387.40 1383.84 1380.25 1376.65 1373.09 1369.64 1366.36 1363.32 1360.62 1358.31 1356.46 1355.05 1354.00 1353.05 1351.74 1349.43 1345.34 1338.81 1329.53 1317.69 1303.92 1289.05 1273.87 1258.99 1244.80 1231.54 1219.32 1208.23 1198.30 1189.55 1181.98 1175.57 1170.26 1165.93 1162.45 1159.66 1157.39 1155.52 1153.95 1152.60 1151.47 1150.54 1149.83 1149.37 1149.16 1149.23 1149.58 1150.23 1151.17 1152.37 1153.84 1155.53 1157.42 1159.47 1161.65 1163.91 1166.23 1168.57 1170.89 1173.16 1175.34 1177.42 1179.34 1181.08 1182.61 1183.88 1184.85 1185.47 1185.70 1185.47 1184.75 1183.47 1181.57 1179.00 1175.70 1171.61 1166.69 1160.91 1154.22 1146.62 1138.12 1128.75 1118.58 1107.73 1096.36 1084.68 1072.98 1061.58 1050.88 1041.31 1033.29 1027.24 1023.48 1022.22 1023.52 1027.29 1033.31 1041.28 1050.84 1061.62
1467.35 1465.63 1463.84 1461.99 1460.08 1458.10 1456.07 1453.97 1451.81 1449.60 1447.32 1444.99 1442.59 1440.12 1437.59 1434.98 1432.29 1429.52 1426.66 1423.70 1420.64 1417.50 1414.26 1410.96 1407.59 1404.18 1400.78 1397.41 1394.15 1391.05 1388.21 1385.75 1383.81 1382.55 1382.20 1382.96 1385.04 1388.53 1393.25 1398.57 1403.13 1404.88 1401.73 1392.51 1377.74 1359.33 1339.48 1319.92 1301.64 1285.06 1270.24 1257.11 1245.52 1235.33 1226.43 1218.72 1212.09 1206.46 1201.70 1197.71 1194.38 1191.60 1189.25 1187.27 1185.59 1184.17 1182.98 1182.01 1181.25 1180.70 1180.35 1180.21 1180.27 1180.52 1180.95 1181.54 1182.27 1183.13 1184.08 1185.12 1186.22 1187.36 1188.51 1189.65 1190.77 1191.84 1192.84 1193.73 1194.49 1195.06 1195.42 1195.50 1195.25 1194.60 1193.49 1191.84 1189.57 1186.61 1182.87 1178.28 1172.73 1166.17 1158.52 1149.70 1139.69 1128.45 1115.99 1102.36 1087.66 1072.08 1055.87 1039.38 1023.08 1007.54 993.43 981.49 972.42 966.84 965.12 967.35 973.29 982.46 994.23 1007.94 1022.99
1479.40 1478.08 1476.69 1475.25 1473.73 1472.15 1470.48 1468.74 1466.90 1464.98 1462.97 1460.85 1458.63 1456.31 1453.87 1451.33 1448.67 1445.89 1443.01 1440.02 1436.94 1433.76 1430.51 1427.20 1423.86 1420.52 1417.22 1414.03 1411.00 1408.23 1405.85 1404.01 1402.93 1402.89 1404.27 1407.55 1413.33 1422.22 1434.67 1450.32 1467.07 1480.19 1483.43 1472.86 1450.27 1421.53 1392.24 1365.53 1342.42 1322.81 1306.20 1292.08 1279.99 1269.58 1260.59 1252.80 1246.05 1240.23 1235.21 1230.88 1227.15 1223.93 1221.14 1218.71 1216.59 1214.73 1213.10 1211.66 1210.40 1209.31 1208.36 1207.56 1206.88 1206.32 1205.87 1205.51 1205.23 1205.02 1204.86 1204.76 1204.70 1204.67 1204.67 1204.70 1204.75 1204.80 1204.84 1204.84 1204.77 1204.59 1204.24 1203.65 1202.75 1201.47 1199.69 1197.34 1194.30 1190.48 1185.74 1179.99 1173.09 1164.95 1155.43 1144.44 1131.87 1117.65 1101.74 1084.14 1064.91 1044.23 1022.35 999.69 976.83 954.55 933.86 915.97 902.21 893.85 891.72 895.95 905.91 920.46 938.31 958.24 979.30
1491.08 1490.14 1489.14 1488.07 1486.93 1485.71 1484.40 1482.99 1481.47 1479.83 1478.07 1476.18 1474.15 1471.97 1469.65 1467.19 1464.58 1461.83 1458.95 1455.94 1452.83 1449.62 1446.34 1443.01 1439.67 1436.34 1433.08 1429.95 1427.02 1424.40 1422.22 1420.66 1419.97 1420.51 1422.75 1427.40 1435.38 1447.93 1466.36 1491.34 1520.83 1546.99 1557.21 1545.05 1512.46 1471.94 1433.60 1401.21 1374.94 1353.74 1336.47 1322.17 1310.16 1299.92 1291.11 1283.46 1276.78 1270.93 1265.78 1261.25 1257.23 1253.66 1250.48 1247.61 1245.01 1242.64 1240.46 1238.44 1236.55 1234.79 1233.11 1231.52 1229.99 1228.52 1227.08 1225.68 1224.31 1222.95 1221.62 1220.31 1219.04 1217.81 1216.65 1215.56 1214.56 1213.66 1212.85 1212.11 1211.41 1210.70 1209.91 1208.95 1207.72 1206.12 1204.01 1201.27 1197.76 1193.35 1187.88 1181.21 1173.18 1163.63 1152.39 1139.30 1124.21 1106.96 1087.44 1065.58 1041.38 1014.94 986.49 956.44 925.42 894.33 864.42 837.46 815.88 802.60 799.96 808.33 825.81 849.44 876.51 905.06 933.86
1502.42 1501.85 1501.22 1500.52 1499.75 1498.90 1497.94 1496.87 1495.67 1494.32 1492.83 1491.17 1489.33 1487.32 1485.12 1482.75 1480.19 1477.47 1474.58 1471.55 1468.40 1465.14 1461.80 1458.42 1455.02 1451.64 1448.33 1445.15 1442.18 1439.50 1437.25 1435.58 1434.72 1435.00 1436.86 1440.92 1448.03 1459.30 1475.91 1498.42 1524.94 1548.34 1557.46 1546.60 1517.63 1481.52 1447.21 1418.12 1394.43 1375.24 1359.53 1346.48 1335.44 1325.96 1317.72 1310.48 1304.06 1298.34 1293.19 1288.55 1284.33 1280.47 1276.91 1273.61 1270.52 1267.60 1264.82 1262.14 1259.55 1257.01 1254.51 1252.03 1249.54 1247.05 1244.52 1241.97 1239.37 1236.75 1234.10 1231.44 1228.81 1226.25 1223.79 1221.49 1219.40 1217.55 1215.96 1214.64 1213.55 1212.62 1211.76 1210.84 1209.72 1208.25 1206.25 1203.57 1200.01 1195.42 1189.60 1182.37 1173.54 1162.91 1150.27 1135.39 1118.04 1098.01 1075.10 1049.14 1020.03 987.81 952.64 914.94 875.35 834.74 794.18 755.08 720.35 696.59 692.59 710.17 741.73 779.10 817.87 856.11 892.98
1513.44 1513.22 1512.96 1512.64 1512.25 1511.77 1511.17 1510.46 1509.59 1508.57 1507.36 1505.95 1504.33 1502.50 1500.44 1498.15 1495.65 1492.93 1490.03 1486.95 1483.72 1480.38 1476.94 1473.45 1469.93 1466.44 1463.00 1459.69 1456.55 1453.66 1451.12 1449.06 1447.63 1447.05 1447.60 1449.65 1453.64 1460.03 1469.14 1480.68 1493.05 1502.76 1505.30 1497.92 1481.88 1461.32 1440.18 1420.71 1403.70 1389.10 1376.59 1365.80 1356.39 1348.10 1340.72 1334.08 1328.05 1322.55 1317.48 1312.79 1308.40 1304.27 1300.36 1296.63 1293.02 1289.53 1286.10 1282.71 1279.34 1275.96 1272.54 1269.07 1265.53 1261.89 1258.15 1254.29 1250.31 1246.21 1242.00 1237.73 1233.45 1229.22 1225.15 1221.35 1217.94 1215.01 1212.66 1210.91 1209.73 1209.03 1208.65 1208.40 1208.06 1207.38 1206.15 1204.13 1201.10 1196.85 1191.19 1183.89 1174.74 1163.51 1149.96 1133.81 1114.80 1092.62 1067.01 1037.70 1004.53 967.44 926.58 882.43 835.88 788.28 741.23 695.57 649.95 607.08 598.20 635.76 683.93 731.66 777.87 822.35 864.70
1524.10 1524.25 1524.36 1524.43 1524.42 1524.33 1524.13 1523.80 1523.30 1522.63 1521.74 1520.62 1519.25 1517.61 1515.70 1513.51 1511.05 1508.33 1505.38 1502.22 1498.88 1495.39 1491.80 1488.14 1484.45 1480.78 1477.16 1473.64 1470.26 1467.09 1464.18 1461.61 1459.47 1457.88 1456.96 1456.86 1457.69 1459.53 1462.28 1465.54 1468.47 1469.84 1468.34 1463.28 1454.89 1444.24 1432.59 1420.94 1409.89 1399.69 1390.40 1381.96 1374.27 1367.23 1360.76 1354.75 1349.14 1343.88 1338.89 1334.15 1329.60 1325.20 1320.92 1316.73 1312.59 1308.47 1304.35 1300.19 1295.98 1291.68 1287.27 1282.73 1278.02 1273.12 1268.00 1262.65 1257.04 1251.18 1245.05 1238.71 1232.22 1225.70 1219.33 1213.34 1208.00 1203.58 1200.28 1198.24 1197.43 1197.69 1198.73 1200.19 1201.68 1202.83 1203.29 1202.77 1201.02 1197.79 1192.90 1186.11 1177.23 1166.01 1152.20 1135.54 1115.70 1092.37 1065.23 1033.97 998.36 958.30 913.88 865.55 814.25 761.72 710.94 666.60 635.02 620.79 623.10 643.59 677.86 719.74 764.82 810.25 854.32
1534.38 1534.89 1535.38 1535.83 1536.23 1536.55 1536.77 1536.85 1536.77 1536.49 1535.97 1535.19 1534.11 1532.71 1530.98 1528.91 1526.49 1523.76 1520.73 1517.44 1513.92 1510.23 1506.42 1502.53 1498.61 1494.69 1490.84 1487.07 1483.43 1479.95 1476.68 1473.64 1470.89 1468.47 1466.41 1464.75 1463.49 1462.58 1461.90 1461.22 1460.20 1458.44 1455.56 1451.37 1445.90 1439.41 1432.27 1424.84 1417.41 1410.16 1403.20 1396.56 1390.25 1384.25 1378.53 1373.06 1367.79 1362.70 1357.76 1352.92 1348.17 1343.46 1338.78 1334.09 1329.36 1324.58 1319.71 1314.73 1309.62 1304.33 1298.84 1293.13 1287.15 1280.86 1274.22 1267.18 1259.68 1251.66 1243.11 1233.99 1224.37 1214.39 1204.33 1194.62 1185.87 1178.75 1173.88 1171.63 1172.03 1174.68 1178.94 1184.02 1189.17 1193.75 1197.28 1199.39 1199.84 1198.42 1194.97 1189.32 1181.31 1170.75 1157.42 1141.07 1121.42 1098.15 1070.96 1039.55 1003.70 963.35 918.61 869.88 817.77 763.12 707.08 652.25 606.28 588.00 593.38 635.69 682.03 728.59 774.68 819.71 863.03
1544.21 1545.07 1545.93 1546.76 1547.56 1548.30 1548.95 1549.47 1549.84 1550.00 1549.91 1549.54 1548.83 1547.76 1546.27 1544.37 1542.04 1539.29 1536.16 1532.68 1528.93 1524.96 1520.84 1516.63 1512.40 1508.19 1504.04 1500.00 1496.09 1492.33 1488.74 1485.35 1482.15 1479.17 1476.40 1473.83 1471.43 1469.17 1466.95 1464.68 1462.20 1459.38 1456.11 1452.30 1447.95 1443.14 1437.97 1432.55 1427.01 1421.44 1415.90 1410.43 1405.05 1399.77 1394.58 1389.47 1384.42 1379.41 1374.41 1369.42 1364.40 1359.33 1354.19 1348.95 1343.59 1338.09 1332.41 1326.54 1320.44 1314.10 1307.46 1300.50 1293.16 1285.38 1277.09 1268.19 1258.55 1248.04 1236.47 1223.70 1209.60 1194.18 1177.72 1160.95 1145.15 1132.10 1123.66 1121.15 1124.65 1133.05 1144.47 1156.98 1169.04 1179.61 1188.12 1194.28 1197.95 1199.10 1197.72 1193.75 1187.16 1177.83 1165.63 1150.39 1131.88 1109.86 1084.07 1054.27 1020.32 982.26 940.45 895.72 849.42 803.34 759.39 719.45 686.71 667.71 670.69 695.26 730.77 770.09 810.48 850.70 889.95
1553.54 1554.71 1555.90 1557.08 1558.24 1559.35 1560.40 1561.35 1562.16 1562.78 1563.18 1563.31 1563.09 1562.48 1561.40 1559.82 1557.68 1554.98 1551.76 1548.06 1543.98 1539.62 1535.08 1530.44 1525.80 1521.21 1516.72 1512.38 1508.19 1504.18 1500.34 1496.69 1493.21 1489.90 1486.73 1483.71 1480.78 1477.93 1475.09 1472.21 1469.24 1466.11 1462.78 1459.20 1455.37 1451.31 1447.03 1442.58 1438.00 1433.33 1428.59 1423.81 1418.99 1414.14 1409.26 1404.33 1399.36 1394.32 1389.19 1383.96 1378.61 1373.11 1367.45 1361.59 1355.53 1349.24 1342.68 1335.85 1328.70 1321.21 1313.35 1305.06 1296.30 1286.97 1276.99 1266.18 1254.35 1241.19 1226.30 1209.16 1189.16 1165.66 1138.33 1107.69 1075.99 1047.86 1029.66 1026.44 1038.62 1061.74 1089.55 1117.05 1141.40 1161.48 1177.15 1188.66 1196.36 1200.60 1201.64 1199.67 1194.80 1187.06 1176.43 1162.86 1146.23 1126.38 1103.13 1076.29 1045.73 1011.43 973.72 933.47 892.36 853.22 820.18 797.92 787.77 783.26 781.60 789.13 807.47 833.65 864.36 897.17 930.47
1562.31 1563.73 1565.16 1566.59 1568.01 1569.39 1570.70 1571.94 1573.06 1574.06 1574.90 1575.57 1576.01 1576.15 1575.86 1574.98 1573.37 1570.95 1567.72 1563.77 1559.24 1554.32 1549.17 1543.94 1538.74 1533.67 1528.78 1524.09 1519.62 1515.38 1511.34 1507.52 1503.87 1500.39 1497.05 1493.83 1490.70 1487.63 1484.59 1481.53 1478.44 1475.27 1472.00 1468.60 1465.07 1461.40 1457.58 1453.63 1449.56 1445.37 1441.07 1436.66 1432.14 1427.52 1422.78 1417.91 1412.89 1407.73 1402.38 1396.84 1391.09 1385.10 1378.85 1372.32 1365.48 1358.32 1350.80 1342.92 1334.63 1325.91 1316.72 1307.04 1296.79 1285.90 1274.25 1261.66 1247.86 1232.41 1214.65 1193.57 1167.65 1134.79 1092.39 1038.19 973.09 906.49 859.68 854.81 893.04 953.91 1016.39 1069.98 1112.31 1144.44 1168.21 1185.28 1196.94 1204.12 1207.46 1207.38 1204.19 1198.06 1189.10 1177.39 1162.94 1145.73 1125.71 1102.74 1076.63 1047.17 1014.16 977.60 937.81 895.71 853.37 815.69 792.30 797.75 819.45 843.70 868.52 894.54 921.86 950.00 978.33
1570.50 1572.08 1573.65 1575.18 1576.66 1578.06 1579.35 1580.51 1581.54 1582.45 1583.34 1584.35 1585.60 1587.08 1588.53 1589.42 1589.25 1587.67 1584.63 1580.31 1575.05 1569.22 1563.14 1557.05 1551.11 1545.42 1540.03 1534.97 1530.22 1525.77 1521.59 1517.65 1513.93 1510.38 1507.00 1503.74 1500.57 1497.47 1494.41 1491.36 1488.30 1485.21 1482.05 1478.82 1475.50 1472.07 1468.53 1464.87 1461.08 1457.16 1453.10 1448.90 1444.54 1440.01 1435.29 1430.38 1425.25 1419.89 1414.27 1408.36 1402.15 1395.61 1388.71 1381.44 1373.75 1365.64 1357.07 1348.03 1338.48 1328.41 1317.78 1306.56 1294.72 1282.20 1268.90 1254.69 1239.34 1222.43 1203.25 1180.59 1152.34 1115.02 1063.08 988.78 885.25 759.86 658.12 651.32 741.53 860.29 963.70 1041.72 1098.08 1138.45 1167.34 1187.82 1201.93 1210.99 1215.87 1217.14 1215.20 1210.32 1202.71 1192.53 1179.97 1165.17 1148.31 1129.49 1108.65 1085.54 1059.66 1030.45 997.59 961.65 925.04 893.30 874.60 874.15 888.60 910.29 934.13 958.28 982.39 1006.38 1030.12
1578.24 1579.90 1581.47 1582.93 1584.21 1585.28 1586.07 1586.53 1586.61 1586.32 1585.83 1585.79 1587.45 1591.71 1597.72 1603.49 1607.03 1607.27 1604.30 1598.90 1592.03 1584.52 1576.91 1569.55 1562.62 1556.18 1550.25 1544.80 1539.79 1535.18 1530.90 1526.92 1523.19 1519.66 1516.31 1513.09 1509.98 1506.95 1503.97 1501.01 1498.06 1495.08 1492.07 1489.00 1485.85 1482.61 1479.27 1475.81 1472.21 1468.47 1464.56 1460.47 1456.18 1451.68 1446.94 1441.94 1436.65 1431.05 1425.11 1418.81 1412.10 1404.97 1397.38 1389.30 1380.70 1371.55 1361.83 1351.50 1340.56 1328.96 1316.70 1303.75 1290.09 1275.69 1260.52 1244.55 1227.71 1209.85 1190.66 1169.42 1144.68 1113.68 1071.79 1012.34 929.18 828.05 746.35 739.46 809.79 907.05 994.65 1062.89 1113.66 1151.05 1178.50 1198.44 1212.52 1221.84 1227.16 1228.96 1227.60 1223.33 1216.34 1206.84 1195.05 1181.32 1166.11 1150.02 1133.62 1117.16 1100.30 1082.17 1061.95 1039.81 1017.48 998.16 985.44 981.52 986.05 996.91 1011.65 1028.52 1046.49 1064.98 1083.65
1585.82 1587.53 1589.05 1590.29 1591.18 1591.61 1591.48 1590.66 1588.99 1586.25 1581.97 1575.19 1573.01 1586.66 1606.19 1625.12 1636.26 1637.37 1631.23 1621.49 1610.60 1599.88 1589.90 1580.85 1572.75 1565.54 1559.10 1553.33 1548.15 1543.44 1539.15 1535.20 1531.52 1528.08 1524.82 1521.70 1518.70 1515.79 1512.93 1510.11 1507.29 1504.46 1501.60 1498.69 1495.72 1492.65 1489.48 1486.18 1482.74 1479.14 1475.35 1471.35 1467.12 1462.62 1457.84 1452.74 1447.29 1441.45 1435.19 1428.48 1421.27 1413.53 1405.21 1396.29 1386.72 1376.46 1365.48 1353.75 1341.25 1327.94 1313.80 1298.82 1282.97 1266.22 1248.56 1230.01 1210.67 1190.77 1170.70 1150.91 1131.51 1111.87 1090.32 1064.55 1033.42 1000.43 976.48 974.45 997.19 1035.43 1077.65 1116.79 1150.18 1177.43 1199.01 1215.59 1227.80 1236.12 1240.95 1242.56 1241.13 1236.79 1229.60 1219.60 1206.84 1191.52 1174.15 1155.86 1138.62 1124.80 1115.67 1109.93 1104.58 1097.55 1088.94 1080.39 1073.92 1071.03 1072.30 1077.44 1085.74 1096.36 1108.59 1121.87 1135.80
1593.73 1595.63 1597.22 1598.34 1598.86 1598.63 1597.50 1595.34 1592.00 1587.34 1581.32 1573.66 1573.50 1596.85 1645.55 1697.21 1708.76 1691.47 1667.93 1646.35 1628.14 1612.99 1600.35 1589.72 1580.69 1572.93 1566.21 1560.33 1555.12 1550.46 1546.25 1542.40 1538.85 1535.54 1532.41 1529.44 1526.59 1523.81 1521.10 1518.43 1515.77 1513.10 1510.41 1507.67 1504.86 1501.97 1498.97 1495.84 1492.56 1489.11 1485.44 1481.54 1477.38 1472.92 1468.12 1462.95 1457.36 1451.31 1444.77 1437.67 1429.98 1421.65 1412.61 1402.84 1392.26 1380.84 1368.54 1355.30 1341.09 1325.89 1309.65 1292.34 1273.93 1254.31 1233.37 1210.91 1186.83 1161.33 1135.44 1111.35 1092.02 1079.37 1072.89 1070.48 1070.30 1071.81 1076.09 1085.07 1099.84 1119.60 1142.16 1165.17 1186.84 1206.09 1222.40 1235.57 1245.59 1252.54 1256.50 1257.54 1255.69 1250.93 1243.11 1231.99 1217.15 1198.03 1174.18 1146.00 1116.61 1093.82 1087.21 1097.00 1112.09 1123.88 1130.41 1133.18 1134.32 1135.56 1137.96 1142.02 1147.79 1155.13 1163.76 1173.40 1183.77
1602.60 1605.12 1607.26 1608.80 1609.49 1609.09 1607.45 1604.52 1600.39 1595.28 1589.71 1586.77 1596.01 1631.31 1708.92 1776.27 1768.15 1726.12 1687.49 1658.26 1636.26 1619.27 1605.76 1594.77 1585.65 1577.97 1571.39 1565.68 1560.66 1556.20 1552.18 1548.53 1545.15 1542.01 1539.06 1536.24 1533.54 1530.93 1528.37 1525.85 1523.35 1520.84 1518.32 1515.75 1513.13 1510.42 1507.61 1504.68 1501.58 1498.30 1494.81 1491.05 1487.01 1482.63 1477.88 1472.70 1467.04 1460.86 1454.09 1446.69 1438.58 1429.71 1420.01 1409.42 1397.87 1385.30 1371.65 1356.85 1340.85 1323.61 1305.09 1285.28 1264.12 1241.52 1217.18 1190.43 1160.05 1124.38 1082.60 1038.53 1005.05 995.27 1003.46 1018.77 1039.33 1063.40 1088.07 1111.84 1134.54 1156.35 1177.24 1196.91 1214.93 1230.91 1244.55 1255.65 1264.13 1269.94 1273.06 1273.50 1271.22 1266.13 1258.05 1246.60 1231.14 1210.64 1183.77 1149.64 1110.76 1077.45 1067.75 1089.05 1117.92 1142.30 1159.23 1170.19 1177.44 1182.80 1187.52 1192.37 1197.76 1203.87 1210.71 1218.23 1226.32
1612.91 1616.90 1620.70 1624.00 1626.36 1627.31 1626.47 1623.78 1619.79 1615.74 1613.49 1615.51 1624.88 1644.33 1671.76 1694.26 1698.02 1685.20 1666.10 1647.24 1630.79 1616.98 1605.46 1595.82 1587.68 1580.73 1574.74 1569.51 1564.89 1560.77 1557.04 1553.63 1550.47 1547.52 1544.74 1542.09 1539.54 1537.06 1534.65 1532.27 1529.92 1527.57 1525.21 1522.82 1520.39 1517.88 1515.29 1512.57 1509.71 1506.66 1503.39 1499.86 1496.02 1491.81 1487.20 1482.11 1476.49 1470.28 1463.41 1455.80 1447.39 1438.09 1427.84 1416.55 1404.14 1390.51 1375.59 1359.28 1341.50 1322.18 1301.28 1278.80 1254.82 1229.46 1202.78 1174.31 1142.13 1101.19 1042.05 955.28 863.95 873.25 909.99 924.08 969.13 1022.08 1069.58 1109.90 1143.88 1172.71 1197.40 1218.66 1236.90 1252.36 1265.14 1275.28 1282.83 1287.79 1290.18 1290.03 1287.34 1282.10 1274.27 1263.74 1250.30 1233.63 1213.41 1189.90 1165.44 1146.16 1139.73 1147.67 1163.57 1180.33 1194.59 1205.76 1214.44 1221.43 1227.46 1233.07 1238.63 1244.38 1250.43 1256.83 1263.56
1624.50 1631.16 1638.44 1646.10 1653.57 1659.81 1663.34 1662.71 1657.74 1650.24 1643.22 1639.15 1639.11 1642.72 1648.12 1652.26 1652.39 1647.76 1639.63 1629.86 1619.87 1610.45 1601.94 1594.40 1587.76 1581.92 1576.76 1572.18 1568.07 1564.35 1560.95 1557.80 1554.87 1552.11 1549.48 1546.96 1544.53 1542.17 1539.86 1537.60 1535.36 1533.15 1530.94 1528.72 1526.48 1524.20 1521.84 1519.40 1516.82 1514.07 1511.11 1507.89 1504.36 1500.45 1496.10 1491.25 1485.81 1479.72 1472.90 1465.26 1456.71 1447.17 1436.55 1424.75 1411.67 1397.21 1381.25 1363.66 1344.33 1323.10 1299.86 1274.53 1247.20 1218.27 1188.67 1159.96 1133.65 1108.02 1073.14 1018.78 961.28 925.15 879.61 879.21 940.50 1006.58 1065.48 1114.89 1155.52 1188.87 1216.38 1239.14 1257.97 1273.37 1285.70 1295.18 1301.93 1306.05 1307.61 1306.65 1303.26 1297.50 1289.49 1279.40 1267.50 1254.30 1240.59 1227.51 1216.47 1208.98 1206.30 1208.65 1214.89 1223.22 1232.06 1240.51 1248.20 1255.14 1261.48 1267.41 1273.13 1278.79 1284.49 1290.31 1296.28
1635.75 1645.94 1658.40 1673.60 1691.59 1711.24 1728.66 1736.68 1729.29 1709.26 1686.15 1667.20 1654.32 1646.43 1641.61 1638.00 1634.23 1629.56 1623.88 1617.51 1610.87 1604.32 1598.12 1592.37 1587.12 1582.36 1578.04 1574.11 1570.51 1567.18 1564.09 1561.19 1558.44 1555.82 1553.30 1550.86 1548.49 1546.19 1543.93 1541.72 1539.56 1537.43 1535.34 1533.27 1531.21 1529.15 1527.07 1524.93 1522.71 1520.35 1517.81 1515.02 1511.94 1508.47 1504.56 1500.11 1495.05 1489.28 1482.71 1475.24 1466.79 1457.24 1446.50 1434.46 1421.03 1406.07 1389.48 1371.12 1350.82 1328.37 1303.50 1275.87 1245.16 1211.31 1175.01 1138.56 1106.51 1090.25 1096.00 1083.38 1040.18 958.11 850.78 873.79 966.04 1038.69 1096.51 1143.91 1182.97 1215.23 1241.89 1263.88 1281.89 1296.42 1307.79 1316.25 1321.92 1324.91 1325.27 1323.07 1318.36 1311.20 1301.64 1289.68 1275.32 1258.92 1241.86 1227.27 1219.03 1218.71 1224.33 1232.82 1242.18 1251.54 1260.53 1268.98 1276.82 1284.05 1290.75 1297.02 1302.97 1308.70 1314.31 1319.86 1325.39
1643.45 1656.27 1672.94 1694.87 1723.55 1759.15 1796.80 1821.87 1811.13 1772.14 1728.26 1693.04 1668.55 1652.24 1641.19 1633.20 1626.80 1621.10 1615.68 1610.37 1605.16 1600.12 1595.33 1590.81 1586.60 1582.69 1579.05 1575.66 1572.49 1569.49 1566.64 1563.92 1561.29 1558.73 1556.24 1553.80 1551.41 1549.06 1546.77 1544.53 1542.34 1540.23 1538.18 1536.21 1534.31 1532.47 1530.67 1528.89 1527.08 1525.21 1523.21 1521.02 1518.55 1515.73 1512.45 1508.63 1504.17 1498.95 1492.89 1485.86 1477.77 1468.50 1457.94 1446.00 1432.58 1417.56 1400.87 1382.40 1362.04 1339.65 1314.95 1287.49 1256.58 1221.34 1181.48 1139.21 1102.51 1089.31 1104.60 1115.09 1107.71 1081.81 1053.90 1053.53 1082.74 1122.15 1160.83 1195.75 1226.37 1252.81 1275.34 1294.28 1309.93 1322.50 1332.16 1339.04 1343.19 1344.64 1343.41 1339.51 1333.00 1323.93 1312.28 1297.59 1278.42 1251.70 1214.62 1173.80 1154.30 1169.87 1200.24 1227.96 1249.55 1266.23 1279.60 1290.74 1300.30 1308.71 1316.24 1323.10 1329.44 1335.39 1341.06 1346.51 1351.81
1644.91 1657.46 1673.64 1694.57 1721.14 1752.66 1783.79 1802.02 1793.97 1763.27 1725.98 1693.55 1669.11 1651.59 1639.01 1629.68 1622.39 1616.34 1611.06 1606.27 1601.81 1597.64 1593.70 1589.99 1586.50 1583.20 1580.06 1577.08 1574.21 1571.45 1568.75 1566.10 1563.50 1560.91 1558.34 1555.79 1553.25 1550.74 1548.27 1545.86 1543.53 1541.29 1539.18 1537.21 1535.39 1533.73 1532.21 1530.83 1529.52 1528.26 1526.96 1525.54 1523.90 1521.95 1519.57 1516.64 1513.05 1508.68 1503.41 1497.13 1489.71 1481.04 1471.01 1459.53 1446.49 1431.83 1415.48 1397.45 1377.77 1356.50 1333.74 1309.53 1283.57 1254.76 1221.27 1182.80 1145.63 1125.79 1125.64 1136.93 1152.12 1162.68 1169.52 1178.19 1192.35 1211.59 1233.51 1255.87 1277.23 1296.77 1314.09 1329.01 1341.45 1351.41 1358.84 1363.74 1366.04 1365.68 1362.60 1356.80 1348.39 1337.74 1325.54 1312.67 1298.80 1277.34 1228.60 1138.70 1083.06 1137.76 1194.64 1233.05 1260.23 1280.81 1297.11 1310.45 1321.65 1331.25 1339.65 1347.12 1353.86 1360.05 1365.79 1371.20 1376.34
1640.54 1650.30 1662.11 1676.15 1692.09 1708.42 1721.90 1727.95 1723.41 1709.46 1690.84 1672.23 1656.12 1643.12 1632.86 1624.74 1618.16 1612.66 1607.92 1603.70 1599.87 1596.32 1593.00 1589.86 1586.87 1583.99 1581.22 1578.51 1575.84 1573.19 1570.54 1567.88 1565.19 1562.45 1559.68 1556.87 1554.03 1551.18 1548.35 1545.57 1542.88 1540.33 1537.96 1535.82 1533.95 1532.37 1531.10 1530.12 1529.41 1528.89 1528.48 1528.08 1527.55 1526.78 1525.60 1523.90 1521.51 1518.32 1514.19 1508.98 1502.59 1494.88 1485.75 1475.09 1462.82 1448.86 1433.18 1415.80 1396.84 1376.54 1355.33 1333.94 1313.48 1295.23 1276.79 1244.69 1186.48 1106.31 1079.05 1123.69 1174.31 1208.42 1231.52 1249.26 1265.16 1280.89 1296.82 1312.65 1327.91 1342.11 1354.89 1366.00 1375.25 1382.48 1387.57 1390.40 1390.81 1388.67 1383.83 1376.26 1366.09 1353.90 1341.20 1331.09 1328.80 1335.00 1321.83 1274.43 1264.55 1252.90 1256.01 1270.13 1287.39 1304.22 1319.38 1332.65 1344.15 1354.14 1362.88 1370.60 1377.50 1383.74 1389.45 1394.74 1399.69
1633.36 1639.83 1647.05 1654.81 1662.61 1669.54 1674.35 1675.79 1673.23 1667.06 1658.57 1649.25 1640.23 1632.11 1625.08 1619.08 1613.94 1609.49 1605.57 1602.04 1598.82 1595.82 1593.00 1590.29 1587.68 1585.12 1582.59 1580.05 1577.49 1574.87 1572.19 1569.41 1566.52 1563.52 1560.39 1557.15 1553.82 1550.41 1546.96 1543.53 1540.18 1536.99 1534.05 1531.44 1529.26 1527.57 1526.44 1525.87 1525.83 1526.25 1527.01 1527.97 1528.94 1529.73 1530.18 1530.09 1529.31 1527.68 1525.05 1521.30 1516.30 1509.94 1502.10 1492.69 1481.61 1468.78 1454.12 1437.63 1419.31 1399.31 1377.94 1355.75 1333.58 1311.68 1294.03 1303.05 1285.03 1244.73 1220.06 1227.31 1249.49 1272.98 1293.47 1310.87 1326.07 1339.91 1352.83 1364.99 1376.35 1386.75 1396.00 1403.93 1410.37 1415.15 1418.11 1419.09 1417.90 1414.38 1408.34 1399.70 1388.52 1375.22 1360.83 1347.24 1336.59 1328.16 1313.73 1293.99 1287.15 1290.23 1297.39 1308.01 1320.79 1334.14 1346.99 1358.81 1369.42 1378.85 1387.21 1394.65 1401.30 1407.30 1412.75 1417.76 1422.40
1626.18 1630.13 1634.20 1638.20 1641.83 1644.67 1646.32 1646.41 1644.83 1641.73 1637.51 1632.67 1627.66 1622.79 1618.26 1614.13 1610.40 1607.02 1603.95 1601.13 1598.49 1595.99 1593.58 1591.24 1588.93 1586.61 1584.25 1581.83 1579.31 1576.66 1573.87 1570.89 1567.72 1564.33 1560.72 1556.87 1552.81 1548.55 1544.16 1539.68 1535.22 1530.90 1526.86 1523.27 1520.30 1518.12 1516.87 1516.63 1517.39 1519.06 1521.44 1524.28 1527.32 1530.28 1532.89 1534.93 1536.22 1536.57 1535.85 1533.93 1530.71 1526.09 1519.97 1512.27 1502.90 1491.78 1478.82 1463.96 1447.12 1428.22 1407.27 1384.38 1360.10 1335.57 1314.41 1323.33 1331.54 1332.19 1330.32 1332.05 1339.22 1349.96 1361.99 1373.96 1385.31 1395.89 1405.72 1414.78 1423.05 1430.45 1436.88 1442.21 1446.31 1449.04 1450.25 1449.78 1447.48 1443.19 1436.78 1428.17 1417.43 1404.85 1391.06 1377.02 1363.80 1352.02 1341.86 1334.24 1331.08 1333.09 1339.22 1347.95 1358.03 1368.53 1378.85 1388.59 1397.57 1405.73 1413.11 1419.75 1425.74 1431.17 1436.12 1440.66 1444.85
1620.36 1622.70 1624.95 1627.01 1628.70 1629.88 1630.39 1630.13 1629.08 1627.31 1624.97 1622.24 1619.30 1616.32 1613.40 1610.61 1607.97 1605.49 1603.15 1600.94 1598.81 1596.75 1594.72 1592.69 1590.63 1588.51 1586.30 1583.96 1581.46 1578.77 1575.84 1572.64 1569.13 1565.28 1561.05 1556.43 1551.40 1545.98 1540.21 1534.16 1527.94 1521.72 1515.72 1510.20 1505.52 1502.03 1500.11 1499.99 1501.77 1505.26 1510.10 1515.82 1521.90 1527.90 1533.46 1538.27 1542.15 1544.93 1546.51 1546.78 1545.67 1543.14 1539.11 1533.55 1526.42 1517.67 1507.28 1495.23 1481.52 1466.18 1449.27 1430.89 1411.17 1390.75 1375.13 1377.63 1389.44 1398.02 1403.80 1408.80 1414.31 1420.74 1427.88 1435.34 1442.76 1449.91 1456.64 1462.82 1468.40 1473.27 1477.34 1480.53 1482.72 1483.80 1483.66 1482.17 1479.22 1474.71 1468.57 1460.80 1451.49 1440.91 1429.49 1417.89 1406.84 1397.12 1389.38 1384.21 1382.05 1382.94 1386.48 1391.99 1398.73 1406.08 1413.57 1420.89 1427.84 1434.34 1440.33 1445.83 1450.86 1455.47 1459.70 1463.59 1467.19
1616.17 1617.56 1618.83 1619.90 1620.72 1621.21 1621.31 1621.00 1620.27 1619.17 1617.75 1616.10 1614.28 1612.39 1610.47 1608.57 1606.71 1604.91 1603.15 1601.44 1599.75 1598.07 1596.37 1594.62 1592.81 1590.89 1588.83 1586.60 1584.16 1581.45 1578.42 1575.03 1571.21 1566.89 1562.00 1556.49 1550.30 1543.40 1535.78 1527.48 1518.61 1509.35 1499.96 1490.83 1482.51 1475.82 1471.74 1471.16 1474.44 1481.20 1490.48 1501.09 1512.00 1522.48 1532.03 1540.39 1547.41 1553.02 1557.18 1559.88 1561.12 1560.90 1559.21 1556.08 1551.52 1545.58 1538.33 1529.88 1520.44 1510.35 1500.23 1491.31 1486.22 1491.22 1517.42 1534.63 1504.15 1484.77 1479.00 1478.51 1480.40 1483.62 1487.64 1492.06 1496.59 1501.02 1505.19 1508.97 1512.29 1515.05 1517.18 1518.62 1519.26 1519.04 1517.87 1515.67 1512.37 1507.93 1502.32 1495.61 1487.88 1479.38 1470.41 1461.40 1452.86 1445.29 1439.15 1434.80 1432.41 1431.98 1433.32 1436.10 1439.91 1444.40 1449.24 1454.20 1459.09 1463.81 1468.28 1472.48 1476.39 1480.03 1483.40 1486.53 1489.44
1613.39 1614.24 1614.98 1615.57 1615.99 1616.19 1616.16 1615.89 1615.39 1614.68 1613.78 1612.72 1611.56 1610.33 1609.05 1607.75 1606.45 1605.15 1603.86 1602.56 1601.24 1599.90 1598.51 1597.05 1595.49 1593.80 1591.94 1589.88 1587.57 1584.95 1581.95 1578.49 1574.49 1569.84 1564.41 1558.07 1550.66 1542.05 1532.12 1520.81 1508.14 1494.25 1479.33 1463.63 1447.58 1432.54 1421.48 1418.27 1424.92 1439.77 1458.97 1479.09 1498.09 1515.09 1529.85 1542.41 1552.92 1561.52 1568.35 1573.53 1577.15 1579.28 1579.99 1579.34 1577.42 1574.33 1570.21 1565.25 1559.73 1554.08 1548.89 1545.00 1543.45 1544.99 1548.72 1551.25 1548.49 1541.01 1534.73 1532.31 1533.13 1535.75 1539.06 1542.45 1545.63 1548.46 1550.90 1552.92 1554.48 1555.57 1556.14 1556.15 1555.56 1554.30 1552.33 1549.61 1546.10 1541.78 1536.69 1530.86 1524.41 1517.50 1510.36 1503.26 1496.52 1490.43 1485.29 1481.30 1478.58 1477.14 1476.89 1477.68 1479.31 1481.55 1484.23 1487.16 1490.20 1493.27 1496.27 1499.17 1501.94 1504.55 1507.02 1509.33 1511.51
1611.71 1612.25 1612.71 1613.06 1613.29 1613.38 1613.33 1613.13 1612.80 1612.34 1611.76 1611.09 1610.34 1609.54 1608.69 1607.82 1606.93 1606.03 1605.10 1604.16 1603.18 1602.16 1601.08 1599.92 1598.65 1597.25 1595.68 1593.90 1591.85 1589.49 1586.72 1583.46 1579.58 1574.94 1569.32 1562.49 1554.16 1543.95 1531.48 1516.36 1498.34 1477.51 1454.26 1428.40 1397.50 1358.49 1318.05 1300.94 1323.59 1368.67 1414.57 1453.39 1484.66 1509.75 1530.08 1546.70 1560.39 1571.66 1580.88 1588.29 1594.08 1598.39 1601.34 1603.03 1603.57 1603.08 1601.70 1599.59 1596.97 1594.09 1591.28 1588.98 1587.88 1589.37 1597.36 1619.97 1598.04 1563.04 1547.37 1552.44 1563.95 1574.12 1581.56 1586.72 1590.21 1592.51 1593.95 1594.73 1594.97 1594.73 1594.04 1592.89 1591.28 1589.18 1586.56 1583.40 1579.70 1575.45 1570.69 1565.47 1559.87 1554.02 1548.05 1542.16 1536.52 1531.33 1526.76 1522.93 1519.93 1517.78 1516.45 1515.87 1515.94 1516.54 1517.55 1518.86 1520.38 1522.02 1523.71 1525.42 1527.11 1528.75 1530.32 1531.83 1533.26
1610.80 1611.17 1611.47 1611.70 1611.85 1611.91 1611.88 1611.76 1611.56 1611.28 1610.92 1610.51 1610.05 1609.56 1609.03 1608.48 1607.91 1607.33 1606.73 1606.10 1605.44 1604.74 1603.98 1603.15 1602.23 1601.19 1600.00 1598.63 1597.03 1595.15 1592.91 1590.20 1586.91 1582.85 1577.75 1571.27 1562.91 1552.02 1537.67 1518.57 1493.03 1459.61 1419.67 1381.26 1343.08 1259.06 1081.84 959.04 1135.34 1290.61 1383.83 1443.04 1483.92 1514.11 1537.55 1556.40 1571.92 1584.86 1595.72 1604.81 1612.34 1618.49 1623.38 1627.12 1629.83 1631.61 1632.56 1632.78 1632.31 1631.17 1629.28 1626.41 1622.26 1616.60 1609.70 1604.61 1584.19 1420.30 1429.41 1532.25 1583.58 1608.80 1622.09 1629.27 1633.04 1634.79 1635.27 1634.93 1633.99 1632.59 1630.81 1628.68 1626.20 1623.36 1620.17 1616.61 1612.69 1608.41 1603.80 1598.91 1593.80 1588.55 1583.26 1578.05 1573.03 1568.32 1564.02 1560.22 1556.98 1554.32 1552.23 1550.69 1549.66 1549.05 1548.82 1548.88 1549.17 1549.63 1550.22 1550.89 1551.61 1552.35 1553.09 1553.83 1554.55
1610.42 1610.69 1610.91 1611.07 1611.19 1611.25 1611.25 1611.20 1611.10 1610.95 1610.76 1610.54 1610.30 1610.03 1609.75 1609.46 1609.16 1608.86 1608.54 1608.21 1607.86 1607.49 1607.07 1606.61 1606.09 1605.48 1604.78 1603.95 1602.97 1601.79 1600.38 1598.65 1596.50 1593.78 1590.22 1585.41 1578.71 1569.20 1555.67 1536.17 1505.94 1455.69 1356.33 1181.52 1239.30 1317.66 1225.12 1185.21 1271.79 1361.55 1427.01 1473.32 1507.53 1534.08 1555.56 1573.50 1588.81 1602.05 1613.58 1623.62 1632.35 1639.89 1646.34 1651.80 1656.36 1660.13 1663.16 1665.53 1667.21 1668.09 1667.84 1665.85 1661.01 1651.48 1634.68 1620.06 1620.13 1601.84 1600.37 1624.96 1648.59 1663.55 1671.77 1675.75 1677.16 1676.99 1675.84 1674.05 1671.83 1669.28 1666.47 1663.43 1660.16 1656.67 1652.94 1648.98 1644.79 1640.37 1635.76 1630.98 1626.08 1621.12 1616.16 1611.27 1606.54 1602.02 1597.81 1593.94 1590.46 1587.39 1584.75 1582.51 1580.66 1579.16 1577.98 1577.07 1576.40 1575.91 1575.57 1575.35 1575.23 1575.18 1575.17 1575.21 1575.27
1610.38 1610.58 1610.74 1610.87 1610.97 1611.03 1611.06 1611.06 1611.04 1611.00 1610.93 1610.86 1610.78 1610.70 1610.62 1610.54 1610.48 1610.42 1610.36 1610.32 1610.27 1610.23 1610.17 1610.11 1610.02 1609.90 1609.75 1609.55 1609.31 1609.01 1608.64 1608.20 1607.66 1606.97 1606.05 1604.62 1602.03 1596.46 1584.07 1564.69 1552.55 1537.00 1486.30 1384.62 1340.78 1495.75 1463.27 1463.01 1470.83 1487.45 1508.06 1528.87 1548.34 1566.12 1582.33 1597.14 1610.72 1623.17 1634.57 1644.97 1654.39 1662.89 1670.51 1677.32 1683.41 1688.86 1693.80 1698.31 1702.47 1706.29 1709.69 1712.45 1714.13 1714.24 1712.90 1710.63 1689.26 1625.62 1695.88 1725.97 1730.09 1729.37 1727.45 1724.99 1722.14 1719.00 1715.65 1712.14 1708.53 1704.81 1701.01 1697.12 1693.12 1689.00 1684.76 1680.38 1675.88 1671.25 1666.50 1661.68 1656.79 1651.89 1647.02 1642.22 1637.55 1633.06 1628.79 1624.77 1621.05 1617.63 1614.53 1611.74 1609.27 1607.09 1605.17 1603.50 1602.04 1600.78 1599.68 1598.71 1597.87 1597.12 1596.46 1595.86 1595.32
1610.52 1610.66 1610.78 1610.88 1610.96 1611.02 1611.07 1611.11 1611.14 1611.16 1611.19 1611.22 1611.27 1611.33 1611.41 1611.51 1611.65 1611.81 1612.00 1612.22 1612.47 1612.75 1613.06 1613.39 1613.75 1614.15 1614.57 1615.04 1615.56 1616.17 1616.89 1617.77 1618.90 1620.37 1622.35 1625.19 1629.86 1640.26 1675.33 1568.76 1591.35 1666.05 1726.64 1575.36 1590.12 1683.57 1594.64 1575.97 1571.25 1571.57 1575.64 1582.62 1591.65 1602.01 1613.14 1624.63 1636.15 1647.49 1658.43 1668.86 1678.65 1687.77 1696.20 1703.98 1711.19 1717.94 1724.39 1730.74 1737.20 1744.05 1751.61 1760.29 1770.67 1783.54 1799.62 1818.51 1838.79 1845.32 1834.98 1814.03 1799.08 1787.78 1778.88 1771.53 1765.15 1759.37 1753.98 1748.86 1743.93 1739.13 1734.40 1729.72 1725.04 1720.34 1715.59 1710.80 1705.94 1701.02 1696.06 1691.06 1686.05 1681.06 1676.12 1671.25 1666.50 1661.90 1657.47 1653.26 1649.26 1645.52 1642.02 1638.79 1635.80 1633.06 1630.55 1628.27 1626.18 1624.27 1622.53 1620.94 1619.48 1618.13 1616.88 1615.73 1614.65
1610.72 1610.81 1610.89 1610.95 1611.00 1611.05 1611.09 1611.14 1611.19 1611.25 1611.33 1611.44 1611.57 1611.73 1611.93 1612.18 1612.48 1612.83 1613.23 1613.70 1614.22 1614.81 1615.47 1616.19 1616.99 1617.88 1618.86 1619.95 1621.18 1622.60 1624.25 1626.23 1628.62 1631.54 1635.07 1638.98 1641.39 1628.00 1540.38 1813.60 1572.36 1759.89 1723.11 1706.96 1591.25 1628.35 1658.04 1651.81 1641.20 1632.99 1628.62 1628.14 1631.08 1636.75 1644.48 1653.65 1663.73 1674.28 1684.92 1695.38 1705.44 1714.97 1723.90 1732.25 1740.09 1747.56 1754.86 1762.25 1770.05 1778.64 1788.47 1800.05 1813.93 1830.63 1850.66 1874.81 1878.89 1913.63 1888.67 1864.05 1846.52 1833.43 1822.69 1813.35 1804.99 1797.40 1790.45 1784.00 1777.96 1772.22 1766.68 1761.30 1755.99 1750.74 1745.51 1740.27 1735.02 1729.77 1724.50 1719.25 1714.01 1708.82 1703.68 1698.64 1693.70 1688.90 1684.26 1679.79 1675.51 1671.44 1667.59 1663.95 1660.53 1657.32 1654.32 1651.52 1648.90 1646.46 1644.18 1642.05 1640.06 1638.19 1636.43 1634.78 1633.22
1610.92 1610.94 1610.95 1610.96 1610.97 1610.98 1610.99 1611.01 1611.05 1611.11 1611.21 1611.33 1611.50 1611.73 1612.01 1612.35 1612.77 1613.26 1613.85 1614.52 1615.28 1616.15 1617.12 1618.20 1619.41 1620.74 1622.21 1623.85 1625.69 1627.76 1630.13 1632.86 1636.07 1639.85 1644.31 1649.49 1655.47 1663.94 1685.14 1735.15 1794.37 1760.86 1790.77 1825.61 1841.85 1810.33 1757.10 1730.66 1703.34 1683.34 1671.34 1665.85 1665.38 1668.75 1674.98 1683.28 1692.97 1703.47 1714.30 1725.07 1735.47 1745.32 1754.50 1763.00 1770.90 1778.38 1785.68 1793.08 1800.93 1809.58 1819.38 1830.54 1842.96 1855.54 1863.91 1854.01 1876.72 1902.75 1903.56 1896.87 1887.45 1876.25 1864.52 1853.24 1842.90 1833.61 1825.26 1817.69 1810.72 1804.20 1797.98 1791.98 1786.11 1780.33 1774.60 1768.91 1763.23 1757.57 1751.94 1746.35 1740.80 1735.31 1729.90 1724.59 1719.39 1714.33 1709.41 1704.66 1700.09 1695.69 1691.49 1687.48 1683.67 1680.05 1676.63 1673.38 1670.31 1667.42 1664.67 1662.08 1659.63 1657.31 1655.10 1653.01 1651.02
1611.03 1610.97 1610.91 1610.84 1610.77 1610.71 1610.65 1610.61 1610.60 1610.61 1610.66 1610.76 1610.92 1611.14 1611.44 1611.82 1612.30 1612.89 1613.59 1614.41 1615.36 1616.45 1617.69 1619.08 1620.63 1622.35 1624.26 1626.36 1628.68 1631.26 1634.14 1637.38 1641.06 1645.29 1650.25 1656.17 1663.52 1673.00 1685.14 1698.91 1711.32 1722.13 1735.88 1754.73 1786.12 1895.08 2008.14 1832.00 1752.74 1718.45 1702.03 1695.16 1694.42 1698.03 1704.80 1713.84 1724.40 1735.84 1747.59 1759.16 1770.17 1780.35 1789.54 1797.75 1805.09 1811.78 1818.15 1824.54 1831.34 1838.90 1847.53 1857.44 1868.51 1880.14 1891.26 1904.36 1931.63 1968.11 1985.95 1976.05 1953.29 1929.75 1909.46 1892.86 1879.32 1868.08 1858.50 1850.07 1842.43 1835.32 1828.56 1822.01 1815.61 1809.30 1803.04 1796.84 1790.67 1784.55 1778.47 1772.46 1766.52 1760.66 1754.90 1749.26 1743.75 1738.37 1733.14 1728.08 1723.19 1718.47 1713.93 1709.58 1705.41 1701.42 1697.62 1693.98 1690.52 1687.22 1684.08 1681.08 1678.23 1675.51 1672.91 1670.43 1668.06
1611.02 1610.86 1610.69 1610.52 1610.34 1610.16 1610.00 1609.85 1609.72 1609.63 1609.58 1609.58 1609.65 1609.80 1610.04 1610.38 1610.84 1611.43 1612.17 1613.07 1614.14 1615.38 1616.82 1618.45 1620.28 1622.32 1624.58 1627.07 1629.79 1632.77 1636.03 1639.60 1643.54 1647.89 1652.76 1658.23 1664.42 1671.40 1679.07 1687.24 1695.73 1704.84 1715.37 1728.58 1746.17 1766.44 1774.61 1760.93 1740.93 1726.27 1718.58 1716.74 1719.54 1726.00 1735.29 1746.69 1759.51 1773.09 1786.76 1799.92 1812.03 1822.69 1831.68 1839.02 1844.94 1849.82 1854.15 1858.46 1863.22 1868.90 1875.92 1884.74 1896.01 1910.90 1931.88 1963.62 2010.57 2063.32 2084.28 2053.73 2010.12 1973.13 1945.99 1926.31 1911.51 1899.80 1890.00 1881.38 1873.48 1866.01 1858.80 1851.73 1844.76 1837.85 1830.99 1824.19 1817.44 1810.76 1804.16 1797.65 1791.24 1784.94 1778.78 1772.75 1766.87 1761.14 1755.58 1750.18 1744.96 1739.92 1735.05 1730.37 1725.87 1721.54 1717.39 1713.42 1709.60 1705.95 1702.46 1699.11 1695.90 1692.83 1689.88 1687.05 1684.34
1610.86 1610.58 1610.27 1609.95 1609.63 1609.30 1608.97 1608.65 1608.35 1608.08 1607.85 1607.67 1607.56 1607.53 1607.61 1607.80 1608.13 1608.62 1609.29 1610.15 1611.22 1612.52 1614.05 1615.83 1617.87 1620.16 1622.72 1625.53 1628.60 1631.93 1635.53 1639.39 1643.54 1647.98 1652.73 1657.82 1663.25 1669.03 1675.13 1681.51 1688.19 1695.21 1702.66 1710.49 1718.25 1724.80 1728.67 1729.51 1728.84 1728.85 1731.07 1736.18 1744.27 1755.14 1768.44 1783.69 1800.30 1817.59 1834.75 1850.92 1865.20 1876.85 1885.42 1890.94 1893.93 1895.24 1895.80 1896.48 1897.97 1900.76 1905.27 1911.87 1921.07 1933.62 1950.63 1973.08 2000.01 2025.13 2036.59 2026.38 2004.41 1982.57 1964.71 1950.65 1939.29 1929.61 1920.91 1912.73 1904.82 1897.03 1889.29 1881.56 1873.87 1866.20 1858.58 1851.04 1843.58 1836.23 1829.01 1821.92 1814.97 1808.18 1801.55 1795.09 1788.81 1782.71 1776.79 1771.05 1765.50 1760.13 1754.95 1749.96 1745.14 1740.51 1736.05 1731.76 1727.63 1723.67 1719.86 1716.20 1712.68 1709.29 1706.04 1702.91 1699.89
1610.55 1610.11 1609.64 1609.14 1608.62 1608.08 1607.53 1606.98 1606.43 1605.89 1605.38 1604.91 1604.51 1604.18 1603.95 1603.85 1603.90 1604.12 1604.56 1605.22 1606.15 1607.35 1608.86 1610.68 1612.81 1615.27 1618.05 1621.14 1624.54 1628.23 1632.19 1636.41 1640.88 1645.59 1650.51 1655.64 1660.97 1666.48 1672.17 1678.02 1684.03 1690.19 1696.46 1702.77 1708.97 1714.88 1720.45 1725.87 1731.68 1738.56 1747.19 1758.02 1771.34 1787.21 1805.53 1826.03 1848.27 1871.57 1894.98 1917.18 1936.46 1950.88 1958.98 1960.63 1957.31 1951.31 1944.82 1939.37 1935.85 1934.66 1935.91 1939.56 1945.49 1953.56 1963.50 1974.72 1985.96 1995.18 2000.17 2000.09 1996.12 1990.17 1983.50 1976.58 1969.45 1962.02 1954.27 1946.20 1937.85 1929.29 1920.61 1911.86 1903.11 1894.41 1885.82 1877.35 1869.04 1860.90 1852.95 1845.20 1837.66 1830.32 1823.20 1816.29 1809.58 1803.09 1796.81 1790.73 1784.86 1779.18 1773.70 1768.41 1763.31 1758.39 1753.65 1749.08 1744.67 1740.43 1736.34 1732.40 1728.61 1724.95 1721.42 1718.01 1714.73
1610.10 1609.47 1608.80 1608.08 1607.31 1606.51 1605.68 1604.81 1603.92 1603.02 1602.11 1601.23 1600.37 1599.58 1598.87 1598.27 1597.83 1597.57 1597.55 1597.80 1598.36 1599.27 1600.56 1602.25 1604.35 1606.87 1609.81 1613.14 1616.85 1620.93 1625.34 1630.05 1635.04 1640.27 1645.72 1651.35 1657.14 1663.08 1669.16 1675.36 1681.71 1688.20 1694.86 1701.71 1708.79 1716.19 1724.08 1732.70 1742.42 1753.65 1766.82 1782.32 1800.47 1821.49 1845.52 1872.55 1902.40 1934.68 1968.65 2003.03 2035.17 2059.61 2068.94 2060.84 2041.73 2019.92 2000.41 1985.26 1974.87 1968.99 1967.07 1968.49 1972.61 1978.82 1986.43 1994.74 2002.96 2010.35 2016.26 2020.30 2022.25 2022.06 2019.72 2015.36 2009.22 2001.64 1992.95 1983.49 1973.52 1963.28 1952.92 1942.58 1932.35 1922.30 1912.47 1902.89 1893.58 1884.55 1875.81 1867.35 1859.17 1851.27 1843.64 1836.27 1829.15 1822.28 1815.64 1809.24 1803.06 1797.09 1791.33 1785.77 1780.41 1775.23 1770.24 1765.42 1760.77 1756.28 1751.95 1747.76 1743.72 1739.82 1736.05 1732.40 1728.88
1609.54 1608.70 1607.79 1606.81 1605.75 1604.63 1603.44 1602.18 1600.86 1599.48 1598.05 1596.58 1595.10 1593.63 1592.19 1590.83 1589.60 1588.55 1587.74 1587.24 1587.11 1587.43 1588.24 1589.59 1591.49 1593.95 1596.97 1600.51 1604.57 1609.09 1614.06 1619.43 1625.17 1631.23 1637.57 1644.14 1650.92 1657.87 1664.97 1672.23 1679.66 1687.29 1695.20 1703.45 1712.16 1721.51 1731.69 1742.99 1755.72 1770.25 1786.99 1806.36 1828.77 1854.66 1884.40 1918.35 1956.72 1999.56 2046.75 2098.63 2157.38 2221.34 2247.84 2202.17 2141.88 2091.50 2053.63 2026.96 2009.53 1999.53 1995.47 1996.14 2000.54 2007.86 2017.37 2028.38 2040.13 2051.79 2062.45 2071.10 2076.70 2078.40 2075.91 2069.64 2060.49 2049.41 2037.18 2024.36 2011.33 1998.33 1985.54 1973.06 1960.96 1949.27 1938.02 1927.20 1916.82 1906.86 1897.30 1888.13 1879.33 1870.88 1862.76 1854.96 1847.45 1840.22 1833.27 1826.57 1820.11 1813.88 1807.87 1802.08 1796.49 1791.09 1785.87 1780.83 1775.97 1771.26 1766.71 1762.32 1758.06 1753.95 1749.96 1746.10 1742.36
1608.92 1607.84 1606.67 1605.39 1604.01 1602.52 1600.91 1599.18 1597.33 1595.35 1593.24 1591.02 1588.69 1586.28 1583.81 1581.33 1578.89 1576.58 1574.49 1572.72 1571.41 1570.68 1570.62 1571.33 1572.83 1575.14 1578.21 1582.00 1586.46 1591.56 1597.25 1603.51 1610.28 1617.52 1625.17 1633.16 1641.43 1649.91 1658.58 1667.42 1676.45 1685.72 1695.29 1705.27 1715.81 1727.09 1739.34 1752.84 1767.91 1784.95 1804.37 1826.65 1852.30 1881.87 1915.97 1955.28 2000.56 2052.41 2110.37 2170.88 2229.62 2297.29 2352.91 2282.21 2197.40 2131.90 2085.10 2053.15 2032.71 2021.21 2016.74 2017.83 2023.49 2033.13 2046.47 2063.11 2082.19 2102.38 2122.20 2139.94 2152.80 2156.91 2150.78 2137.22 2120.12 2101.91 2083.70 2065.93 2048.80 2032.39 2016.75 2001.87 1987.75 1974.36 1961.67 1949.64 1938.23 1927.39 1917.08 1907.27 1897.91 1888.97 1880.43 1872.25 1864.41 1856.89 1849.66 1842.71 1836.02 1829.57 1823.36 1817.36 1811.58 1805.99 1800.58 1795.36 1790.31 1785.42 1780.69 1776.10 1771.66 1767.36 1763.19 1759.14 1755.21
1608.30 1606.98 1605.53 1603.94 1602.20 1600.30 1598.23 1595.96 1593.49 1590.80 1587.88 1584.72 1581.31 1577.65 1573.76 1569.68 1565.45 1561.18 1557.01 1553.12 1549.75 1547.16 1545.61 1545.26 1546.21 1548.40 1551.71 1555.99 1561.11 1567.02 1573.70 1581.15 1589.36 1598.27 1607.79 1617.78 1628.13 1638.72 1649.47 1660.34 1671.35 1682.53 1693.96 1705.74 1718.03 1731.02 1744.95 1760.10 1776.81 1795.48 1816.54 1840.47 1867.77 1898.95 1934.52 1975.03 2021.34 2075.31 2141.29 2229.75 2339.86 2365.75 2293.86 2225.49 2169.35 2121.94 2085.29 2058.91 2041.57 2031.80 2028.01 2028.65 2032.71 2040.85 2056.11 2080.53 2111.60 2145.11 2178.51 2216.20 2262.67 2281.21 2250.36 2211.17 2178.28 2150.42 2125.66 2103.00 2082.00 2062.44 2044.20 2027.18 2011.29 1996.44 1982.53 1969.49 1957.24 1945.69 1934.79 1924.48 1914.69 1905.39 1896.53 1888.07 1879.98 1872.23 1864.80 1857.66 1850.80 1844.18 1837.81 1831.66 1825.72 1819.97 1814.42 1809.05 1803.84 1798.80 1793.91 1789.17 1784.57 1780.10 1775.76 1771.55 1767.46
1607.79 1606.22 1604.49 1602.58 1600.47 1598.15 1595.58 1592.74 1589.60 1586.13 1582.28 1578.02 1573.31 1568.10 1562.36 1556.08 1549.27 1542.00 1534.42 1526.83 1519.67 1513.56 1509.16 1507.06 1507.48 1510.23 1514.73 1520.40 1526.86 1534.03 1542.06 1551.14 1561.39 1572.76 1585.06 1598.01 1611.32 1624.73 1638.12 1651.42 1664.67 1677.91 1691.23 1704.74 1718.57 1732.92 1748.02 1764.16 1781.71 1801.04 1822.60 1846.82 1874.14 1904.90 1939.18 1976.61 2016.12 2055.84 2093.78 2126.86 2143.71 2146.64 2147.62 2133.34 2111.48 2088.31 2067.53 2051.26 2040.23 2033.96 2030.83 2027.58 2018.21 1996.53 1990.56 2044.10 2100.47 2160.56 2197.50 2220.28 2360.91 2450.41 2312.63 2250.87 2212.67 2182.20 2155.11 2130.16 2107.01 2085.53 2065.65 2047.26 2030.23 2014.45 1999.79 1986.13 1973.37 1961.41 1950.16 1939.56 1929.53 1920.02 1910.98 1902.36 1894.13 1886.26 1878.70 1871.45 1864.47 1857.75 1851.27 1845.01 1838.96 1833.10 1827.43 1821.94 1816.61 1811.44 1806.42 1801.55 1796.81 1792.20 1787.73 1783.37 1779.13
1607.46 1605.67 1603.67 1601.46 1599.00 1596.27 1593.22 1589.82 1586.02 1581.74 1576.94 1571.51 1565.37 1558.39 1550.44 1541.38 1531.06 1519.37 1506.29 1492.02 1477.22 1463.19 1452.01 1446.04 1446.66 1453.06 1462.64 1472.74 1482.15 1491.11 1500.64 1511.77 1525.02 1540.36 1557.30 1575.06 1592.86 1610.14 1626.69 1642.60 1658.10 1673.37 1688.51 1703.56 1718.62 1733.86 1749.50 1765.89 1783.38 1802.38 1823.30 1846.57 1872.58 1901.65 1933.90 1969.09 2006.26 2043.29 2073.48 2067.15 2029.80 2091.65 2092.20 2079.73 2069.39 2058.16 2047.73 2039.76 2034.99 2033.20 2032.96 2031.04 2020.92 1994.71 1983.18 2014.60 1931.15 2095.65 2214.53 2225.24 2283.91 2358.13 2266.60 2238.52 2218.14 2194.75 2169.92 2145.36 2121.97 2100.08 2079.80 2061.08 2043.79 2027.81 2012.99 1999.23 1986.38 1974.37 1963.08 1952.44 1942.39 1932.86 1923.79 1915.16 1906.90 1899.00 1891.42 1884.13 1877.11 1870.34 1863.80 1857.48 1851.36 1845.43 1839.68 1834.09 1828.67 1823.40 1818.28 1813.29 1808.44 1803.72 1799.11 1794.63 1790.26
1607.42 1605.43 1603.21 1600.74 1597.98 1594.89 1591.43 1587.53 1583.14 1578.16 1572.48 1565.98 1558.48 1549.77 1539.56 1527.50 1513.09 1495.73 1474.66 1449.10 1418.62 1384.30 1351.04 1329.58 1331.65 1356.10 1387.24 1411.68 1426.82 1436.50 1445.98 1459.09 1477.21 1499.84 1525.67 1552.66 1578.35 1600.96 1620.38 1637.86 1654.76 1671.69 1688.55 1705.01 1720.93 1736.41 1751.78 1767.47 1783.91 1801.56 1820.80 1841.98 1865.41 1891.39 1920.20 1952.15 1987.68 2027.60 2068.18 2068.50 2032.03 2041.74 2052.85 2048.18 2041.16 2035.03 2030.67 2028.61 2029.08 2031.96 2036.74 2042.63 2049.11 2057.24 2069.79 2087.25 2113.18 2154.52 2189.36 2218.43 2271.78 2290.15 2211.43 2233.45 2221.27 2198.28 2173.64 2149.66 2127.05 2106.01 2086.53 2068.54 2051.90 2036.49 2022.17 2008.83 1996.35 1984.65 1973.63 1963.22 1953.37 1944.00 1935.08 1926.56 1918.40 1910.57 1903.04 1895.79 1888.79 1882.03 1875.49 1869.15 1863.00 1857.03 1851.23 1845.58 1840.09 1834.75 1829.54 1824.46 1819.51 1814.68 1809.97 1805.38 1800.89
1607.76 1605.62 1603.23 1600.56 1597.57 1594.22 1590.46 1586.20 1581.38 1575.88 1569.57 1562.29 1553.80 1543.81 1531.90 1517.49 1499.73 1477.32 1448.29 1409.45 1355.78 1280.15 1177.92 1073.10 1058.12 1170.28 1287.16 1347.01 1364.99 1364.87 1365.69 1381.93 1412.51 1448.03 1491.12 1540.32 1585.04 1615.77 1631.59 1642.88 1657.67 1676.28 1695.95 1714.21 1730.35 1744.89 1758.56 1772.12 1786.28 1801.58 1818.35 1836.71 1856.70 1878.31 1901.49 1926.04 1951.20 1975.09 1994.14 2005.30 2010.52 2013.84 2015.86 2016.08 2015.40 2015.09 2015.99 2018.56 2023.01 2029.35 2037.54 2047.49 2059.30 2073.29 2090.02 2110.00 2133.45 2159.81 2188.63 2224.12 2281.95 2365.42 2335.91 2264.28 2221.08 2190.95 2165.95 2143.64 2123.20 2104.31 2086.79 2070.50 2055.32 2041.14 2027.87 2015.41 2003.68 1992.61 1982.13 1972.18 1962.72 1953.68 1945.04 1936.75 1928.79 1921.12 1913.72 1906.57 1899.66 1892.95 1886.45 1880.13 1873.98 1868.00 1862.17 1856.49 1850.95 1845.54 1840.26 1835.11 1830.07 1825.15 1820.35 1815.65 1811.06
1608.54 1606.30 1603.81 1601.03 1597.92 1594.43 1590.51 1586.07 1581.04 1575.30 1568.73 1561.13 1552.28 1541.85 1529.42 1514.35 1495.74 1472.16 1441.37 1399.58 1340.24 1252.21 1121.11 961.51 921.57 1097.16 1256.88 1315.51 1305.38 1257.04 1216.19 1221.02 1368.26 1371.33 1438.16 1551.43 1646.74 1766.57 1680.32 1649.70 1662.24 1692.61 1724.49 1744.08 1755.70 1766.00 1775.11 1783.67 1793.38 1805.30 1819.49 1835.41 1852.41 1870.01 1887.90 1905.82 1923.32 1939.70 1954.06 1965.78 1974.84 1981.72 1987.01 1991.33 1995.30 1999.50 2004.39 2010.27 2017.33 2025.66 2035.29 2046.24 2058.55 2072.29 2087.52 2104.24 2122.34 2141.61 2161.87 2182.89 2203.00 2216.28 2215.45 2202.11 2183.69 2164.71 2146.48 2129.19 2112.81 2097.29 2082.59 2068.66 2055.46 2042.95 2031.08 2019.80 2009.07 1998.85 1989.09 1979.76 1970.81 1962.22 1953.96 1946.00 1938.31 1930.87 1923.66 1916.66 1909.87 1903.25 1896.81 1890.54 1884.42 1878.44 1872.60 1866.89 1861.31 1855.86 1850.52 1845.30 1840.18 1835.18 1830.28 1825.49 1820.80
1609.80 1607.54 1605.03 1602.23 1599.10 1595.60 1591.67 1587.25 1582.26 1576.60 1570.14 1562.75 1554.21 1544.29 1532.64 1518.83 1502.25 1482.10 1457.27 1426.36 1387.90 1341.62 1292.21 1256.21 1257.96 1295.54 1332.10 1340.51 1314.60 1259.19 1259.23 1347.60 1363.98 1362.25 1420.81 1519.29 1587.05 1618.85 1591.78 1612.85 1656.18 1728.78 1834.42 1814.01 1800.84 1812.16 1811.32 1805.51 1805.49 1813.46 1827.14 1843.39 1859.71 1874.92 1888.84 1901.66 1913.58 1924.67 1934.94 1944.39 1953.04 1960.96 1968.32 1975.33 1982.24 1989.29 1996.68 2004.57 2013.09 2022.36 2032.46 2043.40 2055.10 2067.43 2080.24 2093.37 2106.61 2119.70 2132.20 2143.43 2152.29 2157.43 2157.83 2153.59 2145.76 2135.67 2124.37 2112.50 2100.47 2088.51 2076.75 2065.28 2054.15 2043.39 2033.01 2023.00 2013.36 2004.07 1995.12 1986.47 1978.12 1970.05 1962.22 1954.63 1947.25 1940.07 1933.08 1926.26 1919.61 1913.11 1906.75 1900.53 1894.44 1888.47 1882.63 1876.90 1871.29 1865.78 1860.39 1855.10 1849.91 1844.82 1839.84 1834.95 1830.16
1611.55 1609.34 1606.88 1604.15 1601.12 1597.73 1593.95 1589.73 1584.99 1579.67 1573.67 1566.88 1559.18 1550.42 1540.42 1528.96 1515.82 1500.79 1483.73 1464.72 1444.38 1424.25 1407.14 1396.47 1393.93 1396.84 1399.35 1396.92 1389.85 1383.69 1384.45 1388.17 1383.48 1370.30 1396.10 1490.45 1525.97 1557.53 1582.73 1616.81 1655.15 1711.52 1767.18 1798.37 1854.16 1962.28 1886.45 1824.47 1811.45 1822.60 1846.70 1872.61 1891.73 1904.53 1913.67 1920.74 1926.55 1931.04 1934.87 1939.27 1944.85 1951.58 1959.14 1967.25 1975.68 1984.26 1992.84 2001.43 2010.22 2019.64 2030.15 2041.75 2054.00 2066.28 2078.12 2089.23 2099.39 2108.46 2116.24 2122.49 2126.89 2129.13 2129.00 2126.53 2121.95 2115.68 2108.13 2099.71 2090.73 2081.43 2071.98 2062.53 2053.15 2043.92 2034.88 2026.04 2017.43 2009.03 2000.86 1992.91 1985.15 1977.59 1970.21 1962.99 1955.94 1949.03 1942.26 1935.62 1929.10 1922.71 1916.43 1910.25 1904.19 1898.23 1892.37 1886.61 1880.96 1875.40 1869.94 1864.57 1859.30 1854.13 1849.05 1844.07 1839.17
1613.79 1611.68 1609.35 1606.76 1603.90 1600.74 1597.23 1593.33 1589.01 1584.21 1578.88 1572.94 1566.34 1559.01 1550.88 1541.90 1532.05 1521.37 1510.01 1498.28 1486.70 1475.99 1466.96 1460.18 1455.60 1452.40 1449.42 1445.80 1441.37 1436.04 1428.02 1410.42 1362.54 1235.16 1201.94 1414.55 1506.88 1547.61 1575.70 1611.72 1651.53 1695.31 1744.36 1760.76 1761.64 1782.42 1799.92 1799.69 1794.26 1826.96 1898.10 1983.88 1974.27 1977.79 1974.61 1970.83 1975.74 1967.76 1954.29 1946.62 1945.71 1949.55 1956.35 1964.84 1974.09 1983.30 1991.64 1998.36 2003.56 2009.96 2021.75 2038.66 2056.65 2073.09 2087.24 2099.01 2108.41 2115.47 2120.31 2123.11 2124.09 2123.44 2121.30 2117.83 2113.15 2107.46 2100.94 2093.77 2086.15 2078.22 2070.12 2061.95 2053.78 2045.68 2037.67 2029.79 2022.04 2014.43 2006.96 1999.62 1992.41 1985.32 1978.35 1971.48 1964.72 1958.05 1951.47 1944.98 1938.58 1932.26 1926.03 1919.88 1913.82 1907.84 1901.95 1896.14 1890.42 1884.79 1879.25 1873.79 1868.43 1863.16 1857.98 1852.88 1847.88
1616.48 1614.52 1612.36 1609.98 1607.36 1604.49 1601.33 1597.86 1594.04 1589.86 1585.28 1580.27 1574.80 1568.87 1562.46 1555.59 1548.31 1540.71 1532.94 1525.20 1517.76 1510.89 1504.83 1499.70 1495.43 1491.78 1488.43 1485.07 1481.39 1476.90 1470.71 1461.53 1449.54 1442.17 1455.89 1492.02 1531.60 1564.94 1592.96 1617.35 1636.33 1645.16 1639.33 1625.19 1635.28 1664.55 1682.60 1713.64 1756.29 1804.14 1839.60 1906.63 1977.01 2028.31 2009.44 2020.04 2073.96 2019.74 1973.16 1952.63 1946.99 1949.39 1956.26 1965.56 1975.81 1985.57 1992.73 1993.20 1979.57 1956.57 1977.60 2028.51 2066.07 2092.40 2112.54 2127.99 2138.97 2145.49 2147.78 2146.53 2142.79 2137.53 2131.37 2124.66 2117.57 2110.20 2102.64 2094.97 2087.25 2079.52 2071.84 2064.24 2056.73 2049.34 2042.05 2034.88 2027.82 2020.84 2013.96 2007.14 2000.39 1993.71 1987.07 1980.48 1973.94 1967.45 1961.01 1954.61 1948.27 1941.98 1935.75 1929.58 1923.47 1917.43 1911.47 1905.58 1899.77 1894.04 1888.39 1882.82 1877.34 1871.95 1866.65 1861.44 1856.32
1619.55 1617.77 1615.83 1613.70 1611.37 1608.83 1606.07 1603.05 1599.79 1596.24 1592.42 1588.30 1583.88 1579.18 1574.22 1569.02 1563.64 1558.16 1552.68 1547.33 1542.22 1537.49 1533.22 1529.48 1526.24 1523.45 1521.04 1518.93 1517.06 1515.43 1514.18 1513.82 1515.59 1521.44 1533.00 1549.88 1569.61 1589.42 1607.04 1620.07 1624.58 1613.31 1569.32 1437.98 1506.53 1601.28 1523.62 1457.10 1747.29 1770.61 1816.57 1876.34 1965.13 1990.90 1963.08 1957.87 1962.31 1957.18 1947.01 1941.20 1941.71 1947.29 1956.34 1967.49 1979.52 1991.15 2000.70 2005.42 2001.56 1995.37 2023.21 2066.81 2098.67 2129.47 2158.84 2181.61 2197.62 2206.15 2204.41 2194.53 2181.50 2168.26 2155.60 2143.59 2132.21 2121.49 2111.41 2101.98 2093.13 2084.79 2076.90 2069.38 2062.17 2055.20 2048.43 2041.80 2035.28 2028.82 2022.40 2016.00 2009.61 2003.22 1996.81 1990.41 1983.99 1977.58 1971.17 1964.78 1958.41 1952.07 1945.76 1939.50 1933.29 1927.14 1921.05 1915.02 1909.08 1903.20 1897.41 1891.70 1886.08 1880.55 1875.11 1869.76 1864.50
1622.93 1621.37 1619.66 1617.81 1615.79 1613.61 1611.25 1608.71 1605.98 1603.05 1599.94 1596.63 1593.14 1589.48 1585.69 1581.79 1577.83 1573.88 1569.99 1566.24 1562.71 1559.47 1556.57 1554.07 1551.98 1550.33 1549.15 1548.46 1548.36 1548.97 1550.53 1553.41 1558.08 1564.96 1574.21 1585.48 1597.92 1610.31 1621.19 1628.86 1631.37 1627.00 1616.34 1607.68 1612.95 1622.28 1624.68 1643.05 1690.02 1739.54 1784.00 1825.19 1860.71 1884.63 1897.30 1905.04 1911.20 1916.17 1920.75 1926.37 1934.07 1944.06 1955.99 1969.29 1983.22 1997.01 2009.97 2021.80 2033.43 2048.82 2084.30 2139.21 2117.53 2173.41 2249.40 2265.53 2295.62 2341.53 2312.53 2265.52 2233.21 2209.84 2189.63 2170.83 2153.54 2138.05 2124.43 2112.51 2102.06 2092.81 2084.53 2076.99 2070.01 2063.43 2057.13 2051.00 2044.95 2038.93 2032.88 2026.78 2020.61 2014.37 2008.06 2001.68 1995.25 1988.77 1982.27 1975.75 1969.23 1962.73 1956.25 1949.80 1943.40 1937.05 1930.77 1924.55 1918.41 1912.35 1906.37 1900.48 1894.69 1888.98 1883.37 1877.86 1872.45
1626.57 1625.23 1623.78 1622.20 1620.51 1618.68 1616.72 1614.64 1612.41 1610.06 1607.58 1604.99 1602.29 1599.51 1596.67 1593.80 1590.94 1588.13 1585.42 1582.86 1580.51 1578.41 1576.62 1575.18 1574.13 1573.52 1573.40 1573.84 1574.93 1576.78 1579.53 1583.35 1588.38 1594.68 1602.17 1610.61 1619.54 1628.36 1636.36 1642.87 1647.42 1650.10 1651.87 1654.52 1659.61 1667.70 1679.50 1696.63 1719.52 1746.14 1773.75 1800.25 1824.02 1844.00 1860.16 1873.36 1884.72 1895.17 1905.49 1916.33 1928.15 1941.12 1955.16 1969.93 1984.92 1999.44 2012.52 2022.75 2027.55 2020.68 1982.55 1964.23 2085.34 2132.51 2251.55 2326.75 2317.79 2407.55 2351.29 2305.65 2288.85 2266.87 2235.71 2204.48 2177.64 2155.71 2138.01 2123.67 2111.93 2102.18 2093.91 2086.72 2080.30 2074.36 2068.71 2063.16 2057.61 2051.96 2046.16 2040.20 2034.06 2027.77 2021.32 2014.76 2008.10 2001.36 1994.57 1987.76 1980.93 1974.12 1967.33 1960.59 1953.89 1947.26 1940.69 1934.21 1927.81 1921.50 1915.29 1909.18 1903.17 1897.26 1891.45 1885.76 1880.16
1630.40 1629.28 1628.08 1626.79 1625.40 1623.92 1622.35 1620.68 1618.93 1617.09 1615.18 1613.21 1611.19 1609.13 1607.07 1605.03 1603.03 1601.12 1599.33 1597.70 1596.27 1595.08 1594.17 1593.59 1593.38 1593.59 1594.27 1595.47 1597.27 1599.72 1602.91 1606.89 1611.68 1617.27 1623.57 1630.41 1637.55 1644.70 1651.57 1657.94 1663.73 1669.10 1674.45 1680.40 1687.59 1696.59 1707.84 1721.59 1737.74 1755.69 1774.56 1793.43 1811.51 1828.32 1843.74 1857.92 1871.24 1884.13 1897.01 1910.23 1924.03 1938.49 1953.55 1968.95 1984.27 1998.85 2011.73 2021.51 2026.12 2022.47 2004.05 1953.70 2001.58 2102.43 2162.88 2226.54 2306.50 2280.29 2299.88 2395.97 2469.31 2381.23 2291.81 2233.44 2194.63 2167.35 2147.39 2132.40 2120.92 2111.98 2104.84 2098.94 2093.80 2089.04 2084.37 2079.57 2074.50 2069.09 2063.32 2057.20 2050.78 2044.08 2037.18 2030.11 2022.91 2015.64 2008.32 2000.99 1993.66 1986.36 1979.11 1971.92 1964.81 1957.78 1950.85 1944.02 1937.29 1930.67 1924.17 1917.78 1911.52 1905.37 1899.34 1893.43 1887.64
1634.34 1633.45 1632.50 1631.48 1630.39 1629.23 1628.01 1626.74 1625.41 1624.03 1622.62 1621.19 1619.74 1618.29 1616.88 1615.51 1614.21 1613.02 1611.95 1611.05 1610.35 1609.87 1609.66 1609.76 1610.19 1611.01 1612.24 1613.94 1616.14 1618.88 1622.19 1626.10 1630.58 1635.62 1641.15 1647.07 1653.26 1659.59 1665.94 1672.25 1678.52 1684.85 1691.44 1698.56 1706.50 1715.52 1725.81 1737.46 1750.37 1764.31 1778.93 1793.85 1808.73 1823.33 1837.55 1851.42 1865.05 1878.63 1892.36 1906.38 1920.82 1935.69 1950.91 1966.31 1981.56 1996.23 2009.73 2021.37 2030.44 2036.60 2041.12 2050.48 2075.36 2112.28 2140.26 2170.71 2213.70 2233.04 2259.84 2312.97 2346.08 2315.16 2263.30 2220.19 2188.59 2165.76 2149.25 2137.35 2128.87 2122.89 2118.64 2115.44 2112.67 2109.82 2106.52 2102.51 2097.71 2092.12 2085.84 2078.98 2071.66 2064.02 2056.13 2048.10 2039.97 2031.81 2023.65 2015.52 2007.46 1999.47 1991.59 1983.81 1976.15 1968.61 1961.21 1953.94 1946.81 1939.82 1932.97 1926.27 1919.71 1913.28 1907.00 1900.86 1894.85
1638.36 1637.68 1636.96 1636.20 1635.39 1634.53 1633.64 1632.72 1631.77 1630.80 1629.82 1628.85 1627.89 1626.96 1626.07 1625.26 1624.53 1623.92 1623.44 1623.12 1622.99 1623.08 1623.42 1624.03 1624.95 1626.20 1627.82 1629.84 1632.27 1635.15 1638.48 1642.26 1646.50 1651.15 1656.19 1661.57 1667.21 1673.07 1679.10 1685.29 1691.66 1698.25 1705.18 1712.58 1720.56 1729.26 1738.76 1749.08 1760.19 1771.98 1784.31 1797.03 1809.97 1823.02 1836.14 1849.30 1862.55 1875.96 1889.59 1903.53 1917.79 1932.36 1947.18 1962.12 1976.97 1991.51 2005.47 2018.65 2031.04 2043.00 2055.50 2070.02 2087.61 2107.49 2127.60 2146.71 2164.33 2180.11 2195.02 2208.37 2215.01 2210.70 2197.80 2181.92 2167.13 2155.22 2146.62 2141.20 2138.54 2138.04 2138.95 2140.40 2141.47 2141.36 2139.54 2135.83 2130.36 2123.43 2115.44 2106.71 2097.51 2088.05 2078.47 2068.87 2059.31 2049.84 2040.49 2031.28 2022.24 2013.36 2004.66 1996.14 1987.80 1979.65 1971.68 1963.90 1956.30 1948.88 1941.64 1934.57 1927.68 1920.95 1914.39 1907.99 1901.75
1642.39 1641.92 1641.42 1640.90 1640.34 1639.77 1639.17 1638.56 1637.95 1637.34 1636.74 1636.16 1635.61 1635.11 1634.68 1634.32 1634.06 1633.92 1633.91 1634.06 1634.39 1634.92 1635.68 1636.68 1637.96 1639.54 1641.43 1643.66 1646.24 1649.18 1652.49 1656.18 1660.22 1664.62 1669.34 1674.37 1679.67 1685.22 1691.00 1697.02 1703.29 1709.85 1716.75 1724.05 1731.81 1740.10 1748.94 1758.36 1768.33 1778.82 1789.76 1801.08 1812.73 1824.63 1836.76 1849.11 1861.69 1874.51 1887.59 1900.94 1914.57 1928.44 1942.50 1956.64 1970.76 1984.72 1998.41 2011.77 2024.82 2037.72 2050.71 2064.09 2077.92 2091.96 2105.70 2118.61 2130.30 2140.52 2149.03 2155.31 2158.65 2158.71 2156.10 2152.18 2148.49 2146.29 2146.39 2149.20 2154.75 2162.66 2172.00 2181.26 2188.52 2192.03 2190.86 2185.30 2176.40 2165.42 2153.36 2140.88 2128.36 2115.99 2103.87 2092.05 2080.55 2069.37 2058.51 2047.96 2037.72 2027.77 2018.10 2008.71 1999.59 1990.73 1982.12 1973.76 1965.63 1957.73 1950.06 1942.60 1935.35 1928.30 1921.45 1914.78 1908.29
1646.40 1646.13 1645.84 1645.53 1645.21 1644.88 1644.55 1644.23 1643.91 1643.61 1643.34 1643.10 1642.90 1642.77 1642.71 1642.73 1642.85 1643.09 1643.46 1643.99 1644.68 1645.56 1646.65 1647.96 1649.51 1651.32 1653.41 1655.78 1658.45 1661.43 1664.73 1668.33 1672.24 1676.46 1680.96 1685.75 1690.80 1696.11 1701.68 1707.51 1713.60 1719.99 1726.71 1733.77 1741.22 1749.08 1757.38 1766.11 1775.28 1784.87 1794.85 1805.19 1815.86 1826.83 1838.08 1849.61 1861.39 1873.44 1885.75 1898.30 1911.07 1924.03 1937.13 1950.29 1963.44 1976.49 1989.38 2002.05 2014.47 2026.66 2038.65 2050.44 2061.99 2073.18 2083.81 2093.69 2102.61 2110.45 2117.09 2122.44 2126.54 2129.58 2132.06 2134.70 2138.40 2144.08 2152.60 2164.70 2180.90 2201.26 2224.84 2248.81 2267.99 2276.49 2271.96 2257.45 2238.17 2217.87 2198.25 2179.80 2162.53 2146.31 2131.02 2116.53 2102.76 2089.62 2077.04 2064.99 2053.41 2042.27 2031.54 2021.20 2011.23 2001.60 1992.30 1983.32 1974.63 1966.23 1958.11 1950.24 1942.62 1935.23 1928.08 1921.13 1914.40
1650.36 1650.27 1650.16 1650.06 1649.95 1649.85 1649.76 1649.68 1649.62 1649.59 1649.60 1649.65 1649.76 1649.93 1650.18 1650.52 1650.96 1651.51 1652.19 1653.02 1654.00 1655.15 1656.50 1658.04 1659.80 1661.79 1664.02 1666.50 1669.23 1672.24 1675.51 1679.05 1682.86 1686.94 1691.29 1695.89 1700.75 1705.86 1711.23 1716.85 1722.74 1728.91 1735.38 1742.16 1749.27 1756.73 1764.55 1772.73 1781.26 1790.16 1799.39 1808.95 1818.83 1829.00 1839.45 1850.17 1861.15 1872.37 1883.83 1895.49 1907.33 1919.31 1931.39 1943.52 1955.62 1967.64 1979.52 1991.20 2002.64 2013.81 2024.67 2035.18 2045.30 2054.97 2064.10 2072.64 2080.53 2087.76 2094.37 2100.47 2106.28 2112.11 2118.47 2125.98 2135.43 2147.72 2163.91 2185.20 2212.98 2248.81 2293.86 2346.49 2395.29 2414.72 2391.76 2348.32 2306.51 2271.81 2242.94 2218.07 2195.98 2175.95 2157.55 2140.46 2124.46 2109.39 2095.13 2081.57 2068.66 2056.32 2044.51 2033.21 2022.36 2011.96 2001.96 1992.34 1983.09 1974.19 1965.61 1957.33 1949.35 1941.63 1934.18 1926.97 1920.00
1654.24 1654.31 1654.38 1654.46 1654.54 1654.64 1654.76 1654.90 1655.07 1655.28 1655.53 1655.83 1656.19 1656.62 1657.13 1657.73 1658.43 1659.24 1660.17 1661.24 1662.45 1663.82 1665.37 1667.09 1669.01 1671.14 1673.47 1676.02 1678.81 1681.82 1685.07 1688.57 1692.30 1696.27 1700.48 1704.94 1709.63 1714.56 1719.74 1725.16 1730.83 1736.77 1742.98 1749.47 1756.25 1763.33 1770.71 1778.41 1786.41 1794.72 1803.33 1812.23 1821.42 1830.87 1840.59 1850.55 1860.74 1871.15 1881.76 1892.54 1903.46 1914.49 1925.59 1936.72 1947.81 1958.83 1969.72 1980.43 1990.91 2001.14 2011.08 2020.68 2029.94 2038.81 2047.30 2055.40 2063.15 2070.62 2077.95 2085.31 2092.98 2101.33 2110.85 2122.13 2135.91 2153.07 2174.66 2201.97 2236.57 2280.50 2336.49 2407.60 2489.39 2534.50 2473.58 2400.24 2347.56 2308.43 2276.40 2248.57 2223.72 2201.24 2180.67 2161.68 2143.98 2127.37 2111.69 2096.84 2082.72 2069.29 2056.48 2044.27 2032.60 2021.45 2010.78 2000.57 1990.78 1981.40 1972.39 1963.73 1955.40 1947.38 1939.65 1932.20 1925.01
1658.02 1658.23 1658.46 1658.70 1658.96 1659.24 1659.54 1659.87 1660.24 1660.65 1661.11 1661.63 1662.21 1662.85 1663.58 1664.40 1665.31 1666.33 1667.47 1668.73 1670.13 1671.68 1673.38 1675.25 1677.29 1679.51 1681.92 1684.53 1687.35 1690.37 1693.60 1697.04 1700.70 1704.58 1708.68 1713.00 1717.55 1722.31 1727.31 1732.53 1737.99 1743.69 1749.64 1755.84 1762.30 1769.02 1776.01 1783.27 1790.80 1798.60 1806.66 1814.98 1823.54 1832.35 1841.39 1850.65 1860.10 1869.75 1879.56 1889.51 1899.58 1909.73 1919.94 1930.15 1940.34 1950.46 1960.47 1970.34 1980.03 1989.51 1998.76 2007.76 2016.51 2025.02 2033.30 2041.42 2049.45 2057.51 2065.74 2074.39 2083.72 2094.09 2105.94 2119.79 2136.24 2155.96 2179.70 2208.23 2242.23 2282.03 2326.92 2373.70 2414.64 2438.85 2432.92 2394.53 2355.92 2324.41 2295.08 2267.56 2242.33 2219.33 2198.16 2178.47 2159.95 2142.44 2125.81 2109.99 2094.93 2080.58 2066.93 2053.92 2041.53 2029.72 2018.46 2007.72 1997.45 1987.64 1978.25 1969.25 1960.63 1952.34 1944.38 1936.71 1929.33
1661.67 1662.03 1662.40 1662.79 1663.20 1663.63 1664.10 1664.60 1665.14 1665.73 1666.37 1667.06 1667.82 1668.65 1669.56 1670.56 1671.65 1672.84 1674.15 1675.57 1677.12 1678.80 1680.63 1682.60 1684.74 1687.04 1689.51 1692.15 1694.98 1698.00 1701.20 1704.60 1708.20 1711.99 1715.99 1720.19 1724.59 1729.20 1734.02 1739.05 1744.30 1749.77 1755.47 1761.39 1767.55 1773.93 1780.56 1787.42 1794.52 1801.85 1809.41 1817.20 1825.21 1833.43 1841.85 1850.46 1859.24 1868.18 1877.27 1886.47 1895.77 1905.14 1914.55 1923.97 1933.38 1942.73 1952.01 1961.18 1970.23 1979.14 1987.89 1996.50 2004.98 2013.34 2021.65 2029.98 2038.41 2047.08 2056.17 2065.87 2076.46 2088.23 2101.53 2116.75 2134.29 2154.56 2177.92 2204.63 2234.85 2268.60 2306.06 2348.49 2400.06 2462.45 2465.28 2352.97 2342.99 2324.67 2298.14 2272.85 2250.03 2229.05 2209.22 2190.19 2171.81 2154.05 2136.93 2120.48 2104.74 2089.70 2075.38 2061.74 2048.77 2036.43 2024.69 2013.52 2002.87 1992.72 1983.02 1973.76 1964.89 1956.40 1948.25 1940.43 1932.90
1665.20 1665.68 1666.17 1666.69 1667.24 1667.81 1668.42 1669.07 1669.76 1670.50 1671.29 1672.14 1673.06 1674.04 1675.11 1676.25 1677.49 1678.82 1680.26 1681.81 1683.48 1685.27 1687.19 1689.25 1691.46 1693.81 1696.32 1698.99 1701.83 1704.83 1708.00 1711.36 1714.89 1718.60 1722.49 1726.58 1730.85 1735.31 1739.96 1744.81 1749.85 1755.10 1760.55 1766.21 1772.07 1778.15 1784.43 1790.92 1797.62 1804.53 1811.64 1818.95 1826.45 1834.13 1841.99 1850.01 1858.18 1866.49 1874.93 1883.46 1892.08 1900.76 1909.49 1918.23 1926.96 1935.68 1944.35 1952.96 1961.50 1969.97 1978.37 1986.72 1995.03 2003.36 2011.76 2020.31 2029.11 2038.29 2048.01 2058.45 2069.83 2082.38 2096.36 2112.00 2129.54 2149.12 2170.79 2194.46 2219.83 2246.38 2273.39 2299.70 2322.74 2336.72 2335.82 2326.61 2314.53 2297.97 2281.10 2265.16 2249.28 2232.79 2215.59 2197.88 2180.00 2162.24 2144.85 2127.98 2111.76 2096.24 2081.44 2067.35 2053.97 2041.27 2029.20 2017.73 2006.82 1996.44 1986.54 1977.10 1968.08 1959.45 1951.18 1943.25 1935.64
1668.59 1669.18 1669.79 1670.42 1671.09 1671.78 1672.52 1673.29 1674.11 1674.98 1675.90 1676.88 1677.93 1679.04 1680.23 1681.51 1682.86 1684.31 1685.86 1687.51 1689.27 1691.14 1693.14 1695.27 1697.52 1699.91 1702.45 1705.13 1707.96 1710.94 1714.08 1717.39 1720.85 1724.48 1728.28 1732.25 1736.39 1740.70 1745.19 1749.87 1754.72 1759.75 1764.97 1770.37 1775.96 1781.74 1787.70 1793.85 1800.18 1806.70 1813.39 1820.26 1827.30 1834.49 1841.84 1849.34 1856.96 1864.71 1872.56 1880.51 1888.53 1896.61 1904.74 1912.90 1921.08 1929.25 1937.42 1945.57 1953.70 1961.82 1969.94 1978.09 1986.29 1994.59 2003.06 2011.77 2020.82 2030.33 2040.42 2051.26 2063.01 2075.84 2089.92 2105.38 2122.32 2140.75 2160.52 2181.36 2202.71 2223.79 2243.49 2260.42 2273.24 2281.68 2289.11 2299.00 2283.16 2267.98 2265.60 2260.85 2250.93 2237.08 2220.81 2203.26 2185.19 2167.11 2149.37 2132.16 2115.62 2099.81 2084.75 2070.44 2056.86 2043.98 2031.76 2020.16 2009.14 1998.66 1988.68 1979.17 1970.09 1961.41 1953.10 1945.14 1937.49
1671.83 1672.52 1673.23 1673.96 1674.73 1675.54 1676.38 1677.26 1678.19 1679.17 1680.21 1681.30 1682.46 1683.68 1684.97 1686.35 1687.80 1689.34 1690.98 1692.71 1694.54 1696.48 1698.54 1700.71 1703.00 1705.41 1707.96 1710.64 1713.46 1716.42 1719.52 1722.76 1726.16 1729.71 1733.41 1737.27 1741.28 1745.46 1749.79 1754.29 1758.95 1763.78 1768.78 1773.94 1779.27 1784.77 1790.43 1796.26 1802.25 1808.41 1814.72 1821.19 1827.80 1834.56 1841.45 1848.47 1855.60 1862.85 1870.19 1877.61 1885.11 1892.68 1900.29 1907.95 1915.64 1923.36 1931.09 1938.85 1946.64 1954.46 1962.34 1970.30 1978.38 1986.62 1995.09 2003.85 2013.00 2022.62 2032.84 2043.77 2055.54 2068.27 2082.07 2097.01 2113.13 2130.37 2148.58 2167.48 2186.63 2205.43 2223.17 2239.08 2252.45 2262.68 2267.78 2247.65 2192.48 2260.23 2290.65 2281.76 2263.63 2244.45 2225.06 2205.69 2186.57 2167.89 2149.82 2132.45 2115.85 2100.03 2085.00 2070.74 2057.21 2044.39 2032.23 2020.68 2009.72 1999.29 1989.36 1979.90 1970.86 1962.23 1953.96 1946.04 1938.43
1674.93 1675.70 1676.49 1677.32 1678.18 1679.08 1680.02 1681.00 1682.02 1683.10 1684.22 1685.41 1686.66 1687.97 1689.35 1690.80 1692.34 1693.95 1695.66 1697.45 1699.34 1701.33 1703.42 1705.63 1707.94 1710.37 1712.92 1715.59 1718.38 1721.31 1724.36 1727.55 1730.88 1734.35 1737.95 1741.70 1745.59 1749.63 1753.81 1758.15 1762.63 1767.26 1772.04 1776.98 1782.06 1787.30 1792.68 1798.21 1803.89 1809.71 1815.68 1821.78 1828.01 1834.36 1840.84 1847.43 1854.12 1860.92 1867.80 1874.77 1881.81 1888.92 1896.09 1903.30 1910.57 1917.88 1925.24 1932.65 1940.12 1947.67 1955.31 1963.07 1970.99 1979.11 1987.49 1996.18 2005.26 2014.82 2024.93 2035.70 2047.22 2059.56 2072.81 2087.01 2102.18 2118.25 2135.13 2152.63 2170.47 2188.32 2205.79 2222.50 2238.20 2253.15 2269.75 2296.42 2317.78 2298.09 2301.74 2286.38 2263.84 2241.85 2220.91 2200.84 2181.53 2162.98 2145.21 2128.22 2112.04 2096.64 2082.01 2068.12 2054.94 2042.43 2030.55 2019.26 2008.52 1998.30 1988.56 1979.27 1970.39 1961.89 1953.75 1945.95 1938.45
