ncols 125
nrows 115
xllcorner -126.65405073896639
yllcorner 57.89166178640494
cellsize 0.02
NODATA_value -9999
1134.08 1127.01 1120.31 1114.04 1108.29 1103.14 1098.65 1094.88 1091.87 1089.66 1088.25 1087.63 1087.77 1088.64 1090.17 1092.31 1095.00 1098.20 1101.84 1105.87 1110.23 1114.86 1119.69 1124.66 1129.69 1134.72 1139.67 1144.50 1149.13 1153.54 1157.68 1161.52 1165.04 1168.22 1171.07 1173.57 1175.72 1177.53 1179.02 1180.18 1181.04 1181.61 1181.90 1181.93 1181.72 1181.28 1180.64 1179.81 1178.81 1177.66 1176.38 1174.99 1173.50 1171.93 1170.29 1168.61 1166.88 1165.13 1163.34 1161.53 1159.68 1157.80 1155.85 1153.83 1151.70 1149.44 1147.02 1144.40 1141.56 1138.47 1135.09 1131.42 1127.43 1123.10 1118.45 1113.46 1108.14 1102.51 1096.58 1090.38 1083.93 1077.28 1070.45 1063.48 1056.43 1049.34 1042.26 1035.24 1028.33 1021.60 1015.08 1008.83 1002.89 997.30 992.11 987.33 982.99 979.11 975.71 972.79 970.37 968.45 967.03 966.12 965.72 965.83 966.45 967.57 969.18 971.28 973.86 976.89 980.35 984.23 988.50 993.13 998.09 1003.36 1008.91 1014.70 1020.71 1026.91 1033.27 1039.76 1046.36
1115.75 1107.51 1099.67 1092.34 1085.64 1079.66 1074.52 1070.31 1067.09 1064.89 1063.72 1063.55 1064.31 1065.90 1068.23 1071.20 1074.73 1078.76 1083.23 1088.10 1093.33 1098.87 1104.65 1110.60 1116.63 1122.66 1128.60 1134.39 1139.94 1145.20 1150.14 1154.71 1158.90 1162.68 1166.05 1169.01 1171.57 1173.74 1175.52 1176.94 1178.01 1178.75 1179.18 1179.31 1179.18 1178.81 1178.20 1177.40 1176.41 1175.26 1173.98 1172.58 1171.09 1169.53 1167.91 1166.26 1164.58 1162.90 1161.22 1159.53 1157.85 1156.14 1154.40 1152.59 1150.68 1148.63 1146.39 1143.92 1141.17 1138.10 1134.67 1130.86 1126.64 1121.98 1116.90 1111.38 1105.44 1099.10 1092.38 1085.31 1077.93 1070.28 1062.40 1054.35 1046.19 1037.96 1029.74 1021.60 1013.58 1005.77 998.23 991.01 984.17 977.76 971.82 966.37 961.44 957.05 953.20 949.90 947.16 944.98 943.35 942.30 941.81 941.90 942.56 943.80 945.60 947.96 950.86 954.27 958.19 962.57 967.40 972.62 978.22 984.16 990.39 996.88 1003.60 1010.52 1017.59 1024.79 1032.10
1096.23 1086.55 1077.30 1068.64 1060.73 1053.74 1047.82 1043.14 1039.79 1037.85 1037.31 1038.09 1040.03 1042.92 1046.54 1050.69 1055.23 1060.09 1065.28 1070.83 1076.75 1083.05 1089.67 1096.54 1103.55 1110.60 1117.57 1124.36 1130.88 1137.06 1142.84 1148.18 1153.06 1157.46 1161.38 1164.82 1167.79 1170.30 1172.39 1174.05 1175.33 1176.23 1176.79 1177.02 1176.97 1176.64 1176.07 1175.28 1174.29 1173.14 1171.85 1170.44 1168.94 1167.38 1165.77 1164.16 1162.54 1160.95 1159.40 1157.89 1156.42 1154.97 1153.53 1152.05 1150.49 1148.78 1146.86 1144.65 1142.11 1139.16 1135.75 1131.83 1127.38 1122.37 1116.80 1110.67 1103.99 1096.80 1089.13 1081.03 1072.53 1063.70 1054.58 1045.25 1035.77 1026.22 1016.67 1007.21 997.92 988.87 980.16 971.85 964.02 956.71 949.97 943.83 938.29 933.38 929.07 925.38 922.30 919.82 917.96 916.71 916.11 916.14 916.83 918.18 920.17 922.81 926.08 929.95 934.39 939.37 944.84 950.77 957.11 963.82 970.85 978.16 985.70 993.43 1001.32 1009.33 1017.42
1075.72 1064.27 1053.26 1042.90 1033.42 1025.08 1018.16 1012.91 1009.58 1008.30 1009.13 1011.90 1016.28 1021.76 1027.76 1033.77 1039.52 1044.99 1050.36 1055.92 1061.91 1068.44 1075.53 1083.08 1090.94 1098.94 1106.92 1114.73 1122.23 1129.34 1135.98 1142.11 1147.69 1152.71 1157.17 1161.08 1164.45 1167.31 1169.67 1171.57 1173.03 1174.09 1174.76 1175.08 1175.09 1174.80 1174.25 1173.46 1172.47 1171.30 1169.99 1168.56 1167.05 1165.47 1163.87 1162.27 1160.71 1159.20 1157.78 1156.46 1155.25 1154.15 1153.12 1152.13 1151.08 1149.90 1148.49 1146.75 1144.58 1141.90 1138.61 1134.67 1130.01 1124.61 1118.47 1111.59 1104.01 1095.78 1086.96 1077.61 1067.78 1057.55 1046.98 1036.14 1025.14 1014.04 1002.96 991.98 981.22 970.78 960.77 951.27 942.36 934.12 926.59 919.77 913.67 908.26 903.52 899.43 895.96 893.12 890.93 889.41 888.58 888.48 889.14 890.55 892.74 895.69 899.37 903.77 908.82 914.50 920.75 927.51 934.73 942.34 950.30 958.55 967.03 975.70 984.52 993.43 1002.41
1054.67 1041.06 1027.82 1015.22 1003.59 993.32 984.85 978.66 975.25 975.07 978.38 985.11 994.64 1005.75 1016.80 1026.27 1033.39 1038.40 1042.26 1046.06 1050.59 1056.25 1063.06 1070.83 1079.28 1088.11 1097.03 1105.83 1114.31 1122.34 1129.83 1136.72 1142.98 1148.60 1153.57 1157.92 1161.66 1164.82 1167.44 1169.55 1171.17 1172.35 1173.12 1173.52 1173.56 1173.30 1172.75 1171.96 1170.96 1169.77 1168.42 1166.96 1165.41 1163.81 1162.18 1160.56 1159.00 1157.52 1156.17 1155.00 1154.04 1153.31 1152.81 1152.49 1152.22 1151.86 1151.26 1150.26 1148.75 1146.58 1143.63 1139.81 1135.00 1129.17 1122.31 1114.47 1105.73 1096.19 1085.93 1075.06 1063.64 1051.76 1039.50 1026.94 1014.18 1001.33 988.50 975.82 963.43 951.46 940.04 929.29 919.31 910.19 901.95 894.59 888.05 882.25 877.11 872.58 868.62 865.25 862.52 860.50 859.25 858.85 859.35 860.76 863.11 866.39 870.55 875.56 881.35 887.87 895.04 902.79 911.04 919.73 928.77 938.11 947.69 957.43 967.30 977.23 987.19
1033.84 1017.64 1001.62 986.10 971.48 958.25 947.07 938.72 934.17 934.56 941.00 954.28 974.04 997.81 1020.82 1037.72 1045.90 1046.99 1044.93 1043.18 1043.65 1046.84 1052.50 1060.06 1068.89 1078.44 1088.27 1098.02 1107.44 1116.35 1124.65 1132.26 1139.14 1145.29 1150.72 1155.45 1159.51 1162.94 1165.76 1168.03 1169.79 1171.06 1171.90 1172.34 1172.41 1172.15 1171.60 1170.80 1169.77 1168.55 1167.17 1165.66 1164.06 1162.40 1160.71 1159.01 1157.35 1155.75 1154.29 1153.03 1152.10 1151.62 1151.70 1152.30 1153.24 1154.20 1154.88 1155.06 1154.64 1153.45 1151.32 1147.98 1143.20 1136.86 1128.98 1119.72 1109.31 1097.97 1085.88 1073.15 1059.87 1046.10 1031.93 1017.44 1002.73 987.94 973.20 958.69 944.56 930.99 918.16 906.22 895.32 885.55 876.92 869.34 862.66 856.66 851.14 846.00 841.22 836.89 833.15 830.17 828.11 827.10 827.22 828.52 831.01 834.65 839.38 845.14 851.84 859.38 867.67 876.60 886.09 896.04 906.36 916.97 927.79 938.76 949.81 960.89 971.94
1014.46 995.34 976.05 956.91 938.29 920.73 904.94 891.89 882.95 880.08 886.13 904.76 939.05 987.40 1037.88 1071.35 1078.66 1068.31 1053.70 1042.70 1037.62 1038.03 1042.68 1050.27 1059.71 1070.13 1080.93 1091.64 1101.97 1111.71 1120.72 1128.95 1136.37 1142.97 1148.76 1153.79 1158.09 1161.71 1164.69 1167.07 1168.90 1170.23 1171.11 1171.56 1171.63 1171.37 1170.80 1169.97 1168.91 1167.66 1166.24 1164.70 1163.05 1161.33 1159.55 1157.71 1155.83 1153.90 1151.92 1149.97 1148.24 1147.18 1147.43 1149.43 1152.75 1156.16 1158.79 1160.63 1161.94 1162.76 1162.70 1160.96 1156.72 1149.56 1139.68 1127.78 1114.57 1100.58 1086.09 1071.18 1055.83 1040.04 1023.84 1007.29 990.52 973.69 956.98 940.60 924.78 909.73 895.70 882.92 871.57 861.79 853.53 846.53 840.32 834.35 828.23 821.81 815.26 808.90 803.15 798.37 794.85 792.79 792.29 793.38 796.03 800.14 805.63 812.35 820.19 829.00 838.65 849.02 859.99 871.42 883.23 895.30 907.56 919.91 932.28 944.63 956.88
998.26 976.18 953.47 930.33 907.10 884.18 862.11 841.62 823.69 809.97 803.75 811.77 844.86 910.97 995.43 1056.08 1070.53 1057.43 1039.92 1028.08 1023.61 1025.33 1031.55 1040.71 1051.62 1063.38 1075.34 1087.07 1098.26 1108.71 1118.33 1127.05 1134.86 1141.77 1147.81 1153.04 1157.48 1161.20 1164.25 1166.68 1168.54 1169.88 1170.75 1171.19 1171.24 1170.95 1170.35 1169.49 1168.40 1167.11 1165.67 1164.11 1162.44 1160.70 1158.87 1156.94 1154.85 1152.48 1149.65 1146.08 1141.56 1136.45 1133.10 1136.69 1148.20 1157.91 1161.83 1164.81 1169.10 1174.79 1180.99 1184.74 1182.28 1172.19 1156.38 1138.08 1119.58 1101.76 1084.54 1067.51 1050.31 1032.68 1014.56 996.00 977.16 958.29 939.66 921.56 904.31 888.23 873.64 860.89 850.30 842.07 836.05 831.43 826.85 820.88 812.82 802.94 792.19 781.60 772.07 764.24 758.47 754.96 753.72 754.68 757.69 762.56 769.10 777.11 786.40 796.80 808.13 820.23 832.94 846.13 859.66 873.41 887.28 901.18 915.03 928.76 942.31
987.30 962.70 936.97 910.26 882.79 854.88 826.93 799.44 772.88 747.49 723.58 706.31 714.18 762.67 839.29 911.84 957.16 977.61 986.08 991.80 998.77 1007.99 1019.22 1031.84 1045.21 1058.75 1072.03 1084.74 1096.67 1107.68 1117.70 1126.73 1134.75 1141.82 1147.96 1153.25 1157.72 1161.45 1164.48 1166.88 1168.71 1170.00 1170.82 1171.21 1171.21 1170.87 1170.23 1169.33 1168.21 1166.90 1165.46 1163.90 1162.27 1160.58 1158.84 1157.02 1155.04 1152.73 1149.72 1145.33 1138.18 1125.84 1106.10 1097.59 1150.50 1167.53 1148.76 1161.76 1174.90 1191.30 1216.00 1238.90 1239.78 1213.55 1176.15 1142.39 1116.06 1095.18 1076.97 1059.48 1041.62 1022.91 1003.30 982.92 962.11 941.24 920.77 901.17 882.92 866.51 852.45 841.29 833.64 829.96 829.90 831.29 829.98 822.32 807.96 789.55 770.25 752.36 737.17 725.31 716.99 712.15 710.55 711.87 715.76 721.87 729.91 739.61 750.74 763.08 776.43 790.57 805.34 820.56 836.07 851.72 867.40 883.01 898.46 913.67 928.61
983.51 957.33 929.67 900.63 870.37 839.21 807.63 776.40 746.75 720.60 700.64 689.35 692.92 719.77 765.16 818.06 866.47 904.59 933.25 955.74 974.96 992.66 1009.63 1026.10 1042.04 1057.30 1071.72 1085.17 1097.56 1108.86 1119.04 1128.12 1136.16 1143.18 1149.26 1154.45 1158.83 1162.45 1165.38 1167.68 1169.40 1170.59 1171.32 1171.62 1171.54 1171.13 1170.43 1169.48 1168.32 1166.99 1165.55 1164.02 1162.46 1160.89 1159.36 1157.89 1156.46 1155.04 1153.53 1151.78 1149.72 1148.04 1151.53 1178.70 1245.08 1276.11 1218.42 1189.97 1186.90 1202.70 1245.95 1305.59 1313.36 1229.44 1146.38 1104.05 1084.09 1071.29 1059.09 1045.14 1028.81 1010.17 989.59 967.58 944.74 921.72 899.24 878.02 858.83 842.41 829.50 820.86 817.34 819.55 826.83 834.94 835.69 822.77 798.00 768.21 739.11 713.76 693.42 678.44 668.72 663.76 662.93 665.54 671.01 678.88 688.81 700.53 713.81 728.40 744.09 760.62 777.77 795.31 813.05 830.83 848.50 865.95 883.10 899.88 916.23
988.13 961.70 933.67 904.13 873.21 841.19 808.50 775.75 743.78 713.62 687.49 674.76 688.85 719.48 756.93 798.25 839.51 877.38 910.53 939.20 964.33 986.82 1007.34 1026.28 1043.83 1060.08 1075.04 1088.74 1101.18 1112.39 1122.40 1131.28 1139.07 1145.85 1151.68 1156.63 1160.78 1164.19 1166.92 1169.03 1170.58 1171.63 1172.21 1172.39 1172.20 1171.69 1170.91 1169.89 1168.67 1167.31 1165.85 1164.34 1162.83 1161.37 1160.04 1158.89 1158.02 1157.52 1157.57 1158.48 1160.85 1165.85 1175.20 1189.69 1204.71 1209.53 1200.39 1186.29 1174.99 1168.79 1164.51 1143.01 1060.83 962.78 964.95 1000.49 1024.97 1035.43 1035.23 1027.23 1013.42 995.24 973.79 949.99 924.73 898.91 873.50 849.54 828.14 810.42 797.32 789.48 787.07 789.49 794.71 798.29 793.97 777.76 751.36 720.13 689.23 662.10 640.69 625.83 617.29 614.03 614.90 619.11 626.11 635.54 647.18 660.85 676.35 693.44 711.80 731.09 750.98 771.17 791.42 811.52 831.33 850.72 869.62 887.96 905.73
1001.31 976.05 949.36 921.33 892.16 862.16 831.80 801.83 773.39 748.42 730.38 724.22 733.08 754.77 784.34 817.65 851.84 884.95 915.84 944.09 969.74 993.04 1014.27 1033.65 1051.36 1067.53 1082.23 1095.54 1107.51 1118.22 1127.72 1136.09 1143.41 1149.73 1155.15 1159.72 1163.52 1166.61 1169.05 1170.91 1172.23 1173.07 1173.47 1173.49 1173.16 1172.53 1171.63 1170.52 1169.23 1167.80 1166.29 1164.73 1163.20 1161.75 1160.44 1159.37 1158.62 1158.31 1158.60 1159.66 1161.70 1164.86 1168.98 1173.21 1175.85 1174.91 1169.34 1159.35 1145.08 1124.73 1092.96 1041.94 975.35 931.40 940.12 973.45 1001.29 1015.88 1018.60 1012.15 998.74 979.99 957.12 931.10 902.80 873.13 843.08 813.91 787.13 764.57 748.00 738.50 735.47 736.35 737.41 735.00 726.32 710.17 687.43 660.83 633.98 610.52 593.68 585.17 582.09 578.83 576.49 578.31 584.24 593.45 605.64 620.76 638.59 658.62 680.26 702.91 726.04 749.26 772.27 794.86 816.86 838.19 858.80 878.64 897.71
1021.97 999.06 975.09 950.22 924.72 899.00 873.68 849.63 828.10 810.79 799.71 796.71 802.62 816.72 837.08 861.42 887.70 914.39 940.41 965.15 988.30 1009.75 1029.51 1047.64 1064.20 1079.27 1092.93 1105.23 1116.26 1126.07 1134.75 1142.36 1148.98 1154.68 1159.53 1163.59 1166.93 1169.62 1171.70 1173.23 1174.27 1174.86 1175.05 1174.87 1174.37 1173.59 1172.56 1171.33 1169.93 1168.40 1166.78 1165.13 1163.49 1161.90 1160.43 1159.15 1158.10 1157.37 1156.99 1157.00 1157.37 1157.96 1158.44 1158.30 1156.81 1153.24 1146.93 1137.38 1123.99 1105.98 1082.74 1055.29 1028.44 1010.11 1004.73 1008.53 1014.04 1015.93 1012.02 1002.07 986.58 966.20 941.59 913.32 881.92 847.94 812.07 775.28 739.22 706.72 682.16 670.11 671.10 678.65 684.02 682.40 673.08 656.92 635.36 610.84 587.00 568.21 559.31 567.40 584.74 558.40 539.38 538.09 541.82 548.69 560.43 577.64 599.36 624.09 650.49 677.55 704.61 731.23 757.15 782.20 806.31 829.42 851.53 872.66 892.82
1048.08 1028.21 1007.72 986.80 965.79 945.10 925.33 907.24 891.77 879.96 872.83 871.15 875.19 884.59 898.48 915.67 934.98 955.33 975.88 996.02 1015.35 1033.61 1050.68 1066.49 1081.02 1094.28 1106.32 1117.16 1126.87 1135.50 1143.11 1149.76 1155.53 1160.46 1164.63 1168.08 1170.89 1173.10 1174.76 1175.93 1176.64 1176.95 1176.88 1176.48 1175.79 1174.83 1173.65 1172.27 1170.74 1169.08 1167.32 1165.52 1163.69 1161.89 1160.15 1158.50 1156.97 1155.59 1154.34 1153.20 1152.08 1150.83 1149.22 1146.95 1143.67 1138.99 1132.59 1124.20 1113.64 1100.94 1086.52 1071.40 1057.22 1045.64 1037.32 1031.39 1025.91 1018.87 1008.85 995.09 977.30 955.49 929.77 900.30 867.26 830.84 791.30 749.21 705.89 664.53 631.87 617.61 625.11 641.14 649.28 645.97 634.84 618.14 595.75 568.05 538.73 514.84 501.32 484.87 444.42 446.63 480.52 491.34 485.93 486.04 501.24 527.55 559.15 592.49 625.82 658.33 689.63 719.57 748.12 775.26 801.04 825.51 848.73 870.76 891.66
1077.30 1060.63 1043.71 1026.76 1010.06 994.00 979.04 965.73 954.68 946.48 941.66 940.56 943.28 949.62 959.11 971.13 984.98 999.97 1015.51 1031.11 1046.40 1061.10 1075.03 1088.07 1100.16 1111.26 1121.37 1130.50 1138.68 1145.95 1152.35 1157.92 1162.73 1166.81 1170.22 1173.01 1175.23 1176.92 1178.12 1178.88 1179.24 1179.24 1178.89 1178.26 1177.35 1176.20 1174.85 1173.31 1171.63 1169.81 1167.90 1165.92 1163.89 1161.84 1159.78 1157.75 1155.74 1153.74 1151.75 1149.71 1147.54 1145.14 1142.36 1139.03 1134.97 1129.99 1123.95 1116.75 1108.40 1099.02 1088.89 1078.45 1068.17 1058.40 1049.17 1040.09 1030.44 1019.41 1006.25 990.40 971.51 949.37 923.89 895.08 863.02 827.89 790.11 750.54 710.92 674.61 647.12 634.19 634.42 634.79 624.75 608.70 595.48 585.19 569.15 539.21 495.39 449.02 429.15 453.93 474.18 479.47 476.77 449.32 412.22 411.15 444.06 488.30 533.01 575.24 614.57 651.20 685.39 717.41 747.46 775.72 802.33 827.43 851.12 873.51 894.68
1107.47 1093.78 1080.10 1066.63 1053.60 1041.30 1030.07 1020.27 1012.27 1006.41 1002.97 1002.11 1003.85 1008.08 1014.53 1022.84 1032.60 1043.37 1054.76 1066.40 1078.00 1089.32 1100.18 1110.46 1120.07 1128.94 1137.06 1144.41 1151.01 1156.86 1162.00 1166.45 1170.26 1173.46 1176.08 1178.18 1179.78 1180.93 1181.65 1181.99 1181.98 1181.64 1181.01 1180.12 1178.98 1177.64 1176.10 1174.40 1172.55 1170.58 1168.50 1166.34 1164.11 1161.82 1159.49 1157.12 1154.71 1152.24 1149.70 1147.04 1144.20 1141.12 1137.70 1133.86 1129.48 1124.49 1118.82 1112.42 1105.33 1097.59 1089.32 1080.65 1071.70 1062.48 1052.91 1042.75 1031.64 1019.18 1004.96 988.63 969.90 948.60 924.64 898.03 868.91 837.63 804.82 771.51 739.29 710.19 685.96 666.23 646.37 619.10 582.76 549.55 537.87 548.20 557.48 546.60 516.98 485.00 471.40 481.55 497.28 503.06 493.81 469.52 445.24 443.96 468.24 505.74 546.81 587.21 625.57 661.59 695.33 726.97 756.68 784.60 810.89 835.68 859.06 881.15 902.04
1136.95 1125.82 1114.86 1104.22 1094.07 1084.64 1076.14 1068.81 1062.87 1058.51 1055.88 1055.05 1056.04 1058.75 1063.03 1068.67 1075.39 1082.94 1091.05 1099.46 1107.95 1116.34 1124.47 1132.23 1139.54 1146.33 1152.56 1158.20 1163.26 1167.74 1171.65 1175.00 1177.82 1180.14 1181.99 1183.39 1184.37 1184.97 1185.21 1185.12 1184.73 1184.06 1183.13 1181.97 1180.61 1179.05 1177.33 1175.46 1173.45 1171.32 1169.08 1166.76 1164.35 1161.86 1159.31 1156.68 1153.97 1151.17 1148.26 1145.20 1141.97 1138.50 1134.75 1130.67 1126.19 1121.26 1115.85 1109.93 1103.49 1096.56 1089.13 1081.24 1072.86 1063.95 1054.40 1044.05 1032.70 1020.09 1006.00 990.20 972.51 952.82 931.07 907.31 881.70 854.56 826.38 797.79 769.54 742.11 715.31 687.65 656.42 619.33 578.61 545.19 534.31 547.45 565.80 572.16 565.30 553.65 545.58 543.76 545.14 544.99 540.55 532.88 527.13 529.70 543.35 566.27 594.83 625.94 657.64 688.85 719.03 747.94 775.48 801.65 826.48 850.02 872.34 893.50 913.57
1164.68 1155.64 1146.84 1138.38 1130.41 1123.07 1116.51 1110.87 1106.28 1102.86 1100.68 1099.78 1100.15 1101.73 1104.42 1108.09 1112.57 1117.68 1123.25 1129.11 1135.09 1141.05 1146.88 1152.49 1157.78 1162.72 1167.25 1171.35 1175.00 1178.20 1180.96 1183.27 1185.16 1186.65 1187.74 1188.47 1188.85 1188.91 1188.68 1188.16 1187.39 1186.38 1185.16 1183.74 1182.14 1180.37 1178.46 1176.42 1174.25 1171.97 1169.59 1167.12 1164.56 1161.91 1159.19 1156.37 1153.46 1150.44 1147.31 1144.02 1140.56 1136.90 1133.00 1128.82 1124.33 1119.49 1114.27 1108.65 1102.61 1096.13 1089.19 1081.76 1073.80 1065.25 1056.00 1045.96 1034.97 1022.90 1009.58 994.90 978.72 960.99 941.68 920.82 898.55 875.05 850.58 825.45 799.89 773.96 747.42 719.77 690.62 660.57 632.39 611.12 601.34 602.56 608.50 612.50 612.08 608.67 604.83 602.10 600.56 599.52 598.53 598.18 600.02 605.92 617.00 633.20 653.56 676.74 701.53 726.99 752.45 777.49 801.83 825.34 847.93 869.55 890.22 909.95 928.77
1190.11 1182.70 1175.55 1168.73 1162.35 1156.50 1151.27 1146.76 1143.04 1140.18 1138.22 1137.18 1137.03 1137.74 1139.24 1141.44 1144.23 1147.50 1151.13 1155.00 1158.99 1163.00 1166.95 1170.76 1174.36 1177.71 1180.76 1183.50 1185.91 1187.97 1189.68 1191.04 1192.07 1192.78 1193.17 1193.26 1193.07 1192.62 1191.92 1190.99 1189.85 1188.51 1186.99 1185.31 1183.48 1181.50 1179.41 1177.19 1174.87 1172.45 1169.94 1167.34 1164.65 1161.88 1159.03 1156.08 1153.04 1149.90 1146.63 1143.22 1139.66 1135.91 1131.96 1127.78 1123.34 1118.62 1113.58 1108.21 1102.47 1096.34 1089.79 1082.78 1075.25 1067.16 1058.43 1048.98 1038.71 1027.52 1015.33 1002.04 987.58 971.92 955.03 936.95 917.74 897.53 876.44 854.63 832.25 809.39 786.15 762.67 739.38 717.19 697.61 682.33 672.43 667.48 665.66 664.83 663.65 661.87 659.92 658.36 657.50 657.50 658.56 661.04 665.52 672.60 682.67 695.79 711.63 729.67 749.28 769.86 790.91 812.06 833.00 853.55 873.55 892.92 911.61 929.60 946.88
1213.02 1206.85 1200.93 1195.31 1190.06 1185.25 1180.93 1177.15 1173.98 1171.44 1169.55 1168.31 1167.72 1167.73 1168.32 1169.40 1170.91 1172.78 1174.91 1177.23 1179.66 1182.12 1184.55 1186.89 1189.09 1191.11 1192.91 1194.48 1195.80 1196.86 1197.64 1198.16 1198.41 1198.40 1198.14 1197.64 1196.92 1195.98 1194.84 1193.51 1192.01 1190.35 1188.54 1186.60 1184.53 1182.35 1180.07 1177.69 1175.22 1172.66 1170.03 1167.31 1164.52 1161.66 1158.71 1155.68 1152.56 1149.33 1146.00 1142.54 1138.95 1135.19 1131.26 1127.14 1122.79 1118.21 1113.36 1108.23 1102.78 1097.00 1090.83 1084.26 1077.24 1069.72 1061.64 1052.94 1043.57 1033.45 1022.53 1010.75 998.06 984.44 969.88 954.40 938.06 920.91 903.06 884.64 865.76 846.62 827.40 808.43 790.14 773.12 758.06 745.55 735.91 728.97 724.18 720.82 718.31 716.35 714.90 714.08 714.07 715.04 717.18 720.74 725.95 733.05 742.16 753.29 766.28 780.88 796.77 813.58 831.00 848.72 866.52 884.21 901.64 918.70 935.32 951.45 967.07
1233.43 1228.18 1223.16 1218.40 1213.94 1209.83 1206.11 1202.81 1199.95 1197.56 1195.65 1194.20 1193.22 1192.67 1192.53 1192.74 1193.27 1194.04 1195.02 1196.14 1197.33 1198.56 1199.77 1200.92 1201.97 1202.88 1203.64 1204.22 1204.60 1204.79 1204.76 1204.52 1204.07 1203.42 1202.56 1201.52 1200.29 1198.89 1197.34 1195.63 1193.78 1191.81 1189.72 1187.52 1185.23 1182.84 1180.37 1177.82 1175.21 1172.52 1169.77 1166.95 1164.07 1161.12 1158.10 1155.01 1151.83 1148.57 1145.21 1141.74 1138.15 1134.43 1130.56 1126.52 1122.30 1117.88 1113.24 1108.36 1103.21 1097.78 1092.03 1085.93 1079.45 1072.56 1065.21 1057.36 1048.96 1039.98 1030.37 1020.09 1009.13 997.47 985.10 972.04 958.34 944.04 929.22 914.00 898.49 882.88 867.36 852.18 837.67 824.15 811.98 801.41 792.59 785.49 779.96 775.74 772.60 770.39 769.03 768.53 768.95 770.39 772.95 776.76 781.92 788.52 796.60 806.13 817.02 829.11 842.22 856.12 870.62 885.49 900.57 915.70 930.75 945.63 960.25 974.56 988.51
1251.47 1246.91 1242.53 1238.37 1234.45 1230.81 1227.47 1224.45 1221.76 1219.42 1217.42 1215.76 1214.43 1213.42 1212.69 1212.22 1211.96 1211.89 1211.96 1212.12 1212.35 1212.59 1212.82 1213.00 1213.10 1213.10 1212.98 1212.72 1212.30 1211.73 1210.99 1210.08 1209.01 1207.77 1206.37 1204.83 1203.13 1201.30 1199.35 1197.28 1195.10 1192.82 1190.45 1188.00 1185.48 1182.89 1180.23 1177.52 1174.76 1171.94 1169.08 1166.16 1163.19 1160.17 1157.09 1153.94 1150.73 1147.44 1144.07 1140.61 1137.04 1133.37 1129.57 1125.63 1121.54 1117.29 1112.86 1108.24 1103.40 1098.32 1092.99 1087.38 1081.46 1075.21 1068.61 1061.61 1054.20 1046.34 1038.01 1029.19 1019.86 1010.01 999.66 988.81 977.49 965.76 953.68 941.34 928.84 916.31 903.92 891.85 880.30 869.48 859.58 850.75 843.09 836.64 831.36 827.19 824.04 821.85 820.59 820.24 820.83 822.39 824.98 828.64 833.42 839.34 846.40 854.57 863.77 873.90 884.84 896.46 908.61 921.14 933.93 946.85 959.81 972.72 985.50 998.10 1010.47
1267.37 1263.28 1259.35 1255.60 1252.05 1248.71 1245.60 1242.72 1240.10 1237.73 1235.62 1233.75 1232.12 1230.71 1229.50 1228.47 1227.59 1226.84 1226.19 1225.60 1225.04 1224.50 1223.93 1223.32 1222.64 1221.88 1221.02 1220.04 1218.94 1217.71 1216.34 1214.84 1213.21 1211.44 1209.54 1207.53 1205.40 1203.16 1200.82 1198.40 1195.90 1193.32 1190.68 1187.98 1185.23 1182.44 1179.60 1176.73 1173.82 1170.87 1167.89 1164.88 1161.82 1158.72 1155.58 1152.39 1149.14 1145.82 1142.44 1138.98 1135.44 1131.80 1128.07 1124.22 1120.26 1116.16 1111.92 1107.53 1102.98 1098.24 1093.30 1088.16 1082.78 1077.16 1071.27 1065.10 1058.62 1051.82 1044.69 1037.21 1029.38 1021.19 1012.65 1003.78 994.60 985.15 975.47 965.64 955.74 945.86 936.12 926.64 917.55 908.99 901.07 893.91 887.58 882.12 877.56 873.90 871.13 869.22 868.17 867.97 868.65 870.20 872.65 876.03 880.32 885.55 891.68 898.68 906.50 915.06 924.28 934.07 944.32 954.94 965.83 976.89 988.05 999.23 1010.38 1021.43 1032.36
1281.34 1277.58 1273.96 1270.47 1267.14 1263.97 1260.98 1258.18 1255.55 1253.12 1250.86 1248.79 1246.88 1245.14 1243.53 1242.05 1240.67 1239.37 1238.13 1236.94 1235.75 1234.56 1233.35 1232.08 1230.76 1229.36 1227.87 1226.28 1224.58 1222.77 1220.85 1218.82 1216.67 1214.42 1212.06 1209.61 1207.06 1204.43 1201.73 1198.97 1196.15 1193.28 1190.37 1187.42 1184.45 1181.45 1178.44 1175.40 1172.35 1169.27 1166.18 1163.06 1159.92 1156.75 1153.53 1150.28 1146.98 1143.63 1140.22 1136.74 1133.20 1129.58 1125.88 1122.09 1118.21 1114.23 1110.15 1105.95 1101.63 1097.18 1092.60 1087.86 1082.97 1077.91 1072.66 1067.23 1061.60 1055.76 1049.71 1043.43 1036.94 1030.23 1023.30 1016.18 1008.88 1001.43 993.86 986.22 978.57 970.98 963.51 956.25 949.29 942.71 936.61 931.05 926.09 921.79 918.17 915.27 913.09 911.64 910.93 910.97 911.75 913.30 915.62 918.70 922.55 927.16 932.49 938.53 945.23 952.54 960.38 968.71 977.43 986.49 995.81 1005.32 1014.95 1024.66 1034.39 1044.09 1053.72
1293.59 1290.05 1286.61 1283.29 1280.08 1277.00 1274.06 1271.25 1268.58 1266.04 1263.65 1261.38 1259.23 1257.19 1255.25 1253.39 1251.60 1249.86 1248.15 1246.46 1244.76 1243.05 1241.30 1239.49 1237.62 1235.68 1233.65 1231.53 1229.32 1227.00 1224.58 1222.06 1219.45 1216.74 1213.94 1211.07 1208.13 1205.13 1202.07 1198.97 1195.84 1192.68 1189.51 1186.32 1183.13 1179.94 1176.74 1173.55 1170.35 1167.16 1163.95 1160.73 1157.50 1154.24 1150.95 1147.62 1144.26 1140.84 1137.37 1133.84 1130.25 1126.60 1122.88 1119.10 1115.24 1111.31 1107.31 1103.23 1099.08 1094.84 1090.52 1086.11 1081.61 1077.01 1072.31 1067.50 1062.59 1057.58 1052.45 1047.23 1041.90 1036.47 1030.96 1025.37 1019.72 1014.02 1008.30 1002.59 996.92 991.33 985.87 980.58 975.53 970.77 966.35 962.34 958.76 955.68 953.11 951.10 949.65 948.80 948.54 948.91 949.89 951.51 953.76 956.63 960.14 964.26 968.97 974.24 980.06 986.36 993.12 1000.28 1007.78 1015.58 1023.62 1031.84 1040.21 1048.67 1057.18 1065.71 1074.22
1304.33 1300.91 1297.57 1294.32 1291.16 1288.10 1285.14 1282.28 1279.53 1276.89 1274.34 1271.89 1269.52 1267.23 1265.01 1262.85 1260.72 1258.62 1256.53 1254.44 1252.33 1250.18 1247.99 1245.73 1243.41 1241.00 1238.51 1235.93 1233.25 1230.47 1227.60 1224.63 1221.58 1218.44 1215.23 1211.96 1208.63 1205.25 1201.85 1198.42 1194.98 1191.54 1188.11 1184.69 1181.29 1177.91 1174.55 1171.21 1167.89 1164.57 1161.27 1157.95 1154.63 1151.28 1147.90 1144.48 1141.01 1137.50 1133.92 1130.28 1126.59 1122.83 1119.02 1115.15 1111.23 1107.26 1103.24 1099.18 1095.09 1090.95 1086.78 1082.58 1078.34 1074.07 1069.78 1065.45 1061.11 1056.75 1052.38 1048.01 1043.66 1039.33 1035.03 1030.77 1026.57 1022.42 1018.36 1014.37 1010.49 1006.72 1003.09 999.63 996.35 993.30 990.50 988.00 985.81 983.98 982.53 981.49 980.88 980.72 981.03 981.82 983.10 984.89 987.17 989.96 993.25 997.03 1001.28 1005.99 1011.13 1016.67 1022.58 1028.82 1035.35 1042.14 1049.15 1056.33 1063.65 1071.07 1078.56 1086.09 1093.64
1313.72 1310.35 1307.03 1303.78 1300.60 1297.50 1294.48 1291.54 1288.68 1285.91 1283.21 1280.59 1278.03 1275.53 1273.08 1270.67 1268.27 1265.89 1263.50 1261.09 1258.64 1256.15 1253.59 1250.97 1248.26 1245.46 1242.57 1239.58 1236.48 1233.29 1230.00 1226.61 1223.14 1219.59 1215.98 1212.31 1208.59 1204.85 1201.10 1197.35 1193.61 1189.89 1186.21 1182.57 1178.98 1175.44 1171.94 1168.48 1165.06 1161.66 1158.27 1154.88 1151.47 1148.03 1144.55 1141.01 1137.41 1133.73 1129.99 1126.16 1122.27 1118.31 1114.29 1110.22 1106.11 1101.97 1097.81 1093.64 1089.47 1085.30 1081.14 1076.99 1072.87 1068.76 1064.69 1060.66 1056.69 1052.78 1048.96 1045.24 1041.65 1038.20 1034.92 1031.80 1028.87 1026.13 1023.58 1021.20 1019.00 1016.97 1015.10 1013.39 1011.85 1010.48 1009.30 1008.31 1007.54 1007.00 1006.73 1006.74 1007.04 1007.67 1008.64 1009.96 1011.64 1013.70 1016.14 1018.96 1022.17 1025.76 1029.71 1034.02 1038.67 1043.64 1048.91 1054.44 1060.22 1066.22 1072.40 1078.73 1085.20 1091.77 1098.41 1105.10 1111.82
1321.90 1318.50 1315.13 1311.82 1308.57 1305.37 1302.24 1299.19 1296.20 1293.28 1290.43 1287.65 1284.93 1282.25 1279.62 1277.01 1274.41 1271.82 1269.20 1266.56 1263.86 1261.10 1258.27 1255.34 1252.32 1249.19 1245.96 1242.60 1239.14 1235.56 1231.88 1228.09 1224.22 1220.27 1216.25 1212.19 1208.09 1203.99 1199.89 1195.81 1191.77 1187.80 1183.89 1180.06 1176.31 1172.65 1169.07 1165.55 1162.08 1158.64 1155.21 1151.77 1148.31 1144.78 1141.19 1137.50 1133.72 1129.82 1125.80 1121.68 1117.45 1113.14 1108.76 1104.33 1099.87 1095.39 1090.92 1086.48 1082.06 1077.69 1073.37 1069.11 1064.90 1060.77 1056.72 1052.76 1048.91 1045.20 1041.66 1038.32 1035.23 1032.42 1029.93 1027.77 1025.97 1024.52 1023.41 1022.62 1022.10 1021.83 1021.76 1021.87 1022.12 1022.50 1022.99 1023.59 1024.31 1025.15 1026.13 1027.27 1028.57 1030.07 1031.78 1033.72 1035.90 1038.34 1041.04 1044.01 1047.26 1050.78 1054.57 1058.64 1062.96 1067.52 1072.31 1077.32 1082.52 1087.89 1093.42 1099.09 1104.86 1110.73 1116.67 1122.66 1128.69
1328.98 1325.47 1321.99 1318.55 1315.15 1311.81 1308.52 1305.30 1302.15 1299.07 1296.07 1293.13 1290.26 1287.45 1284.68 1281.94 1279.22 1276.49 1273.74 1270.95 1268.09 1265.15 1262.12 1258.98 1255.71 1252.32 1248.80 1245.13 1241.33 1237.40 1233.35 1229.18 1224.92 1220.57 1216.15 1211.69 1207.20 1202.72 1198.27 1193.87 1189.56 1185.34 1181.24 1177.28 1173.45 1169.75 1166.17 1162.69 1159.27 1155.89 1152.51 1149.09 1145.61 1142.02 1138.31 1134.44 1130.40 1126.17 1121.74 1117.15 1112.40 1107.53 1102.56 1097.55 1092.51 1087.48 1082.49 1077.56 1072.71 1067.94 1063.27 1058.69 1054.21 1049.82 1045.54 1041.37 1037.35 1033.49 1029.87 1026.55 1023.59 1021.09 1019.11 1017.70 1016.90 1016.69 1017.06 1017.94 1019.26 1020.93 1022.87 1024.99 1027.23 1029.54 1031.87 1034.21 1036.55 1038.88 1041.22 1043.58 1045.97 1048.43 1050.97 1053.60 1056.36 1059.26 1062.31 1065.52 1068.91 1072.48 1076.23 1080.17 1084.28 1088.57 1093.03 1097.65 1102.41 1107.31 1112.33 1117.46 1122.68 1127.98 1133.35 1138.76 1144.22
1335.03 1331.34 1327.67 1324.01 1320.39 1316.82 1313.31 1309.86 1306.50 1303.22 1300.04 1296.96 1293.96 1291.05 1288.20 1285.41 1282.65 1279.89 1277.11 1274.28 1271.37 1268.37 1265.24 1261.97 1258.55 1254.96 1251.21 1247.29 1243.20 1238.95 1234.54 1230.01 1225.35 1220.60 1215.77 1210.90 1206.01 1201.15 1196.34 1191.62 1187.04 1182.62 1178.40 1174.39 1170.60 1167.03 1163.63 1160.37 1157.19 1154.03 1150.83 1147.54 1144.11 1140.51 1136.68 1132.59 1128.19 1123.46 1118.41 1113.07 1107.49 1101.73 1095.86 1089.94 1084.03 1078.16 1072.39 1066.73 1061.22 1055.84 1050.62 1045.52 1040.55 1035.67 1030.87 1026.16 1021.55 1017.09 1012.86 1008.98 1005.60 1002.89 1001.00 1000.05 1000.11 1001.19 1003.23 1006.11 1009.66 1013.70 1018.08 1022.64 1027.25 1031.82 1036.28 1040.60 1044.75 1048.73 1052.55 1056.24 1059.82 1063.31 1066.74 1070.15 1073.55 1076.97 1080.44 1083.96 1087.57 1091.26 1095.06 1098.96 1102.96 1107.09 1111.32 1115.65 1120.09 1124.63 1129.26 1133.96 1138.74 1143.59 1148.48 1153.42 1158.40
1340.13 1336.17 1332.19 1328.23 1324.28 1320.37 1316.52 1312.76 1309.09 1305.55 1302.15 1298.89 1295.78 1292.80 1289.96 1287.21 1284.53 1281.88 1279.21 1276.50 1273.69 1270.75 1267.66 1264.38 1260.90 1257.22 1253.31 1249.19 1244.86 1240.32 1235.59 1230.70 1225.66 1220.50 1215.25 1209.95 1204.64 1199.36 1194.18 1189.14 1184.31 1179.73 1175.47 1171.57 1168.04 1164.86 1162.00 1159.33 1156.74 1154.09 1151.28 1148.23 1144.94 1141.38 1137.48 1133.14 1128.26 1122.79 1116.72 1110.16 1103.22 1096.06 1088.79 1081.51 1074.31 1067.25 1060.37 1053.71 1047.29 1041.11 1035.15 1029.36 1023.70 1018.10 1012.50 1006.85 1001.13 995.38 989.71 984.34 979.55 975.69 973.13 972.16 972.96 975.55 979.78 985.38 992.01 999.32 1006.98 1014.71 1022.33 1029.68 1036.69 1043.30 1049.51 1055.33 1060.79 1065.91 1070.74 1075.33 1079.71 1083.92 1088.00 1091.99 1095.91 1099.79 1103.66 1107.53 1111.42 1115.35 1119.32 1123.34 1127.42 1131.56 1135.76 1140.02 1144.34 1148.71 1153.14 1157.61 1162.12 1166.68 1171.26
1344.34 1339.98 1335.58 1331.16 1326.73 1322.32 1317.97 1313.72 1309.61 1305.67 1301.94 1298.45 1295.21 1292.22 1289.46 1286.89 1284.47 1282.12 1279.80 1277.42 1274.92 1272.26 1269.38 1266.26 1262.86 1259.19 1255.23 1250.98 1246.46 1241.68 1236.65 1231.42 1225.99 1220.41 1214.72 1208.97 1203.20 1197.48 1191.88 1186.49 1181.40 1176.71 1172.51 1168.92 1165.99 1163.73 1162.08 1160.80 1159.57 1158.00 1155.81 1152.99 1149.72 1146.21 1142.42 1138.03 1132.61 1125.93 1118.08 1109.35 1100.10 1090.67 1081.26 1072.02 1063.03 1054.34 1045.99 1038.03 1030.47 1023.31 1016.48 1009.91 1003.48 997.02 990.38 983.38 975.89 967.87 959.43 950.87 942.76 935.89 931.12 929.22 930.64 935.41 943.13 953.11 964.59 976.81 989.20 1001.32 1012.88 1023.74 1033.82 1043.12 1051.65 1059.49 1066.69 1073.32 1079.45 1085.16 1090.49 1095.51 1100.28 1104.83 1109.21 1113.46 1117.61 1121.67 1125.69 1129.68 1133.65 1137.62 1141.59 1145.59 1149.60 1153.65 1157.72 1161.83 1165.96 1170.13 1174.33 1178.56 1182.82
1347.74 1342.85 1337.86 1332.78 1327.64 1322.49 1317.38 1312.37 1307.53 1302.94 1298.68 1294.81 1291.38 1288.39 1285.83 1283.65 1281.76 1280.05 1278.40 1276.71 1274.86 1272.76 1270.37 1267.62 1264.50 1260.98 1257.08 1252.80 1248.16 1243.18 1237.90 1232.33 1226.53 1220.52 1214.37 1208.12 1201.84 1195.62 1189.53 1183.71 1178.29 1173.44 1169.35 1166.24 1164.35 1163.85 1164.77 1166.81 1169.10 1170.22 1168.87 1165.00 1160.23 1156.34 1153.61 1150.52 1145.05 1136.22 1124.62 1111.56 1098.19 1085.14 1072.66 1060.78 1049.46 1038.69 1028.50 1018.94 1010.04 1001.79 994.11 986.82 979.71 972.46 964.73 956.13 946.21 934.65 921.30 906.49 891.21 877.24 866.83 862.11 864.31 873.30 887.76 905.81 925.61 945.71 965.14 983.33 1000.04 1015.21 1028.88 1041.18 1052.23 1062.18 1071.16 1079.29 1086.70 1093.48 1099.72 1105.51 1110.92 1116.00 1120.81 1125.39 1129.80 1134.05 1138.19 1142.24 1146.22 1150.15 1154.05 1157.92 1161.79 1165.65 1169.53 1173.41 1177.31 1181.23 1185.16 1189.12 1193.10
1350.47 1344.89 1339.09 1333.10 1326.95 1320.70 1314.41 1308.18 1302.14 1296.43 1291.20 1286.62 1282.79 1279.79 1277.59 1276.13 1275.23 1274.70 1274.31 1273.86 1273.17 1272.10 1270.55 1268.49 1265.87 1262.71 1259.02 1254.81 1250.14 1245.03 1239.52 1233.65 1227.48 1221.04 1214.40 1207.62 1200.77 1193.95 1187.26 1180.86 1174.92 1169.68 1165.46 1162.70 1161.94 1163.92 1169.43 1179.01 1191.86 1203.55 1205.33 1192.84 1176.26 1168.07 1170.18 1176.70 1175.07 1160.02 1138.10 1115.70 1095.36 1077.37 1061.25 1046.43 1032.52 1019.34 1006.92 995.43 985.03 975.74 967.40 959.69 952.20 944.51 936.05 926.08 913.60 897.41 876.45 850.34 820.31 790.14 766.03 754.52 759.08 778.35 807.58 841.38 875.66 908.00 937.33 963.36 986.22 1006.23 1023.74 1039.09 1052.62 1064.57 1075.21 1084.71 1093.26 1100.99 1108.02 1114.47 1120.42 1125.94 1131.10 1135.97 1140.58 1144.98 1149.21 1153.29 1157.27 1161.15 1164.97 1168.74 1172.47 1176.17 1179.87 1183.56 1187.25 1190.95 1194.66 1198.39 1202.14
1352.78 1346.33 1339.50 1332.30 1324.75 1316.90 1308.82 1300.65 1292.58 1284.88 1277.85 1271.83 1267.13 1263.94 1262.31 1262.11 1263.02 1264.63 1266.49 1268.21 1269.47 1270.09 1269.92 1268.94 1267.13 1264.54 1261.22 1257.21 1252.59 1247.41 1241.72 1235.59 1229.07 1222.21 1215.08 1207.74 1200.27 1192.76 1185.32 1178.11 1171.32 1165.22 1160.21 1156.84 1155.98 1158.99 1168.07 1186.78 1220.08 1268.47 1299.73 1253.78 1187.09 1161.40 1138.18 1247.33 1257.50 1197.45 1147.51 1111.00 1083.95 1062.60 1044.34 1027.57 1011.43 995.66 980.50 966.54 954.47 944.49 936.09 928.38 920.73 912.84 904.32 894.25 880.75 861.03 831.58 789.20 733.28 670.04 615.55 590.21 603.82 648.41 707.67 768.40 823.85 871.85 912.50 946.71 975.54 999.98 1020.84 1038.79 1054.34 1067.93 1079.87 1090.44 1099.87 1108.32 1115.95 1122.88 1129.22 1135.06 1140.46 1145.50 1150.24 1154.71 1158.97 1163.05 1166.98 1170.80 1174.51 1178.16 1181.74 1185.29 1188.81 1192.32 1195.83 1199.33 1202.85 1206.38 1209.93
1355.06 1347.61 1339.55 1330.86 1321.50 1311.47 1300.82 1289.69 1278.34 1267.17 1256.77 1247.85 1241.16 1237.28 1236.46 1238.47 1242.65 1248.09 1253.86 1259.20 1263.61 1266.79 1268.65 1269.21 1268.53 1266.73 1263.93 1260.23 1255.75 1250.56 1244.75 1238.40 1231.56 1224.31 1216.71 1208.81 1200.70 1192.44 1184.15 1175.95 1167.98 1160.48 1153.74 1148.22 1144.58 1143.88 1147.77 1158.76 1179.78 1208.76 1219.61 1178.52 1131.58 1125.86 1162.61 1218.35 1200.90 1146.42 1104.01 1075.21 1054.34 1037.14 1021.09 1004.79 987.57 969.28 950.45 932.73 918.73 909.61 902.76 894.65 884.76 874.83 866.34 858.74 849.08 832.30 801.65 749.39 669.90 568.62 474.60 433.06 463.84 543.11 635.90 721.74 794.17 853.32 901.36 940.58 972.93 999.92 1022.69 1042.10 1058.81 1073.32 1086.02 1097.20 1107.12 1115.98 1123.94 1131.13 1137.67 1143.65 1149.15 1154.24 1158.99 1163.45 1167.66 1171.66 1175.49 1179.19 1182.77 1186.26 1189.69 1193.06 1196.41 1199.74 1203.06 1206.39 1209.73 1213.09 1216.47
1357.87 1349.40 1340.05 1329.72 1318.28 1305.62 1291.69 1276.53 1260.37 1243.72 1227.51 1213.14 1202.27 1196.50 1196.66 1202.42 1212.30 1224.25 1236.38 1247.29 1256.23 1262.92 1267.41 1269.87 1270.55 1269.68 1267.49 1264.16 1259.86 1254.72 1248.84 1242.31 1235.22 1227.63 1219.61 1211.21 1202.50 1193.55 1184.42 1175.19 1165.95 1156.81 1147.90 1139.36 1131.38 1124.13 1117.68 1111.72 1104.92 1094.39 1077.33 1055.51 1029.23 990.53 948.54 954.74 984.36 1004.68 1013.91 1016.03 1013.21 1006.30 995.78 982.12 965.68 946.61 925.11 903.19 887.68 884.07 879.57 862.57 838.72 818.61 809.20 809.72 813.33 811.51 796.01 759.04 695.40 610.15 529.07 491.59 515.90 583.56 665.39 743.11 810.15 865.92 911.89 949.88 981.53 1008.15 1030.75 1050.11 1066.84 1081.40 1094.16 1105.42 1115.40 1124.30 1132.27 1139.46 1145.97 1151.91 1157.34 1162.34 1166.98 1171.31 1175.37 1179.21 1182.87 1186.39 1189.78 1193.08 1196.31 1199.50 1202.65 1205.79 1208.93 1212.09 1215.26 1218.46 1221.70
1361.88 1352.56 1342.11 1330.32 1316.95 1301.74 1284.45 1264.89 1243.11 1219.53 1195.34 1172.73 1154.93 1145.43 1146.49 1157.68 1175.96 1197.17 1217.77 1235.61 1249.83 1260.37 1267.58 1271.94 1273.91 1273.92 1272.30 1269.32 1265.21 1260.12 1254.20 1247.56 1240.27 1232.43 1224.08 1215.30 1206.12 1196.62 1186.82 1176.79 1166.55 1156.12 1145.49 1134.60 1123.31 1111.36 1098.33 1083.72 1067.31 1050.55 1040.68 1061.04 1130.19 977.12 506.42 745.13 842.46 905.30 946.47 970.25 980.73 981.26 974.55 963.02 948.71 932.86 915.91 898.95 886.24 878.15 857.98 815.16 758.44 712.87 708.71 736.67 768.91 792.25 801.73 794.81 771.38 736.57 702.72 685.49 693.93 725.14 769.31 817.22 863.22 904.81 941.35 973.05 1000.46 1024.18 1044.77 1062.70 1078.40 1092.19 1104.37 1115.16 1124.77 1133.35 1141.04 1147.96 1154.22 1159.91 1165.09 1169.85 1174.24 1178.32 1182.13 1185.72 1189.12 1192.38 1195.53 1198.58 1201.58 1204.54 1207.48 1210.42 1213.38 1216.36 1219.38 1222.44 1225.55
1367.72 1357.95 1346.89 1334.25 1319.74 1302.96 1283.50 1261.00 1235.23 1206.46 1175.87 1146.19 1121.97 1108.68 1110.21 1126.13 1151.72 1180.67 1207.98 1231.01 1248.98 1262.13 1271.13 1276.70 1279.49 1280.05 1278.78 1276.03 1272.03 1266.99 1261.05 1254.33 1246.93 1238.92 1230.38 1221.35 1211.90 1202.06 1191.90 1181.46 1170.76 1159.81 1148.59 1137.02 1124.92 1111.96 1097.62 1081.23 1062.08 1039.89 1014.92 984.30 926.93 803.32 641.45 694.67 808.47 884.14 931.11 957.55 968.77 968.37 959.45 945.52 930.56 917.76 907.20 896.03 882.01 863.16 830.78 773.49 703.17 644.96 650.32 700.35 748.40 786.41 812.55 826.84 830.82 827.89 823.24 822.54 829.78 845.83 868.92 896.13 924.75 952.87 979.35 1003.67 1025.67 1045.41 1063.03 1078.73 1092.71 1105.17 1116.28 1126.20 1135.07 1143.01 1150.15 1156.57 1162.37 1167.61 1172.38 1176.74 1180.74 1184.44 1187.88 1191.11 1194.17 1197.10 1199.92 1202.68 1205.39 1208.09 1210.79 1213.51 1216.27 1219.08 1221.96 1224.90 1227.91
1375.79 1366.11 1355.13 1342.60 1328.20 1311.57 1292.31 1270.06 1244.67 1216.41 1186.51 1157.65 1134.23 1121.45 1122.95 1138.29 1162.97 1190.99 1217.55 1240.07 1257.71 1270.69 1279.60 1285.14 1287.93 1288.49 1287.24 1284.50 1280.51 1275.47 1269.52 1262.77 1255.33 1247.26 1238.64 1229.53 1219.98 1210.06 1199.84 1189.38 1178.78 1168.12 1157.50 1147.03 1136.82 1126.89 1117.12 1106.90 1094.64 1077.26 1050.80 1012.77 963.98 910.78 873.98 879.05 912.52 944.91 966.01 976.14 976.54 967.78 950.74 928.12 905.43 890.95 889.78 889.23 878.92 872.01 858.08 787.43 686.24 650.22 691.19 734.86 774.21 809.05 837.57 859.16 874.50 885.24 893.62 902.00 912.22 925.26 941.11 959.14 978.42 998.04 1017.29 1035.68 1052.90 1068.83 1083.41 1096.67 1108.68 1119.52 1129.28 1138.06 1145.94 1153.03 1159.39 1165.10 1170.25 1174.88 1179.08 1182.88 1186.35 1189.54 1192.50 1195.26 1197.88 1200.38 1202.81 1205.20 1207.58 1209.97 1212.40 1214.89 1217.44 1220.09 1222.83 1225.67 1228.62
1386.09 1377.02 1366.83 1355.32 1342.26 1327.43 1310.60 1291.66 1270.69 1248.17 1225.29 1204.15 1187.67 1178.95 1179.88 1190.04 1206.72 1226.25 1245.44 1262.26 1275.82 1285.98 1293.01 1297.31 1299.29 1299.34 1297.76 1294.83 1290.73 1285.64 1279.68 1272.94 1265.53 1257.50 1248.92 1239.86 1230.38 1220.56 1210.48 1200.26 1190.06 1180.09 1170.65 1162.19 1155.39 1151.30 1151.48 1158.03 1172.39 1189.79 1189.19 1147.63 1084.15 1034.55 1013.06 1018.10 1031.77 1031.08 1020.41 1009.26 996.86 979.98 956.96 929.28 902.79 886.81 884.97 891.15 888.13 878.10 865.03 836.30 798.12 776.53 781.88 802.93 828.76 854.48 878.01 898.47 915.79 930.45 943.31 955.30 967.30 979.88 993.27 1007.43 1022.11 1036.97 1051.67 1065.93 1079.52 1092.31 1104.21 1115.19 1125.25 1134.42 1142.72 1150.22 1156.97 1163.03 1168.45 1173.30 1177.64 1181.51 1184.97 1188.08 1190.88 1193.43 1195.78 1197.96 1200.02 1202.01 1203.96 1205.91 1207.89 1209.93 1212.06 1214.29 1216.64 1219.13 1221.76 1224.54 1227.47
1398.24 1390.16 1381.21 1371.29 1360.29 1348.11 1334.74 1320.24 1304.87 1289.15 1273.98 1260.62 1250.58 1245.20 1245.17 1250.17 1258.92 1269.67 1280.72 1290.81 1299.20 1305.59 1309.93 1312.37 1313.09 1312.29 1310.18 1306.91 1302.64 1297.48 1291.53 1284.86 1277.55 1269.65 1261.23 1252.34 1243.04 1233.41 1223.56 1213.62 1203.79 1194.34 1185.70 1178.53 1173.87 1173.50 1180.48 1200.17 1240.83 1306.57 1356.92 1295.02 1162.43 1063.04 1014.90 1035.71 1108.23 1082.70 1050.63 1033.53 1019.52 1003.03 982.68 959.99 938.84 923.90 917.36 915.93 913.45 907.40 898.50 887.60 876.91 870.63 871.86 880.43 894.04 910.17 926.98 943.32 958.63 972.79 985.94 998.38 1010.43 1022.35 1034.31 1046.34 1058.41 1070.39 1082.14 1093.53 1104.44 1114.75 1124.41 1133.38 1141.63 1149.17 1156.02 1162.19 1167.72 1172.65 1177.02 1180.87 1184.26 1187.22 1189.81 1192.08 1194.07 1195.84 1197.44 1198.91 1200.30 1201.66 1203.04 1204.47 1205.98 1207.62 1209.41 1211.37 1213.52 1215.88 1218.44 1221.21 1224.18
1411.63 1404.70 1397.16 1388.98 1380.13 1370.63 1360.53 1349.97 1339.23 1328.69 1318.90 1310.51 1304.19 1300.44 1299.46 1301.07 1304.67 1309.49 1314.69 1319.60 1323.71 1326.74 1328.57 1329.16 1328.57 1326.88 1324.18 1320.56 1316.11 1310.90 1305.01 1298.47 1291.35 1283.69 1275.53 1266.91 1257.89 1248.53 1238.93 1229.20 1219.52 1210.13 1201.41 1193.87 1188.32 1185.91 1188.32 1197.60 1214.80 1234.63 1236.24 1193.29 1113.71 1025.06 934.55 879.90 956.33 1023.66 1045.12 1047.80 1041.68 1030.41 1015.91 1000.02 984.91 972.54 963.75 957.84 953.29 948.91 944.44 940.30 937.38 936.77 939.31 945.19 953.96 964.78 976.80 989.28 1001.75 1013.92 1025.68 1037.04 1048.05 1058.79 1069.33 1079.68 1089.83 1099.75 1109.36 1118.60 1127.40 1135.71 1143.49 1150.68 1157.29 1163.30 1168.71 1173.54 1177.81 1181.54 1184.76 1187.50 1189.81 1191.73 1193.31 1194.58 1195.61 1196.44 1197.14 1197.74 1198.32 1198.93 1199.61 1200.42 1201.39 1202.58 1204.00 1205.68 1207.65 1209.91 1212.46 1215.30 1218.42
1425.65 1419.85 1413.66 1407.07 1400.10 1392.81 1385.27 1377.61 1370.03 1362.78 1356.14 1350.43 1345.92 1342.80 1341.12 1340.75 1341.43 1342.78 1344.41 1345.97 1347.14 1347.74 1347.62 1346.73 1345.05 1342.60 1339.40 1335.49 1330.93 1325.75 1320.00 1313.69 1306.87 1299.56 1291.79 1283.58 1274.96 1265.98 1256.69 1247.17 1237.53 1227.93 1218.58 1209.76 1201.80 1195.05 1189.75 1185.65 1181.40 1173.82 1158.33 1131.89 1096.62 1059.74 1032.56 1031.24 1062.92 1096.22 1096.64 1082.98 1070.36 1059.06 1047.89 1036.71 1026.08 1016.68 1008.95 1002.92 998.32 994.82 992.27 990.75 990.51 991.84 994.96 999.94 1006.61 1014.66 1023.70 1033.36 1043.30 1053.31 1063.21 1072.93 1082.43 1091.68 1100.69 1109.44 1117.92 1126.10 1133.94 1141.41 1148.47 1155.07 1161.19 1166.81 1171.90 1176.45 1180.47 1183.96 1186.93 1189.39 1191.37 1192.90 1194.01 1194.74 1195.13 1195.24 1195.12 1194.83 1194.44 1194.00 1193.59 1193.28 1193.12 1193.19 1193.53 1194.19 1195.22 1196.63 1198.45 1200.67 1203.31 1206.33 1209.73
1439.81 1435.02 1429.99 1424.72 1419.24 1413.61 1407.90 1402.20 1396.63 1391.33 1386.45 1382.13 1378.50 1375.60 1373.45 1371.98 1371.04 1370.45 1370.03 1369.57 1368.90 1367.89 1366.45 1364.52 1362.05 1359.05 1355.51 1351.44 1346.88 1341.83 1336.32 1330.37 1323.99 1317.19 1309.98 1302.36 1294.34 1285.93 1277.14 1267.99 1258.53 1248.83 1238.98 1229.09 1219.25 1209.54 1199.86 1189.93 1179.14 1166.64 1151.71 1134.38 1116.11 1099.94 1089.99 1089.95 1099.48 1109.16 1107.67 1099.00 1090.28 1082.67 1075.55 1068.56 1061.80 1055.56 1050.12 1045.64 1042.19 1039.76 1038.35 1037.97 1038.70 1040.60 1043.71 1048.00 1053.38 1059.70 1066.74 1074.31 1082.20 1090.24 1098.31 1106.31 1114.17 1121.85 1129.30 1136.49 1143.41 1150.02 1156.29 1162.19 1167.70 1172.78 1177.41 1181.57 1185.24 1188.40 1191.06 1193.20 1194.83 1195.96 1196.61 1196.81 1196.57 1195.94 1194.97 1193.70 1192.21 1190.56 1188.84 1187.11 1185.49 1184.04 1182.85 1182.02 1181.60 1181.67 1182.27 1183.43 1185.16 1187.47 1190.34 1193.73 1197.62
1453.78 1449.86 1445.77 1441.54 1437.19 1432.77 1428.33 1423.91 1419.61 1415.48 1411.61 1408.06 1404.87 1402.07 1399.65 1397.56 1395.74 1394.08 1392.49 1390.86 1389.09 1387.10 1384.82 1382.22 1379.26 1375.93 1372.22 1368.14 1363.69 1358.90 1353.77 1348.31 1342.53 1336.43 1330.00 1323.24 1316.11 1308.58 1300.62 1292.20 1283.30 1273.90 1264.03 1253.72 1243.04 1232.01 1220.66 1208.93 1196.72 1183.96 1170.66 1157.14 1144.08 1132.45 1123.30 1117.23 1114.02 1112.52 1111.38 1109.84 1107.74 1105.10 1101.96 1098.47 1094.81 1091.25 1088.01 1085.28 1083.19 1081.83 1081.25 1081.50 1082.60 1084.55 1087.36 1090.98 1095.34 1100.34 1105.86 1111.78 1117.97 1124.31 1130.71 1137.08 1143.35 1149.48 1155.42 1161.12 1166.57 1171.72 1176.55 1181.03 1185.12 1188.81 1192.06 1194.86 1197.18 1198.99 1200.30 1201.08 1201.34 1201.07 1200.29 1199.01 1197.26 1195.07 1192.50 1189.60 1186.45 1183.13 1179.75 1176.42 1173.25 1170.37 1167.89 1165.94 1164.60 1163.98 1164.12 1165.07 1166.84 1169.41 1172.74 1176.78 1181.46
1467.40 1464.18 1460.86 1457.44 1453.94 1450.40 1446.84 1443.31 1439.82 1436.44 1433.18 1430.09 1427.18 1424.45 1421.90 1419.49 1417.19 1414.95 1412.71 1410.42 1408.01 1405.45 1402.69 1399.70 1396.48 1393.00 1389.27 1385.30 1381.10 1376.67 1372.05 1367.23 1362.24 1357.07 1351.71 1346.15 1340.32 1334.16 1327.57 1320.43 1312.64 1304.10 1294.75 1284.60 1273.71 1262.20 1250.20 1237.87 1225.34 1212.75 1200.28 1188.17 1176.75 1166.37 1157.40 1150.09 1144.51 1140.54 1137.86 1136.01 1134.52 1133.06 1131.44 1129.63 1127.71 1125.79 1124.03 1122.56 1121.49 1120.90 1120.87 1121.42 1122.58 1124.35 1126.72 1129.64 1133.07 1136.95 1141.19 1145.72 1150.44 1155.29 1160.18 1165.05 1169.85 1174.53 1179.05 1183.36 1187.44 1191.24 1194.74 1197.91 1200.71 1203.11 1205.09 1206.60 1207.63 1208.14 1208.12 1207.53 1206.37 1204.62 1202.29 1199.38 1195.91 1191.92 1187.46 1182.59 1177.41 1172.02 1166.55 1161.15 1155.99 1151.24 1147.09 1143.69 1141.20 1139.75 1139.42 1140.26 1142.25 1145.37 1149.53 1154.63 1160.55
1480.58 1477.95 1475.25 1472.47 1469.63 1466.75 1463.84 1460.92 1458.01 1455.14 1452.30 1449.53 1446.82 1444.17 1441.58 1439.03 1436.50 1433.95 1431.37 1428.72 1425.96 1423.09 1420.07 1416.90 1413.57 1410.08 1406.44 1402.67 1398.78 1394.82 1390.80 1386.76 1382.73 1378.74 1374.80 1370.88 1366.94 1362.86 1358.47 1353.52 1347.73 1340.80 1332.53 1322.85 1311.86 1299.81 1287.06 1273.95 1260.81 1247.92 1235.50 1223.74 1212.83 1202.95 1194.23 1186.80 1180.70 1175.88 1172.20 1169.42 1167.28 1165.53 1163.99 1162.57 1161.22 1159.99 1158.91 1158.05 1157.49 1157.26 1157.41 1157.97 1158.96 1160.36 1162.18 1164.37 1166.91 1169.75 1172.83 1176.11 1179.53 1183.03 1186.56 1190.07 1193.52 1196.87 1200.08 1203.11 1205.93 1208.51 1210.80 1212.78 1214.40 1215.63 1216.43 1216.76 1216.57 1215.83 1214.49 1212.53 1209.91 1206.61 1202.60 1197.89 1192.48 1186.40 1179.70 1172.44 1164.74 1156.72 1148.56 1140.47 1132.67 1125.43 1119.01 1113.69 1109.69 1107.23 1106.41 1107.30 1109.86 1114.01 1119.57 1126.37 1134.18
1493.32 1491.20 1489.01 1486.76 1484.45 1482.08 1479.67 1477.23 1474.75 1472.26 1469.75 1467.23 1464.70 1462.15 1459.59 1457.00 1454.37 1451.68 1448.93 1446.09 1443.16 1440.13 1436.99 1433.75 1430.40 1426.98 1423.48 1419.95 1416.43 1412.96 1409.59 1406.41 1403.47 1400.87 1398.68 1396.95 1395.68 1394.76 1393.95 1392.78 1390.60 1386.64 1380.22 1371.03 1359.27 1345.57 1330.76 1315.64 1300.82 1286.69 1273.49 1261.34 1250.31 1240.44 1231.73 1224.21 1217.83 1212.53 1208.21 1204.72 1201.91 1199.62 1197.71 1196.10 1194.71 1193.53 1192.56 1191.80 1191.28 1191.02 1191.03 1191.33 1191.93 1192.80 1193.96 1195.36 1196.99 1198.82 1200.81 1202.93 1205.14 1207.41 1209.69 1211.95 1214.16 1216.30 1218.32 1220.20 1221.89 1223.38 1224.60 1225.53 1226.12 1226.31 1226.06 1225.31 1224.00 1222.08 1219.49 1216.18 1212.08 1207.16 1201.37 1194.69 1187.10 1178.61 1169.26 1159.11 1148.28 1136.93 1125.28 1113.60 1102.23 1091.55 1081.99 1073.98 1067.93 1064.15 1062.85 1064.10 1067.81 1073.76 1081.65 1091.12 1101.80
1505.64 1503.97 1502.23 1500.42 1498.55 1496.62 1494.63 1492.58 1490.46 1488.29 1486.05 1483.76 1481.40 1478.97 1476.48 1473.91 1471.26 1468.52 1465.69 1462.78 1459.76 1456.66 1453.47 1450.21 1446.90 1443.55 1440.20 1436.90 1433.71 1430.68 1427.93 1425.56 1423.72 1422.58 1422.35 1423.24 1425.46 1429.10 1434.00 1439.50 1444.22 1446.12 1443.07 1433.90 1419.16 1400.74 1380.88 1361.32 1343.05 1326.49 1311.69 1298.59 1287.03 1276.87 1268.01 1260.32 1253.71 1248.09 1243.34 1239.35 1236.01 1233.21 1230.85 1228.85 1227.15 1225.70 1224.47 1223.47 1222.67 1222.09 1221.70 1221.52 1221.54 1221.75 1222.14 1222.68 1223.37 1224.19 1225.10 1226.10 1227.15 1228.25 1229.36 1230.46 1231.54 1232.57 1233.53 1234.38 1235.10 1235.64 1235.97 1236.02 1235.74 1235.07 1233.93 1232.26 1229.98 1227.01 1223.26 1218.66 1213.12 1206.57 1198.92 1190.13 1180.14 1168.92 1156.50 1142.91 1128.26 1112.73 1096.57 1080.13 1063.89 1048.40 1034.34 1022.43 1013.37 1007.79 1006.04 1008.22 1014.08 1023.16 1034.82 1048.41 1063.33
1517.59 1516.31 1514.98 1513.57 1512.10 1510.56 1508.94 1507.23 1505.44 1503.56 1501.58 1499.50 1497.32 1495.02 1492.62 1490.11 1487.48 1484.74 1481.89 1478.94 1475.88 1472.74 1469.53 1466.26 1462.97 1459.68 1456.44 1453.30 1450.33 1447.64 1445.33 1443.58 1442.60 1442.67 1444.18 1447.61 1453.55 1462.65 1475.34 1491.27 1508.33 1521.76 1525.16 1514.55 1491.79 1462.86 1433.43 1406.63 1383.46 1363.81 1347.19 1333.07 1320.99 1310.59 1301.61 1293.84 1287.11 1281.30 1276.28 1271.96 1268.23 1265.00 1262.21 1259.77 1257.64 1255.76 1254.11 1252.65 1251.38 1250.26 1249.29 1248.47 1247.77 1247.18 1246.70 1246.31 1246.00 1245.76 1245.58 1245.45 1245.36 1245.31 1245.28 1245.28 1245.30 1245.32 1245.33 1245.31 1245.21 1245.00 1244.63 1244.02 1243.10 1241.80 1240.01 1237.65 1234.60 1230.77 1226.04 1220.29 1213.41 1205.28 1195.79 1184.82 1172.29 1158.12 1142.27 1124.73 1105.59 1084.98 1063.20 1040.63 1017.87 995.70 975.10 957.29 943.59 935.25 933.09 937.25 947.10 961.51 979.20 998.97 1019.86
1529.18 1528.29 1527.33 1526.31 1525.21 1524.04 1522.77 1521.39 1519.91 1518.32 1516.59 1514.73 1512.73 1510.58 1508.29 1505.85 1503.26 1500.54 1497.68 1494.70 1491.62 1488.44 1485.19 1481.89 1478.58 1475.30 1472.08 1469.00 1466.13 1463.57 1461.46 1459.99 1459.39 1460.04 1462.41 1467.21 1475.38 1488.17 1506.93 1532.38 1562.64 1590.15 1601.78 1588.30 1554.45 1513.28 1474.58 1441.99 1415.60 1394.33 1377.01 1362.70 1350.68 1340.44 1331.63 1323.99 1317.33 1311.49 1306.35 1301.82 1297.81 1294.25 1291.06 1288.19 1285.59 1283.22 1281.04 1279.01 1277.12 1275.34 1273.66 1272.06 1270.52 1269.04 1267.59 1266.18 1264.79 1263.42 1262.07 1260.75 1259.46 1258.22 1257.04 1255.94 1254.92 1254.00 1253.17 1252.41 1251.70 1250.97 1250.16 1249.18 1247.94 1246.32 1244.21 1241.46 1237.95 1233.54 1228.09 1221.43 1213.42 1203.90 1192.70 1179.66 1164.62 1147.44 1128.00 1106.23 1082.14 1055.82 1027.51 997.62 966.78 935.87 906.15 879.37 857.94 844.74 842.09 850.34 867.62 891.01 917.82 946.12 974.67
1540.45 1539.92 1539.34 1538.69 1537.96 1537.15 1536.23 1535.20 1534.04 1532.73 1531.27 1529.64 1527.83 1525.84 1523.67 1521.31 1518.77 1516.06 1513.19 1510.18 1507.04 1503.80 1500.48 1497.12 1493.74 1490.39 1487.12 1483.98 1481.06 1478.43 1476.24 1474.64 1473.87 1474.25 1476.22 1480.42 1487.71 1499.22 1516.14 1539.12 1566.39 1591.07 1601.44 1589.40 1559.22 1522.46 1487.80 1458.49 1434.66 1415.39 1399.64 1386.55 1375.50 1366.02 1357.78 1350.54 1344.14 1338.42 1333.29 1328.66 1324.45 1320.61 1317.06 1313.77 1310.69 1307.78 1305.00 1302.33 1299.75 1297.21 1294.72 1292.24 1289.76 1287.26 1284.74 1282.19 1279.59 1276.97 1274.32 1271.66 1269.03 1266.46 1264.00 1261.69 1259.59 1257.73 1256.14 1254.81 1253.70 1252.76 1251.89 1250.96 1249.83 1248.35 1246.35 1243.66 1240.11 1235.53 1229.72 1222.52 1213.72 1203.13 1190.53 1175.71 1158.43 1138.49 1115.69 1089.85 1060.88 1028.83 993.87 956.40 917.08 876.79 836.59 797.90 763.60 740.19 736.21 753.43 784.49 821.37 859.70 897.55 934.08
1551.39 1551.23 1551.02 1550.75 1550.41 1549.97 1549.42 1548.75 1547.92 1546.93 1545.75 1544.37 1542.78 1540.96 1538.91 1536.63 1534.14 1531.43 1528.53 1525.46 1522.24 1518.89 1515.46 1511.98 1508.48 1505.00 1501.59 1498.30 1495.19 1492.34 1489.85 1487.85 1486.48 1485.98 1486.63 1488.80 1492.92 1499.49 1508.81 1520.60 1533.26 1543.24 1545.91 1538.45 1522.23 1501.45 1480.14 1460.55 1443.44 1428.78 1416.23 1405.42 1396.00 1387.71 1380.33 1373.70 1367.69 1362.20 1357.15 1352.47 1348.11 1344.00 1340.11 1336.39 1332.81 1329.33 1325.92 1322.55 1319.20 1315.83 1312.44 1308.99 1305.46 1301.84 1298.11 1294.27 1290.30 1286.21 1282.03 1277.77 1273.50 1269.28 1265.22 1261.42 1258.01 1255.08 1252.73 1250.97 1249.79 1249.08 1248.69 1248.43 1248.08 1247.40 1246.16 1244.13 1241.11 1236.88 1231.23 1223.96 1214.85 1203.67 1190.17 1174.10 1155.17 1133.10 1107.61 1078.45 1045.46 1008.58 967.99 924.15 877.99 830.88 784.43 739.54 695.07 654.61 646.98 681.22 727.87 774.66 820.19 864.12 906.03
1562.00 1562.21 1562.38 1562.50 1562.55 1562.51 1562.36 1562.07 1561.62 1560.98 1560.12 1559.03 1557.67 1556.05 1554.14 1551.95 1549.49 1546.77 1543.80 1540.63 1537.28 1533.78 1530.18 1526.51 1522.82 1519.15 1515.54 1512.02 1508.67 1505.52 1502.64 1500.11 1498.02 1496.49 1495.64 1495.62 1496.55 1498.50 1501.37 1504.75 1507.80 1509.26 1507.82 1502.76 1494.34 1483.64 1471.92 1460.22 1449.13 1438.90 1429.59 1421.13 1413.45 1406.41 1399.95 1393.95 1388.37 1383.12 1378.16 1373.44 1368.91 1364.54 1360.29 1356.13 1352.02 1347.93 1343.84 1339.72 1335.54 1331.27 1326.89 1322.38 1317.70 1312.83 1307.75 1302.42 1296.85 1291.01 1284.91 1278.60 1272.13 1265.64 1259.29 1253.32 1247.99 1243.58 1240.29 1238.25 1237.43 1237.68 1238.71 1240.16 1241.64 1242.77 1243.23 1242.70 1240.95 1237.74 1232.86 1226.11 1217.26 1206.09 1192.35 1175.76 1156.02 1132.82 1105.81 1074.73 1039.33 999.51 955.41 907.46 856.65 804.76 754.81 711.59 681.36 668.09 670.13 689.32 722.28 763.12 807.40 852.20 895.76
1572.24 1572.81 1573.37 1573.89 1574.35 1574.74 1575.01 1575.15 1575.12 1574.88 1574.40 1573.64 1572.57 1571.18 1569.44 1567.36 1564.92 1562.17 1559.11 1555.78 1552.24 1548.52 1544.68 1540.76 1536.81 1532.88 1529.01 1525.24 1521.60 1518.13 1514.87 1511.86 1509.14 1506.75 1504.73 1503.12 1501.92 1501.08 1500.46 1499.85 1498.90 1497.18 1494.34 1490.16 1484.70 1478.20 1471.05 1463.60 1456.16 1448.90 1441.93 1435.30 1429.00 1423.02 1417.31 1411.86 1406.62 1401.56 1396.64 1391.84 1387.12 1382.45 1377.81 1373.16 1368.48 1363.74 1358.91 1353.97 1348.90 1343.66 1338.22 1332.55 1326.62 1320.37 1313.78 1306.78 1299.32 1291.36 1282.85 1273.78 1264.20 1254.26 1244.24 1234.57 1225.85 1218.75 1213.89 1211.65 1212.03 1214.67 1218.91 1223.96 1229.08 1233.65 1237.16 1239.27 1239.71 1238.30 1234.86 1229.24 1221.27 1210.77 1197.50 1181.24 1161.69 1138.54 1111.50 1080.27 1044.64 1004.55 960.14 911.82 860.24 806.28 751.20 697.87 654.92 640.44 643.29 681.80 726.45 771.91 817.20 861.60 904.40
1582.04 1582.98 1583.91 1584.83 1585.71 1586.53 1587.25 1587.85 1588.28 1588.50 1588.45 1588.11 1587.41 1586.33 1584.83 1582.89 1580.52 1577.72 1574.53 1571.00 1567.19 1563.16 1558.98 1554.73 1550.45 1546.20 1542.03 1537.96 1534.03 1530.26 1526.67 1523.28 1520.09 1517.12 1514.37 1511.83 1509.47 1507.24 1505.06 1502.82 1500.38 1497.59 1494.34 1490.55 1486.22 1481.42 1476.25 1470.84 1465.30 1459.74 1454.21 1448.75 1443.40 1438.14 1432.97 1427.89 1422.87 1417.90 1412.94 1407.99 1403.02 1397.99 1392.90 1387.71 1382.41 1376.95 1371.34 1365.52 1359.49 1353.20 1346.62 1339.72 1332.44 1324.73 1316.50 1307.66 1298.09 1287.63 1276.14 1263.43 1249.39 1234.03 1217.65 1200.94 1185.19 1172.18 1163.77 1161.26 1164.75 1173.11 1184.48 1196.94 1208.95 1219.49 1227.97 1234.09 1237.76 1238.91 1237.53 1233.60 1227.04 1217.76 1205.63 1190.47 1172.07 1150.17 1124.53 1094.91 1061.17 1023.37 981.88 937.54 891.71 846.22 802.99 763.88 731.95 713.40 716.07 739.77 774.36 812.90 852.63 892.30 931.09
1591.34 1592.61 1593.89 1595.18 1596.44 1597.67 1598.83 1599.88 1600.78 1601.49 1601.95 1602.10 1601.90 1601.27 1600.15 1598.50 1596.29 1593.50 1590.18 1586.39 1582.22 1577.77 1573.14 1568.42 1563.71 1559.06 1554.52 1550.13 1545.90 1541.86 1538.00 1534.33 1530.84 1527.53 1524.37 1521.35 1518.44 1515.60 1512.78 1509.93 1506.98 1503.87 1500.55 1496.99 1493.18 1489.12 1484.86 1480.43 1475.87 1471.21 1466.49 1461.73 1456.94 1452.12 1447.27 1442.39 1437.45 1432.46 1427.38 1422.20 1416.90 1411.46 1405.86 1400.07 1394.07 1387.84 1381.36 1374.60 1367.53 1360.11 1352.33 1344.12 1335.44 1326.19 1316.29 1305.56 1293.81 1280.73 1265.93 1248.88 1228.97 1205.57 1178.35 1147.82 1116.23 1088.21 1070.06 1066.85 1078.97 1101.99 1129.70 1157.09 1181.35 1201.36 1216.97 1228.43 1236.11 1240.33 1241.38 1239.43 1234.59 1226.90 1216.34 1202.85 1186.32 1166.59 1143.48 1116.81 1086.44 1052.39 1014.96 975.05 934.37 895.79 863.46 842.11 832.85 828.21 825.74 832.51 850.19 875.79 906.00 938.36 971.27
1600.08 1601.62 1603.18 1604.75 1606.31 1607.84 1609.32 1610.71 1611.98 1613.11 1614.05 1614.78 1615.24 1615.34 1614.96 1613.97 1612.22 1609.65 1606.27 1602.17 1597.50 1592.44 1587.16 1581.81 1576.52 1571.36 1566.38 1561.63 1557.10 1552.81 1548.74 1544.87 1541.21 1537.71 1534.36 1531.13 1528.00 1524.93 1521.89 1518.85 1515.77 1512.61 1509.35 1505.97 1502.45 1498.80 1495.00 1491.07 1487.02 1482.85 1478.57 1474.20 1469.72 1465.13 1460.43 1455.61 1450.64 1445.53 1440.24 1434.76 1429.07 1423.15 1416.98 1410.52 1403.77 1396.69 1389.26 1381.46 1373.27 1364.64 1355.56 1345.97 1335.82 1325.03 1313.48 1300.99 1287.29 1271.95 1254.30 1233.32 1207.53 1174.81 1132.57 1078.58 1013.74 947.45 900.88 896.03 934.01 994.57 1056.77 1110.14 1152.31 1184.31 1207.99 1225.00 1236.62 1243.78 1247.11 1247.05 1243.89 1237.80 1228.91 1217.28 1202.93 1185.84 1165.94 1143.13 1117.20 1087.95 1055.18 1018.89 979.47 937.87 896.27 860.00 839.81 843.78 863.17 886.36 910.52 936.04 962.94 990.72 1018.72
1608.24 1609.96 1611.69 1613.40 1615.07 1616.69 1618.22 1619.63 1620.92 1622.09 1623.18 1624.32 1625.59 1626.99 1628.25 1628.92 1628.50 1626.67 1623.37 1618.82 1613.35 1607.33 1601.07 1594.82 1588.75 1582.94 1577.45 1572.29 1567.47 1562.95 1558.71 1554.73 1550.96 1547.39 1543.98 1540.70 1537.52 1534.41 1531.35 1528.30 1525.25 1522.16 1519.01 1515.79 1512.48 1509.07 1505.55 1501.91 1498.15 1494.26 1490.23 1486.07 1481.75 1477.26 1472.60 1467.74 1462.67 1457.37 1451.81 1445.98 1439.85 1433.39 1426.58 1419.39 1411.81 1403.80 1395.33 1386.40 1376.96 1367.00 1356.49 1345.40 1333.69 1321.29 1308.12 1294.03 1278.80 1262.01 1242.97 1220.44 1192.33 1155.17 1103.44 1029.44 926.39 801.99 702.70 696.29 783.80 901.44 1004.28 1081.95 1138.08 1178.29 1207.06 1227.47 1241.53 1250.56 1255.43 1256.71 1254.80 1249.97 1242.42 1232.33 1219.86 1205.19 1188.46 1169.78 1149.10 1126.15 1100.46 1071.44 1038.81 1003.15 966.86 935.48 917.03 916.49 930.58 951.86 975.30 999.10 1022.90 1046.60 1070.09
1615.92 1617.74 1619.50 1621.17 1622.71 1624.08 1625.23 1626.11 1626.67 1626.89 1626.92 1627.26 1629.00 1632.96 1638.51 1643.79 1646.87 1646.69 1643.33 1637.58 1630.41 1622.62 1614.78 1607.22 1600.11 1593.52 1587.46 1581.90 1576.80 1572.10 1567.75 1563.71 1559.92 1556.36 1552.97 1549.73 1546.60 1543.55 1540.55 1537.59 1534.63 1531.66 1528.65 1525.59 1522.45 1519.23 1515.91 1512.47 1508.90 1505.19 1501.32 1497.27 1493.04 1488.58 1483.90 1478.96 1473.74 1468.21 1462.35 1456.13 1449.52 1442.48 1434.99 1427.02 1418.53 1409.51 1399.91 1389.72 1378.91 1367.46 1355.34 1342.54 1329.03 1314.79 1299.77 1283.96 1267.26 1249.56 1230.51 1209.42 1184.81 1153.96 1112.26 1053.04 970.24 869.67 788.73 781.89 851.39 947.96 1035.10 1103.01 1153.57 1190.80 1218.12 1237.98 1252.00 1261.29 1266.60 1268.42 1267.09 1262.87 1255.96 1246.55 1234.87 1221.28 1206.22 1190.29 1174.05 1157.74 1141.01 1122.97 1102.84 1080.78 1058.52 1039.24 1026.52 1022.51 1026.90 1037.55 1052.07 1068.71 1086.45 1104.73 1123.19
1623.38 1625.27 1627.00 1628.49 1629.69 1630.51 1630.86 1630.66 1629.79 1628.09 1625.22 1620.55 1619.36 1630.50 1648.52 1666.49 1676.87 1677.32 1670.59 1660.34 1649.03 1637.95 1627.67 1618.38 1610.07 1602.68 1596.09 1590.19 1584.89 1580.09 1575.72 1571.69 1567.95 1564.46 1561.15 1558.01 1554.98 1552.04 1549.16 1546.32 1543.50 1540.67 1537.82 1534.91 1531.95 1528.90 1525.75 1522.48 1519.07 1515.50 1511.75 1507.80 1503.62 1499.18 1494.46 1489.43 1484.05 1478.30 1472.13 1465.51 1458.41 1450.78 1442.58 1433.78 1424.34 1414.23 1403.40 1391.83 1379.49 1366.36 1352.40 1337.61 1321.95 1305.39 1287.93 1269.57 1250.42 1230.70 1210.81 1191.17 1171.91 1152.39 1130.94 1105.26 1074.21 1041.30 1017.36 1015.25 1037.80 1075.79 1117.76 1156.70 1189.91 1217.01 1238.49 1254.99 1267.14 1275.44 1280.27 1281.89 1280.51 1276.23 1269.13 1259.23 1246.62 1231.47 1214.31 1196.27 1179.28 1165.67 1156.66 1150.89 1145.43 1138.28 1129.55 1120.90 1114.32 1111.31 1112.44 1117.43 1125.56 1136.01 1148.06 1161.17 1174.92
1631.12 1633.19 1634.99 1636.37 1637.22 1637.41 1636.83 1635.41 1633.10 1629.99 1626.44 1622.59 1622.41 1641.92 1689.04 1740.03 1750.67 1732.16 1707.62 1685.30 1666.52 1650.94 1637.96 1627.05 1617.78 1609.83 1602.95 1596.92 1591.59 1586.82 1582.52 1578.59 1574.97 1571.60 1568.43 1565.41 1562.52 1559.72 1556.99 1554.29 1551.62 1548.95 1546.26 1543.52 1540.73 1537.85 1534.87 1531.77 1528.52 1525.10 1521.49 1517.64 1513.53 1509.13 1504.40 1499.31 1493.80 1487.85 1481.40 1474.42 1466.84 1458.63 1449.74 1440.11 1429.69 1418.44 1406.31 1393.27 1379.26 1364.26 1348.24 1331.17 1312.99 1293.63 1272.93 1250.73 1226.90 1201.66 1176.00 1152.13 1132.97 1120.42 1113.95 1111.49 1111.21 1112.59 1116.71 1125.51 1140.09 1159.64 1182.01 1204.85 1226.37 1245.50 1261.70 1274.80 1284.78 1291.70 1295.66 1296.73 1294.94 1290.25 1282.53 1271.55 1256.88 1237.99 1214.45 1186.72 1158.02 1136.15 1129.93 1138.98 1153.32 1164.61 1170.81 1173.34 1174.30 1175.37 1177.62 1181.51 1187.14 1194.33 1202.81 1212.29 1222.52
1639.73 1642.40 1644.73 1646.50 1647.47 1647.45 1646.29 1644.00 1640.74 1636.83 1632.93 1631.51 1640.28 1674.64 1752.34 1823.27 1812.29 1767.10 1727.06 1696.98 1674.39 1656.94 1643.09 1631.81 1622.46 1614.57 1607.82 1601.97 1596.83 1592.26 1588.14 1584.40 1580.96 1577.75 1574.74 1571.88 1569.14 1566.49 1563.90 1561.36 1558.85 1556.33 1553.81 1551.24 1548.63 1545.94 1543.15 1540.24 1537.18 1533.94 1530.49 1526.79 1522.81 1518.50 1513.82 1508.72 1503.16 1497.08 1490.42 1483.14 1475.16 1466.43 1456.89 1446.47 1435.10 1422.73 1409.28 1394.71 1378.95 1361.97 1343.72 1324.20 1303.35 1281.06 1257.05 1230.64 1200.60 1165.30 1123.93 1080.30 1047.19 1037.53 1045.57 1060.60 1080.80 1104.49 1128.80 1152.26 1174.68 1196.24 1216.91 1236.40 1254.26 1270.12 1283.66 1294.70 1303.14 1308.93 1312.06 1312.54 1310.32 1305.32 1297.35 1286.05 1270.77 1250.53 1224.00 1190.42 1152.53 1121.55 1113.95 1131.80 1159.20 1182.88 1199.38 1210.04 1217.05 1222.22 1226.77 1231.47 1236.71 1242.67 1249.38 1256.76 1264.72
1649.72 1653.82 1657.75 1661.21 1663.77 1664.98 1664.46 1662.18 1658.70 1655.21 1653.51 1655.92 1665.45 1684.89 1712.28 1734.66 1737.98 1724.48 1704.71 1685.30 1668.40 1654.22 1642.40 1632.50 1624.14 1617.01 1610.85 1605.48 1600.74 1596.50 1592.67 1589.17 1585.94 1582.93 1580.08 1577.38 1574.78 1572.27 1569.83 1567.43 1565.05 1562.70 1560.33 1557.95 1555.52 1553.03 1550.46 1547.77 1544.94 1541.93 1538.71 1535.24 1531.46 1527.33 1522.79 1517.80 1512.28 1506.18 1499.42 1491.95 1483.68 1474.55 1464.47 1453.37 1441.16 1427.76 1413.08 1397.04 1379.54 1360.54 1339.97 1317.86 1294.26 1269.32 1243.07 1215.06 1183.34 1142.88 1084.36 998.66 910.35 919.11 954.37 967.75 1011.69 1063.73 1110.57 1150.37 1183.95 1212.46 1236.89 1257.94 1276.02 1291.35 1304.03 1314.12 1321.63 1326.58 1329.00 1328.90 1326.29 1321.15 1313.45 1303.07 1289.82 1273.36 1253.40 1230.20 1206.09 1187.12 1180.78 1188.47 1203.98 1220.39 1234.33 1245.25 1253.71 1260.51 1266.36 1271.81 1277.23 1282.83 1288.75 1295.02 1301.63
1660.96 1667.66 1674.99 1682.70 1690.24 1696.58 1700.25 1699.83 1695.14 1687.97 1681.27 1677.46 1677.58 1681.26 1686.63 1690.65 1690.56 1685.65 1677.21 1667.12 1656.83 1647.16 1638.41 1630.65 1623.83 1617.82 1612.52 1607.80 1603.57 1599.74 1596.25 1593.02 1590.00 1587.17 1584.48 1581.91 1579.43 1577.02 1574.68 1572.39 1570.14 1567.91 1565.69 1563.48 1561.24 1558.97 1556.64 1554.22 1551.68 1548.97 1546.06 1542.90 1539.44 1535.60 1531.34 1526.58 1521.26 1515.28 1508.59 1501.09 1492.71 1483.34 1472.91 1461.32 1448.47 1434.26 1418.58 1401.30 1382.31 1361.45 1338.62 1313.74 1286.92 1258.56 1229.58 1201.54 1175.88 1150.73 1116.20 1062.27 1005.39 969.86 925.56 924.76 983.77 1048.49 1106.50 1155.28 1195.43 1228.42 1255.64 1278.18 1296.83 1312.10 1324.34 1333.76 1340.49 1344.63 1346.22 1345.35 1342.05 1336.43 1328.58 1318.66 1306.96 1293.96 1280.45 1267.55 1256.62 1249.18 1246.45 1248.67 1254.71 1262.80 1271.41 1279.64 1287.13 1293.88 1300.04 1305.82 1311.39 1316.91 1322.49 1328.18 1334.03
1671.83 1682.00 1694.43 1709.54 1727.42 1746.89 1764.13 1772.08 1764.93 1745.33 1722.65 1704.03 1691.37 1683.59 1678.80 1675.16 1671.29 1666.47 1660.62 1654.05 1647.22 1640.49 1634.10 1628.19 1622.79 1617.88 1613.43 1609.37 1605.66 1602.24 1599.05 1596.06 1593.23 1590.54 1587.95 1585.46 1583.04 1580.69 1578.39 1576.16 1573.97 1571.82 1569.72 1567.65 1565.60 1563.55 1561.49 1559.38 1557.19 1554.87 1552.38 1549.66 1546.64 1543.26 1539.43 1535.09 1530.13 1524.49 1518.05 1510.74 1502.46 1493.10 1482.57 1470.76 1457.58 1442.90 1426.63 1408.61 1388.70 1366.68 1342.29 1315.21 1285.14 1252.05 1216.70 1181.52 1151.29 1136.71 1140.83 1127.24 1083.77 1002.17 897.95 919.04 1008.69 1080.13 1137.14 1183.94 1222.54 1254.43 1280.81 1302.58 1320.42 1334.83 1346.13 1354.54 1360.21 1363.23 1363.67 1361.57 1357.01 1350.04 1340.70 1328.98 1314.90 1298.78 1281.99 1267.60 1259.42 1259.03 1264.46 1272.69 1281.77 1290.86 1299.60 1307.82 1315.44 1322.48 1329.00 1335.10 1340.90 1346.50 1351.98 1357.41 1362.83
1679.21 1691.96 1708.51 1730.25 1758.59 1793.57 1829.87 1852.18 1843.10 1806.34 1763.47 1728.79 1704.60 1688.46 1677.49 1669.50 1663.05 1657.28 1651.75 1646.31 1640.97 1635.80 1630.86 1626.21 1621.87 1617.83 1614.07 1610.57 1607.29 1604.20 1601.26 1598.44 1595.73 1593.10 1590.54 1588.04 1585.60 1583.20 1580.87 1578.59 1576.38 1574.25 1572.19 1570.21 1568.31 1566.48 1564.70 1562.95 1561.18 1559.35 1557.40 1555.27 1552.87 1550.13 1546.94 1543.23 1538.88 1533.79 1527.87 1521.00 1513.09 1504.01 1493.68 1481.99 1468.83 1454.13 1437.77 1419.69 1399.76 1377.85 1353.70 1326.87 1296.67 1262.29 1223.53 1182.84 1148.77 1137.78 1150.18 1159.03 1150.78 1124.41 1096.16 1095.31 1123.85 1162.61 1200.72 1235.17 1265.41 1291.53 1313.81 1332.56 1348.05 1360.52 1370.13 1376.98 1381.15 1382.67 1381.54 1377.80 1371.49 1362.69 1351.37 1337.09 1318.37 1292.17 1255.70 1215.56 1196.37 1211.38 1240.97 1268.06 1289.14 1305.42 1318.46 1329.31 1338.63 1346.83 1354.17 1360.87 1367.06 1372.87 1378.41 1383.74 1388.94
1680.41 1692.88 1708.92 1729.65 1755.91 1786.91 1817.20 1834.52 1826.95 1797.32 1760.76 1728.75 1704.56 1687.19 1674.68 1665.36 1658.05 1651.95 1646.59 1641.71 1637.15 1632.87 1628.82 1625.00 1621.39 1617.97 1614.73 1611.64 1608.67 1605.81 1603.02 1600.29 1597.60 1594.93 1592.29 1589.67 1587.08 1584.52 1582.00 1579.55 1577.19 1574.93 1572.80 1570.82 1569.01 1567.35 1565.85 1564.49 1563.22 1562.00 1560.75 1559.39 1557.82 1555.95 1553.66 1550.84 1547.37 1543.13 1538.01 1531.88 1524.64 1516.18 1506.38 1495.15 1482.40 1468.06 1452.09 1434.47 1415.26 1394.53 1372.38 1348.86 1323.66 1295.70 1263.12 1225.70 1189.72 1170.69 1170.24 1180.53 1194.65 1204.37 1210.54 1218.64 1232.29 1251.07 1272.58 1294.57 1315.62 1334.90 1352.01 1366.77 1379.10 1388.97 1396.37 1401.27 1403.61 1403.34 1400.41 1394.81 1386.68 1376.40 1364.69 1352.49 1339.46 1318.93 1271.14 1183.04 1131.56 1181.09 1235.98 1273.31 1299.77 1319.81 1335.71 1348.73 1359.66 1369.05 1377.25 1384.55 1391.14 1397.19 1402.82 1408.11 1413.15
1675.86 1685.54 1697.25 1711.17 1726.94 1743.08 1756.38 1762.35 1757.87 1744.09 1725.67 1707.22 1691.24 1678.31 1668.09 1659.97 1653.37 1647.83 1643.02 1638.73 1634.80 1631.16 1627.74 1624.50 1621.40 1618.42 1615.54 1612.73 1609.96 1607.22 1604.48 1601.72 1598.95 1596.13 1593.28 1590.40 1587.50 1584.59 1581.71 1578.89 1576.16 1573.58 1571.19 1569.04 1567.17 1565.59 1564.34 1563.38 1562.70 1562.22 1561.86 1561.52 1561.07 1560.37 1559.29 1557.68 1555.41 1552.35 1548.36 1543.32 1537.10 1529.60 1520.69 1510.29 1498.31 1484.69 1469.39 1452.46 1434.01 1414.30 1393.80 1373.24 1353.76 1336.60 1319.09 1287.56 1230.14 1152.56 1128.61 1167.82 1216.30 1249.26 1271.57 1288.71 1304.13 1319.45 1335.04 1350.58 1365.58 1379.58 1392.20 1403.18 1412.34 1419.52 1424.60 1427.45 1427.92 1425.89 1421.22 1413.88 1404.02 1392.28 1380.21 1371.09 1370.59 1381.76 1367.41 1319.64 1309.56 1295.34 1296.91 1310.01 1326.55 1342.85 1357.61 1370.55 1381.79 1391.56 1400.11 1407.67 1414.43 1420.54 1426.14 1431.32 1436.18
1668.54 1674.95 1682.10 1689.79 1697.50 1704.36 1709.11 1710.52 1707.95 1701.82 1693.38 1684.11 1675.12 1667.03 1659.99 1653.97 1648.80 1644.29 1640.31 1636.71 1633.41 1630.32 1627.40 1624.60 1621.89 1619.23 1616.59 1613.95 1611.29 1608.58 1605.79 1602.92 1599.94 1596.85 1593.65 1590.33 1586.92 1583.45 1579.95 1576.47 1573.08 1569.85 1566.88 1564.26 1562.07 1560.39 1559.27 1558.71 1558.71 1559.17 1559.98 1560.99 1562.03 1562.90 1563.44 1563.45 1562.78 1561.27 1558.78 1555.18 1550.36 1544.19 1536.58 1527.42 1516.62 1504.11 1489.84 1473.79 1456.01 1436.65 1416.07 1394.90 1374.12 1354.48 1342.24 1347.27 1328.34 1287.43 1262.17 1268.55 1289.79 1312.50 1332.36 1349.24 1364.04 1377.53 1390.17 1402.10 1413.26 1423.50 1432.63 1440.47 1446.85 1451.61 1454.57 1455.59 1454.48 1451.07 1445.20 1436.78 1425.90 1412.99 1399.14 1386.28 1376.62 1369.26 1355.49 1336.22 1329.13 1331.00 1337.14 1347.02 1359.25 1372.17 1384.68 1396.22 1406.61 1415.84 1424.03 1431.32 1437.85 1443.73 1449.08 1454.00 1458.56
1661.24 1665.14 1669.16 1673.11 1676.69 1679.49 1681.09 1681.15 1679.55 1676.45 1672.23 1667.38 1662.36 1657.47 1652.91 1648.74 1644.97 1641.54 1638.40 1635.49 1632.77 1630.18 1627.69 1625.25 1622.84 1620.42 1617.96 1615.43 1612.81 1610.06 1607.16 1604.09 1600.82 1597.34 1593.63 1589.70 1585.56 1581.23 1576.76 1572.23 1567.72 1563.36 1559.29 1555.68 1552.70 1550.52 1549.28 1549.06 1549.86 1551.56 1553.98 1556.88 1559.99 1563.01 1565.71 1567.85 1569.23 1569.70 1569.11 1567.34 1564.28 1559.84 1553.92 1546.45 1537.34 1526.52 1513.92 1499.47 1483.13 1464.85 1444.67 1422.80 1399.92 1377.57 1360.92 1370.96 1375.18 1373.43 1370.34 1371.26 1377.78 1387.97 1399.55 1411.14 1422.18 1432.51 1442.12 1451.01 1459.14 1466.43 1472.78 1478.06 1482.13 1484.86 1486.09 1485.68 1483.46 1479.29 1473.02 1464.60 1454.10 1441.81 1428.36 1414.72 1401.92 1390.52 1380.64 1373.14 1369.90 1371.66 1377.45 1385.84 1395.60 1405.82 1415.90 1425.43 1434.23 1442.24 1449.48 1456.00 1461.89 1467.22 1472.09 1476.55 1480.67
1655.30 1657.60 1659.82 1661.83 1663.48 1664.62 1665.09 1664.80 1663.72 1661.92 1659.55 1656.79 1653.82 1650.80 1647.84 1645.00 1642.30 1639.75 1637.34 1635.05 1632.84 1630.68 1628.56 1626.43 1624.27 1622.05 1619.73 1617.29 1614.68 1611.88 1608.84 1605.54 1601.92 1597.96 1593.63 1588.91 1583.79 1578.29 1572.44 1566.32 1560.05 1553.78 1547.74 1542.21 1537.51 1534.02 1532.11 1532.01 1533.81 1537.34 1542.22 1547.99 1554.13 1560.20 1565.83 1570.73 1574.71 1577.59 1579.28 1579.68 1578.72 1576.34 1572.49 1567.13 1560.22 1551.72 1541.63 1529.92 1516.63 1501.79 1485.49 1467.88 1449.16 1429.99 1415.58 1418.24 1429.20 1436.78 1441.75 1446.12 1451.15 1457.20 1464.04 1471.25 1478.47 1485.46 1492.05 1498.14 1503.63 1508.44 1512.48 1515.65 1517.84 1518.95 1518.85 1517.42 1514.56 1510.15 1504.14 1496.52 1487.40 1477.01 1465.82 1454.45 1443.63 1434.09 1426.50 1421.41 1419.24 1420.06 1423.48 1428.84 1435.42 1442.61 1449.95 1457.13 1463.96 1470.34 1476.23 1481.64 1486.59 1491.13 1495.28 1499.11 1502.66
1651.00 1652.36 1653.59 1654.62 1655.40 1655.85 1655.91 1655.56 1654.80 1653.66 1652.20 1650.50 1648.64 1646.69 1644.72 1642.76 1640.83 1638.96 1637.13 1635.33 1633.55 1631.78 1629.98 1628.13 1626.21 1624.19 1622.02 1619.68 1617.11 1614.29 1611.15 1607.64 1603.70 1599.26 1594.26 1588.64 1582.35 1575.34 1567.63 1559.25 1550.32 1541.00 1531.57 1522.41 1514.09 1507.40 1503.34 1502.78 1506.08 1512.88 1522.18 1532.83 1543.80 1554.33 1563.95 1572.39 1579.49 1585.19 1589.46 1592.27 1593.63 1593.53 1591.99 1589.02 1584.63 1578.88 1571.84 1563.64 1554.48 1544.72 1535.00 1526.55 1522.07 1527.96 1556.08 1576.35 1541.76 1521.11 1514.71 1513.83 1515.45 1518.48 1522.34 1526.66 1531.11 1535.47 1539.59 1543.34 1546.63 1549.39 1551.54 1552.99 1553.67 1553.49 1552.38 1550.25 1547.04 1542.70 1537.21 1530.62 1523.04 1514.69 1505.87 1497.02 1488.62 1481.18 1475.14 1470.84 1468.48 1468.05 1469.35 1472.06 1475.81 1480.21 1484.98 1489.85 1494.66 1499.31 1503.71 1507.85 1511.70 1515.28 1518.60 1521.68 1524.55
1648.12 1648.94 1649.64 1650.19 1650.57 1650.73 1650.66 1650.35 1649.80 1649.04 1648.09 1646.99 1645.77 1644.48 1643.13 1641.77 1640.40 1639.02 1637.64 1636.26 1634.85 1633.41 1631.92 1630.36 1628.69 1626.88 1624.91 1622.73 1620.30 1617.55 1614.43 1610.85 1606.72 1601.93 1596.37 1589.90 1582.37 1573.64 1563.60 1552.18 1539.43 1525.48 1510.52 1494.80 1478.76 1463.74 1452.71 1449.53 1456.21 1471.06 1490.28 1510.42 1529.46 1546.51 1561.33 1573.95 1584.53 1593.21 1600.13 1605.40 1609.12 1611.34 1612.16 1611.62 1609.82 1606.86 1602.86 1598.04 1592.67 1587.16 1582.13 1578.41 1577.03 1578.77 1582.76 1585.26 1582.08 1574.30 1567.91 1565.46 1566.30 1568.95 1572.30 1575.73 1578.94 1581.81 1584.28 1586.34 1587.95 1589.08 1589.70 1589.77 1589.24 1588.05 1586.16 1583.52 1580.10 1575.89 1570.90 1565.18 1558.85 1552.07 1545.05 1538.07 1531.44 1525.45 1520.39 1516.46 1513.78 1512.36 1512.12 1512.90 1514.50 1516.72 1519.35 1522.24 1525.25 1528.27 1531.23 1534.09 1536.82 1539.40 1541.84 1544.12 1546.27
1646.34 1646.85 1647.27 1647.58 1647.77 1647.82 1647.72 1647.48 1647.10 1646.59 1645.96 1645.23 1644.42 1643.55 1642.64 1641.70 1640.73 1639.74 1638.73 1637.70 1636.63 1635.51 1634.32 1633.05 1631.67 1630.15 1628.46 1626.55 1624.38 1621.89 1618.99 1615.59 1611.57 1606.78 1601.02 1594.04 1585.55 1575.20 1562.58 1547.33 1529.21 1508.31 1485.03 1459.17 1428.31 1389.38 1349.08 1332.08 1354.70 1399.69 1445.52 1484.31 1515.59 1540.72 1561.10 1577.78 1591.54 1602.88 1612.16 1619.64 1625.50 1629.89 1632.90 1634.66 1635.27 1634.84 1633.51 1631.45 1628.85 1625.96 1623.10 1620.67 1619.32 1620.32 1627.24 1645.03 1626.64 1592.91 1577.82 1583.35 1595.25 1605.71 1613.38 1618.72 1622.36 1624.79 1626.34 1627.23 1627.56 1627.42 1626.81 1625.76 1624.24 1622.23 1619.70 1616.64 1613.04 1608.90 1604.24 1599.13 1593.64 1587.90 1582.04 1576.25 1570.71 1565.61 1561.12 1557.36 1554.41 1552.30 1550.99 1550.43 1550.51 1551.10 1552.11 1553.41 1554.91 1556.54 1558.22 1559.91 1561.58 1563.20 1564.76 1566.25 1567.67
1645.35 1645.68 1645.95 1646.14 1646.24 1646.26 1646.18 1646.02 1645.76 1645.42 1645.02 1644.55 1644.02 1643.46 1642.86 1642.24 1641.59 1640.92 1640.23 1639.51 1638.75 1637.95 1637.09 1636.15 1635.11 1633.95 1632.63 1631.13 1629.40 1627.38 1625.00 1622.15 1618.71 1614.49 1609.23 1602.58 1594.05 1582.97 1568.43 1549.12 1523.43 1489.94 1450.09 1411.80 1373.62 1289.59 1113.03 993.28 1166.89 1321.37 1414.36 1473.51 1514.39 1544.62 1568.12 1587.03 1602.60 1615.61 1626.52 1635.66 1643.24 1649.43 1654.36 1658.14 1660.87 1662.65 1663.60 1663.78 1663.24 1661.99 1659.91 1656.76 1652.17 1645.84 1637.88 1630.74 1610.30 1446.11 1456.39 1561.10 1613.24 1638.97 1652.63 1660.11 1664.12 1666.08 1666.74 1666.55 1665.75 1664.49 1662.83 1660.82 1658.45 1655.73 1652.65 1649.20 1645.38 1641.22 1636.72 1631.94 1626.93 1621.79 1616.61 1611.49 1606.57 1601.94 1597.73 1594.00 1590.82 1588.21 1586.17 1584.66 1583.65 1583.07 1582.85 1582.92 1583.22 1583.69 1584.28 1584.95 1585.67 1586.41 1587.16 1587.90 1588.62
1644.90 1645.13 1645.31 1645.43 1645.50 1645.52 1645.47 1645.37 1645.22 1645.01 1644.77 1644.49 1644.18 1643.85 1643.49 1643.13 1642.75 1642.35 1641.95 1641.52 1641.07 1640.59 1640.07 1639.50 1638.85 1638.12 1637.29 1636.33 1635.21 1633.90 1632.34 1630.46 1628.17 1625.29 1621.57 1616.59 1609.72 1600.01 1586.22 1566.37 1535.68 1485.05 1386.42 1215.65 1271.09 1347.29 1254.34 1214.80 1301.65 1391.39 1456.86 1503.21 1537.48 1564.10 1585.66 1603.67 1619.04 1632.34 1643.91 1654.00 1662.76 1670.32 1676.78 1682.24 1686.79 1690.52 1693.50 1695.79 1697.35 1698.06 1697.57 1695.25 1689.95 1679.75 1661.78 1643.56 1646.29 1628.50 1627.53 1652.83 1677.10 1692.59 1701.25 1705.59 1707.29 1707.38 1706.45 1704.86 1702.81 1700.43 1697.77 1694.87 1691.74 1688.37 1684.77 1680.93 1676.86 1672.57 1668.07 1663.41 1658.62 1653.76 1648.90 1644.12 1639.48 1635.06 1630.92 1627.13 1623.72 1620.72 1618.13 1615.94 1614.14 1612.68 1611.53 1610.65 1610.00 1609.53 1609.21 1609.01 1608.91 1608.87 1608.88 1608.93 1609.00
1644.79 1644.95 1645.07 1645.16 1645.22 1645.24 1645.22 1645.17 1645.10 1645.00 1644.88 1644.74 1644.59 1644.44 1644.29 1644.14 1643.99 1643.84 1643.70 1643.56 1643.41 1643.26 1643.10 1642.92 1642.71 1642.46 1642.18 1641.85 1641.47 1641.03 1640.52 1639.93 1639.25 1638.43 1637.36 1635.81 1633.10 1627.41 1614.92 1595.38 1582.48 1564.27 1511.67 1409.55 1366.27 1521.76 1490.77 1491.15 1499.40 1516.32 1537.17 1558.16 1577.77 1595.68 1611.98 1626.88 1640.52 1653.03 1664.46 1674.88 1684.32 1692.82 1700.43 1707.22 1713.26 1718.66 1723.52 1727.92 1731.94 1735.58 1738.74 1741.18 1742.46 1742.06 1740.09 1737.13 1714.82 1645.79 1721.50 1752.73 1757.61 1757.48 1756.04 1753.97 1751.45 1748.60 1745.50 1742.21 1738.80 1735.27 1731.63 1727.90 1724.05 1720.07 1715.97 1711.73 1707.35 1702.85 1698.23 1693.52 1688.75 1683.97 1679.20 1674.51 1669.94 1665.54 1661.36 1657.43 1653.78 1650.44 1647.40 1644.68 1642.26 1640.13 1638.26 1636.63 1635.22 1633.99 1632.92 1631.99 1631.17 1630.45 1629.81 1629.24 1628.72
1644.87 1644.98 1645.06 1645.12 1645.16 1645.18 1645.18 1645.17 1645.14 1645.11 1645.08 1645.06 1645.04 1645.03 1645.04 1645.06 1645.12 1645.19 1645.29 1645.42 1645.57 1645.74 1645.94 1646.16 1646.40 1646.67 1646.96 1647.29 1647.68 1648.14 1648.72 1649.47 1650.47 1651.82 1653.71 1656.48 1661.14 1671.54 1706.41 1601.86 1623.73 1693.92 1751.53 1600.39 1615.19 1708.59 1620.98 1603.12 1598.99 1599.76 1604.16 1611.41 1620.64 1631.15 1642.40 1653.97 1665.56 1676.93 1687.90 1698.34 1708.13 1717.23 1725.63 1733.37 1740.52 1747.20 1753.57 1759.80 1766.13 1772.80 1780.14 1788.54 1798.57 1810.97 1826.40 1844.36 1863.19 1868.11 1859.05 1839.84 1825.82 1815.16 1806.76 1799.81 1793.77 1788.28 1783.15 1778.26 1773.54 1768.93 1764.39 1759.88 1755.36 1750.81 1746.21 1741.56 1736.84 1732.06 1727.23 1722.36 1717.47 1712.60 1707.77 1703.01 1698.37 1693.87 1689.54 1685.41 1681.51 1677.84 1674.42 1671.26 1668.34 1665.66 1663.22 1660.98 1658.95 1657.09 1655.39 1653.84 1652.42 1651.11 1649.90 1648.77 1647.72
1645.03 1645.09 1645.12 1645.15 1645.16 1645.17 1645.16 1645.16 1645.17 1645.18 1645.20 1645.24 1645.31 1645.41 1645.54 1645.71 1645.93 1646.20 1646.51 1646.89 1647.31 1647.80 1648.35 1648.96 1649.64 1650.40 1651.24 1652.20 1653.30 1654.57 1656.09 1657.92 1660.18 1663.00 1666.45 1670.38 1672.97 1660.45 1578.47 1841.66 1607.34 1789.06 1750.44 1732.39 1612.73 1652.37 1683.54 1678.34 1668.44 1660.75 1656.77 1656.59 1659.73 1665.56 1673.41 1682.65 1692.78 1703.35 1714.00 1724.45 1734.48 1743.98 1752.87 1761.16 1768.93 1776.32 1783.53 1790.81 1798.49 1806.94 1816.60 1827.99 1841.64 1858.04 1877.58 1900.60 1901.01 1934.64 1913.11 1889.73 1872.94 1860.37 1850.05 1841.06 1833.01 1825.70 1819.00 1812.79 1806.96 1801.41 1796.07 1790.86 1785.73 1780.64 1775.56 1770.48 1765.38 1760.26 1755.14 1750.01 1744.91 1739.84 1734.83 1729.90 1725.08 1720.38 1715.84 1711.48 1707.30 1703.32 1699.55 1695.99 1692.64 1689.51 1686.57 1683.84 1681.28 1678.90 1676.67 1674.60 1672.65 1670.83 1669.12 1667.51 1665.99
1645.19 1645.18 1645.16 1645.13 1645.10 1645.07 1645.04 1645.02 1645.01 1645.02 1645.06 1645.13 1645.25 1645.40 1645.62 1645.89 1646.23 1646.65 1647.15 1647.73 1648.40 1649.16 1650.03 1651.00 1652.08 1653.29 1654.64 1656.14 1657.84 1659.76 1661.98 1664.58 1667.64 1671.29 1675.63 1680.73 1686.67 1695.11 1716.02 1765.23 1823.42 1789.24 1817.84 1851.09 1864.99 1833.93 1782.53 1757.09 1730.48 1710.98 1699.35 1694.11 1693.83 1697.33 1703.64 1711.99 1721.69 1732.19 1742.99 1753.73 1764.09 1773.88 1782.99 1791.42 1799.25 1806.65 1813.86 1821.16 1828.90 1837.45 1847.13 1858.21 1870.59 1883.32 1892.52 1887.90 1905.72 1929.11 1929.46 1922.87 1913.72 1902.84 1891.43 1880.45 1870.39 1861.36 1853.25 1845.90 1839.15 1832.82 1826.80 1820.98 1815.29 1809.68 1804.11 1798.58 1793.05 1787.55 1782.06 1776.61 1771.20 1765.84 1760.56 1755.38 1750.30 1745.35 1740.55 1735.91 1731.43 1727.14 1723.03 1719.11 1715.38 1711.85 1708.50 1705.33 1702.33 1699.50 1696.82 1694.29 1691.89 1689.62 1687.47 1685.43 1683.49
1645.28 1645.19 1645.10 1645.00 1644.89 1644.79 1644.70 1644.62 1644.56 1644.53 1644.53 1644.58 1644.68 1644.84 1645.08 1645.40 1645.81 1646.32 1646.94 1647.67 1648.54 1649.53 1650.67 1651.95 1653.39 1654.99 1656.76 1658.73 1660.91 1663.34 1666.06 1669.15 1672.67 1676.74 1681.52 1687.27 1694.41 1703.64 1715.43 1728.76 1740.64 1750.85 1763.93 1782.09 1812.86 1921.00 2032.73 1858.75 1780.16 1746.25 1730.10 1723.40 1722.78 1726.45 1733.25 1742.29 1752.82 1764.21 1775.90 1787.41 1798.34 1808.44 1817.55 1825.67 1832.93 1839.54 1845.82 1852.12 1858.82 1866.29 1874.84 1884.67 1895.71 1907.38 1918.65 1931.79 1958.39 1993.89 2011.21 2001.40 1978.99 1955.81 1935.86 1919.55 1906.28 1895.29 1885.93 1877.72 1870.30 1863.39 1856.82 1850.46 1844.24 1838.11 1832.03 1825.99 1819.98 1814.02 1808.10 1802.24 1796.44 1790.73 1785.11 1779.60 1774.21 1768.96 1763.85 1758.90 1754.12 1749.51 1745.07 1740.82 1736.74 1732.84 1729.12 1725.57 1722.19 1718.96 1715.89 1712.96 1710.18 1707.52 1704.98 1702.56 1700.24
1645.26 1645.07 1644.87 1644.67 1644.46 1644.25 1644.05 1643.87 1643.70 1643.57 1643.48 1643.43 1643.45 1643.55 1643.73 1644.01 1644.41 1644.94 1645.60 1646.42 1647.40 1648.56 1649.90 1651.43 1653.15 1655.08 1657.21 1659.57 1662.15 1664.98 1668.08 1671.49 1675.25 1679.43 1684.09 1689.36 1695.32 1702.02 1709.40 1717.23 1725.35 1734.07 1744.20 1757.03 1774.29 1794.31 1802.39 1788.80 1768.95 1754.42 1746.83 1745.05 1747.86 1754.30 1763.55 1774.88 1787.62 1801.10 1814.66 1827.71 1839.70 1850.25 1859.15 1866.39 1872.22 1877.01 1881.26 1885.48 1890.16 1895.75 1902.67 1911.39 1922.55 1937.29 1958.05 1989.36 2035.49 2086.28 2103.89 2077.22 2034.92 1998.56 1971.83 1952.46 1937.93 1926.46 1916.89 1908.48 1900.79 1893.53 1886.51 1879.64 1872.86 1866.14 1859.46 1852.84 1846.26 1839.75 1833.31 1826.96 1820.71 1814.57 1808.55 1802.66 1796.91 1791.32 1785.88 1780.61 1775.50 1770.57 1765.82 1761.24 1756.84 1752.61 1748.55 1744.66 1740.94 1737.37 1733.95 1730.68 1727.54 1724.54 1721.66 1718.90 1716.25
1645.09 1644.78 1644.45 1644.11 1643.76 1643.40 1643.05 1642.70 1642.36 1642.06 1641.79 1641.58 1641.42 1641.35 1641.38 1641.52 1641.80 1642.23 1642.83 1643.62 1644.62 1645.84 1647.28 1648.97 1650.91 1653.09 1655.52 1658.21 1661.15 1664.33 1667.77 1671.47 1675.44 1679.70 1684.25 1689.13 1694.34 1699.87 1705.70 1711.81 1718.20 1724.94 1732.11 1739.68 1747.21 1753.58 1757.33 1758.09 1757.37 1757.34 1759.52 1764.56 1772.57 1783.34 1796.51 1811.61 1828.07 1845.18 1862.17 1878.17 1892.29 1903.80 1912.24 1917.66 1920.56 1921.79 1922.29 1922.90 1924.31 1927.02 1931.43 1937.92 1946.98 1959.36 1976.15 1998.29 2024.79 2049.42 2060.60 2050.64 2029.11 2007.65 1990.08 1976.28 1965.16 1955.70 1947.22 1939.26 1931.56 1923.98 1916.45 1908.93 1901.44 1893.97 1886.55 1879.20 1871.93 1864.76 1857.71 1850.79 1844.00 1837.37 1830.90 1824.59 1818.46 1812.49 1806.70 1801.10 1795.67 1790.43 1785.36 1780.48 1775.77 1771.24 1766.88 1762.68 1758.65 1754.78 1751.05 1747.47 1744.03 1740.72 1737.54 1734.48 1731.53
1644.78 1644.32 1643.83 1643.31 1642.77 1642.21 1641.64 1641.06 1640.49 1639.92 1639.39 1638.89 1638.45 1638.09 1637.82 1637.68 1637.69 1637.87 1638.25 1638.86 1639.72 1640.86 1642.29 1644.02 1646.07 1648.43 1651.10 1654.07 1657.34 1660.89 1664.70 1668.76 1673.06 1677.58 1682.31 1687.24 1692.35 1697.64 1703.09 1708.70 1714.47 1720.38 1726.42 1732.51 1738.50 1744.23 1749.62 1754.89 1760.56 1767.31 1775.78 1786.46 1799.59 1815.27 1833.37 1853.64 1875.62 1898.66 1921.81 1943.75 1962.79 1977.02 1984.97 1986.53 1983.14 1977.11 1970.59 1965.10 1961.54 1960.28 1961.44 1964.98 1970.78 1978.70 1988.48 1999.52 2010.59 2019.66 2024.58 2024.52 2020.65 2014.85 2008.36 2001.64 1994.70 1987.50 1979.96 1972.11 1963.99 1955.67 1947.21 1938.68 1930.16 1921.68 1913.29 1905.03 1896.92 1888.97 1881.21 1873.64 1866.28 1859.11 1852.15 1845.40 1838.85 1832.50 1826.36 1820.42 1814.68 1809.13 1803.77 1798.60 1793.61 1788.80 1784.16 1779.70 1775.39 1771.24 1767.24 1763.39 1759.68 1756.10 1752.65 1749.33 1746.12
1644.34 1643.70 1643.01 1642.27 1641.50 1640.68 1639.83 1638.95 1638.04 1637.12 1636.20 1635.29 1634.42 1633.60 1632.87 1632.25 1631.77 1631.48 1631.42 1631.63 1632.15 1633.00 1634.23 1635.86 1637.88 1640.32 1643.15 1646.38 1649.98 1653.92 1658.19 1662.75 1667.57 1672.63 1677.88 1683.32 1688.90 1694.63 1700.48 1706.46 1712.58 1718.84 1725.27 1731.90 1738.76 1745.95 1753.63 1762.05 1771.56 1782.58 1795.52 1810.77 1828.65 1849.38 1873.10 1899.78 1929.27 1961.14 1994.71 2028.68 2060.43 2084.55 2093.70 2085.57 2066.53 2044.80 2025.37 2010.25 1999.86 1993.93 1991.93 1993.24 1997.24 2003.29 2010.75 2018.90 2026.99 2034.27 2040.12 2044.14 2046.14 2046.04 2043.85 2039.67 2033.74 2026.38 2017.94 2008.74 1999.03 1989.05 1978.95 1968.86 1958.87 1949.06 1939.46 1930.10 1921.01 1912.19 1903.65 1895.39 1887.40 1879.67 1872.21 1865.01 1858.05 1851.33 1844.85 1838.59 1832.54 1826.71 1821.08 1815.65 1810.40 1805.34 1800.46 1795.75 1791.20 1786.81 1782.57 1778.48 1774.53 1770.72 1767.03 1763.47 1760.02
1643.79 1642.94 1642.02 1641.04 1639.98 1638.85 1637.65 1636.38 1635.05 1633.66 1632.22 1630.75 1629.26 1627.78 1626.34 1624.97 1623.73 1622.66 1621.83 1621.31 1621.16 1621.45 1622.22 1623.52 1625.36 1627.76 1630.69 1634.15 1638.10 1642.50 1647.34 1652.56 1658.14 1664.03 1670.18 1676.56 1683.13 1689.86 1696.74 1703.77 1710.97 1718.37 1726.03 1734.05 1742.53 1751.63 1761.57 1772.61 1785.08 1799.33 1815.78 1834.82 1856.89 1882.38 1911.70 1945.17 1983.02 2025.29 2071.83 2123.01 2180.96 2243.98 2269.99 2224.95 2165.29 2115.33 2077.72 2051.19 2033.81 2023.78 2019.64 2020.18 2024.41 2031.54 2040.85 2051.66 2063.22 2074.73 2085.28 2093.89 2099.52 2101.32 2099.00 2092.96 2084.08 2073.30 2061.38 2048.87 2036.15 2023.46 2010.97 1998.78 1986.96 1975.54 1964.54 1953.97 1943.82 1934.09 1924.74 1915.78 1907.18 1898.92 1890.98 1883.35 1876.01 1868.95 1862.15 1855.60 1849.28 1843.20 1837.32 1831.66 1826.19 1820.91 1815.81 1810.89 1806.13 1801.53 1797.08 1792.78 1788.62 1784.60 1780.70 1776.93 1773.27
1643.19 1642.11 1640.94 1639.66 1638.28 1636.79 1635.18 1633.45 1631.60 1629.62 1627.52 1625.31 1622.99 1620.59 1618.13 1615.65 1613.23 1610.92 1608.84 1607.08 1605.77 1605.03 1604.96 1605.65 1607.12 1609.38 1612.40 1616.12 1620.50 1625.49 1631.06 1637.17 1643.79 1650.86 1658.32 1666.10 1674.15 1682.41 1690.84 1699.44 1708.23 1717.25 1726.56 1736.29 1746.56 1757.57 1769.53 1782.74 1797.50 1814.21 1833.27 1855.16 1880.37 1909.46 1943.02 1981.72 2026.30 2077.34 2134.34 2193.72 2251.19 2317.18 2370.73 2302.84 2219.54 2154.82 2108.45 2076.72 2056.35 2044.83 2040.23 2041.13 2046.53 2055.88 2068.91 2085.24 2104.01 2123.93 2143.53 2161.16 2174.03 2178.29 2172.44 2159.26 2142.57 2124.79 2107.01 2089.66 2072.92 2056.89 2041.60 2027.05 2013.25 2000.16 1987.76 1975.99 1964.83 1954.23 1944.15 1934.56 1925.41 1916.67 1908.32 1900.32 1892.66 1885.30 1878.24 1871.44 1864.90 1858.60 1852.52 1846.66 1841.01 1835.54 1830.26 1825.15 1820.22 1815.44 1810.81 1806.33 1801.99 1797.78 1793.70 1789.74 1785.90
1642.60 1641.28 1639.83 1638.25 1636.52 1634.62 1632.56 1630.30 1627.84 1625.17 1622.27 1619.13 1615.75 1612.12 1608.26 1604.21 1600.02 1595.78 1591.65 1587.79 1584.46 1581.91 1580.37 1580.04 1580.99 1583.18 1586.46 1590.70 1595.76 1601.59 1608.16 1615.48 1623.53 1632.26 1641.57 1651.34 1661.45 1671.79 1682.28 1692.89 1703.63 1714.53 1725.68 1737.19 1749.19 1761.88 1775.49 1790.31 1806.67 1824.96 1845.61 1869.08 1895.88 1926.50 1961.43 2001.20 2046.66 2099.59 2164.25 2250.66 2354.88 2380.89 2312.73 2246.21 2191.15 2144.43 2108.19 2082.01 2064.73 2054.87 2050.88 2051.21 2054.85 2062.50 2077.27 2101.20 2131.76 2164.74 2197.67 2235.03 2281.39 2300.20 2270.03 2231.60 2199.42 2172.22 2148.05 2125.94 2105.43 2086.33 2068.50 2051.86 2036.33 2021.81 2008.21 1995.46 1983.47 1972.18 1961.52 1951.44 1941.87 1932.77 1924.11 1915.84 1907.93 1900.36 1893.10 1886.12 1879.40 1872.94 1866.71 1860.70 1854.89 1849.28 1843.85 1838.59 1833.51 1828.58 1823.80 1819.16 1814.66 1810.30 1806.06 1801.94 1797.94
1642.10 1640.54 1638.82 1636.93 1634.83 1632.52 1629.97 1627.16 1624.04 1620.60 1616.78 1612.56 1607.89 1602.73 1597.05 1590.83 1584.08 1576.88 1569.38 1561.87 1554.80 1548.76 1544.44 1542.40 1542.88 1545.66 1550.18 1555.85 1562.28 1569.40 1577.34 1586.30 1596.38 1607.55 1619.62 1632.31 1645.33 1658.45 1671.54 1684.54 1697.48 1710.42 1723.44 1736.64 1750.16 1764.18 1778.94 1794.74 1811.90 1830.82 1851.93 1875.66 1902.42 1932.55 1966.12 2002.73 2041.28 2079.87 2116.51 2148.10 2163.40 2165.78 2167.73 2154.46 2133.38 2110.73 2090.27 2074.14 2063.09 2056.65 2053.21 2049.48 2039.37 2016.61 2009.61 2062.86 2118.60 2177.69 2212.99 2235.08 2375.93 2465.45 2330.04 2269.66 2232.55 2202.99 2176.69 2152.42 2129.86 2108.91 2089.49 2071.52 2054.88 2039.45 2025.12 2011.76 1999.28 1987.59 1976.59 1966.22 1956.42 1947.12 1938.28 1929.86 1921.82 1914.12 1906.74 1899.65 1892.83 1886.26 1879.92 1873.80 1867.89 1862.17 1856.63 1851.26 1846.05 1840.99 1836.09 1831.32 1826.69 1822.19 1817.81 1813.55 1809.41
1641.80 1640.01 1638.04 1635.84 1633.40 1630.70 1627.68 1624.31 1620.54 1616.31 1611.55 1606.18 1600.10 1593.19 1585.32 1576.35 1566.13 1554.55 1541.59 1527.47 1512.82 1498.94 1487.92 1482.09 1482.82 1489.31 1498.96 1509.12 1518.56 1527.52 1537.01 1548.02 1561.09 1576.18 1592.80 1610.22 1627.65 1644.56 1660.75 1676.31 1691.47 1706.41 1721.21 1735.94 1750.67 1765.57 1780.87 1796.89 1813.99 1832.56 1853.01 1875.76 1901.19 1929.61 1961.11 1995.41 2031.50 2067.16 2095.52 2087.53 2047.89 2105.86 2111.63 2100.99 2091.51 2080.74 2070.54 2062.62 2057.77 2055.75 2055.14 2052.67 2041.74 2014.29 2001.49 2032.21 1944.17 2110.93 2228.02 2236.80 2295.05 2371.83 2282.47 2256.07 2237.10 2214.84 2190.94 2167.15 2144.40 2123.09 2103.30 2085.02 2068.13 2052.51 2038.04 2024.58 2012.03 2000.28 1989.24 1978.85 1969.02 1959.70 1950.85 1942.41 1934.34 1926.62 1919.21 1912.09 1905.23 1898.61 1892.22 1886.05 1880.07 1874.27 1868.65 1863.20 1857.90 1852.75 1847.74 1842.86 1838.12 1833.50 1829.00 1824.62 1820.35
1641.78 1639.80 1637.60 1635.15 1632.42 1629.36 1625.94 1622.08 1617.73 1612.80 1607.19 1600.76 1593.34 1584.71 1574.61 1562.67 1548.40 1531.19 1510.31 1484.97 1454.74 1420.71 1387.76 1366.58 1368.85 1393.42 1424.64 1449.20 1464.47 1474.30 1483.84 1496.89 1514.80 1537.06 1562.39 1588.83 1613.96 1636.07 1655.05 1672.13 1688.65 1705.22 1721.73 1737.85 1753.44 1768.59 1783.63 1798.96 1815.03 1832.26 1851.03 1871.69 1894.54 1919.88 1947.95 1979.04 2013.55 2052.16 2090.95 2090.02 2053.12 2062.71 2074.49 2070.52 2063.95 2058.05 2053.76 2051.65 2051.96 2054.58 2059.00 2064.43 2070.34 2077.79 2089.58 2106.19 2131.18 2171.49 2205.12 2233.17 2285.91 2304.24 2226.19 2250.64 2240.07 2218.23 2194.51 2171.28 2149.31 2128.82 2109.83 2092.28 2076.03 2060.98 2047.00 2033.96 2021.77 2010.34 1999.57 1989.41 1979.78 1970.63 1961.91 1953.59 1945.62 1937.97 1930.62 1923.53 1916.70 1910.09 1903.70 1897.51 1891.50 1885.67 1880.00 1874.48 1869.12 1863.89 1858.80 1853.84 1849.00 1844.28 1839.68 1835.18 1830.79
1642.12 1640.00 1637.64 1635.00 1632.04 1628.73 1625.01 1620.80 1616.03 1610.59 1604.36 1597.16 1588.76 1578.88 1567.09 1552.83 1535.23 1513.02 1484.23 1445.70 1392.42 1317.31 1215.83 1112.00 1097.46 1209.17 1325.84 1385.83 1404.21 1404.61 1405.91 1422.31 1452.60 1487.42 1529.49 1577.54 1621.21 1651.21 1666.60 1677.56 1691.99 1710.23 1729.52 1747.43 1763.27 1777.52 1790.91 1804.17 1817.99 1832.91 1849.24 1867.10 1886.53 1907.52 1930.03 1953.83 1978.20 2001.25 2019.49 2029.96 2034.67 2037.70 2039.59 2039.77 2039.06 2038.69 2039.47 2041.87 2046.09 2052.15 2060.00 2069.56 2080.92 2094.42 2110.62 2130.03 2152.88 2178.63 2206.89 2241.87 2299.25 2382.25 2353.41 2282.91 2240.67 2211.37 2187.09 2165.39 2145.50 2127.11 2110.03 2094.14 2079.33 2065.50 2052.54 2040.38 2028.93 2018.12 2007.89 1998.18 1988.93 1980.11 1971.67 1963.58 1955.81 1948.32 1941.10 1934.12 1927.36 1920.82 1914.46 1908.29 1902.29 1896.44 1890.75 1885.20 1879.78 1874.50 1869.34 1864.30 1859.38 1854.57 1849.87 1845.28 1840.79
1642.91 1640.70 1638.24 1635.49 1632.41 1628.97 1625.09 1620.70 1615.73 1610.07 1603.57 1596.06 1587.31 1577.00 1564.70 1549.79 1531.36 1508.01 1477.48 1436.03 1377.13 1289.72 1159.63 1002.07 963.46 1137.04 1296.35 1355.35 1346.18 1299.53 1261.05 1268.20 1413.33 1415.47 1479.26 1589.27 1680.57 1799.01 1715.05 1684.81 1696.98 1726.77 1758.08 1777.32 1788.76 1798.94 1807.93 1816.33 1825.82 1837.43 1851.23 1866.67 1883.12 1900.11 1917.35 1934.58 1951.39 1967.09 1980.80 1991.94 2000.50 2006.96 2011.92 2015.95 2019.66 2023.60 2028.23 2033.84 2040.61 2048.63 2057.93 2068.53 2080.49 2093.85 2108.70 2125.04 2142.77 2161.70 2181.66 2202.46 2222.45 2235.76 2235.17 2222.22 2204.28 2185.79 2168.05 2151.23 2135.29 2120.18 2105.86 2092.29 2079.42 2067.22 2055.65 2044.65 2034.19 2024.21 2014.70 2005.59 1996.87 1988.49 1980.43 1972.65 1965.15 1957.89 1950.85 1944.02 1937.39 1930.94 1924.65 1918.52 1912.54 1906.70 1901.00 1895.42 1889.97 1884.64 1879.43 1874.32 1869.32 1864.43 1859.65 1854.96 1850.37
1644.16 1641.94 1639.46 1636.69 1633.60 1630.15 1626.27 1621.91 1616.98 1611.39 1605.02 1597.71 1589.28 1579.48 1567.97 1554.31 1537.92 1517.98 1493.40 1462.79 1424.69 1378.84 1329.93 1294.42 1296.55 1334.41 1371.34 1380.37 1355.49 1301.71 1303.12 1391.95 1409.27 1408.02 1464.08 1560.93 1624.37 1654.49 1631.41 1649.70 1691.44 1762.74 1864.49 1845.74 1833.46 1844.88 1844.41 1838.89 1838.91 1846.69 1860.01 1875.77 1891.49 1906.03 1919.23 1931.33 1942.55 1952.97 1962.62 1971.48 1979.59 1987.03 1993.93 2000.53 2007.05 2013.73 2020.75 2028.28 2036.45 2045.38 2055.15 2065.77 2077.16 2089.20 2101.74 2114.61 2127.64 2140.53 2152.89 2164.03 2172.87 2178.08 2178.64 2174.62 2167.08 2157.32 2146.36 2134.84 2123.15 2111.52 2100.09 2088.93 2078.10 2067.62 2057.51 2047.77 2038.38 2029.32 2020.60 2012.17 2004.03 1996.16 1988.53 1981.13 1973.93 1966.93 1960.11 1953.46 1946.97 1940.62 1934.41 1928.34 1922.39 1916.57 1910.86 1905.27 1899.78 1894.40 1889.13 1883.96 1878.89 1873.92 1869.04 1864.26 1859.58
1645.91 1643.73 1641.31 1638.61 1635.61 1632.27 1628.55 1624.38 1619.71 1614.46 1608.54 1601.85 1594.25 1585.61 1575.73 1564.42 1551.46 1536.62 1519.77 1501.01 1480.95 1461.13 1444.33 1434.00 1431.80 1435.07 1437.99 1436.06 1429.59 1424.07 1425.46 1429.76 1425.68 1413.24 1439.16 1533.40 1567.95 1597.62 1621.11 1653.48 1691.08 1746.50 1800.94 1831.46 1886.34 1991.36 1919.85 1859.33 1846.57 1857.54 1881.26 1906.60 1924.91 1936.77 1944.97 1951.17 1956.20 1959.98 1963.16 1966.95 1971.96 1978.14 1985.19 1992.79 2000.73 2008.82 2016.94 2025.07 2033.43 2042.46 2052.62 2063.92 2075.91 2087.97 2099.62 2110.56 2120.60 2129.58 2137.31 2143.56 2148.00 2150.34 2150.36 2148.07 2143.72 2137.69 2130.42 2122.28 2113.58 2104.56 2095.40 2086.21 2077.11 2068.13 2059.34 2050.74 2042.36 2034.19 2026.24 2018.49 2010.94 2003.57 1996.38 1989.35 1982.47 1975.74 1969.13 1962.66 1956.30 1950.06 1943.93 1937.91 1931.99 1926.17 1920.45 1914.82 1909.30 1903.87 1898.53 1893.29 1888.14 1883.08 1878.11 1873.24 1868.45
1648.14 1646.06 1643.75 1641.20 1638.39 1635.26 1631.80 1627.97 1623.71 1618.98 1613.73 1607.88 1601.38 1594.16 1586.15 1577.30 1567.60 1557.09 1545.92 1534.39 1523.03 1512.56 1503.78 1497.27 1492.97 1490.08 1487.43 1484.17 1480.12 1475.20 1467.61 1450.49 1403.29 1277.34 1244.84 1455.65 1547.22 1587.35 1614.57 1649.54 1688.62 1731.83 1780.15 1796.64 1798.66 1820.35 1839.44 1839.19 1832.42 1864.47 1935.49 2021.73 2009.81 2010.84 2006.31 2001.50 2005.49 1996.87 1982.87 1974.65 1973.15 1976.41 1982.62 1990.52 1999.18 2007.79 2015.53 2021.63 2026.23 2032.11 2043.53 2060.21 2078.02 2094.32 2108.36 2120.05 2129.40 2136.46 2141.35 2144.23 2145.33 2144.82 2142.86 2139.58 2135.12 2129.66 2123.38 2116.47 2109.10 2101.43 2093.58 2085.65 2077.73 2069.86 2062.09 2054.43 2046.90 2039.50 2032.23 2025.09 2018.08 2011.18 2004.39 1997.70 1991.11 1984.61 1978.20 1971.87 1965.63 1959.47 1953.39 1947.39 1941.47 1935.63 1929.87 1924.20 1918.62 1913.11 1907.70 1902.36 1897.12 1891.96 1886.90 1881.92 1877.03
1650.80 1648.86 1646.74 1644.39 1641.82 1638.99 1635.88 1632.46 1628.71 1624.59 1620.08 1615.15 1609.78 1603.94 1597.64 1590.90 1583.75 1576.29 1568.67 1561.10 1553.84 1547.16 1541.31 1536.39 1532.35 1528.93 1525.83 1522.73 1519.32 1515.11 1509.19 1500.30 1488.58 1481.40 1495.12 1531.05 1570.35 1603.38 1631.11 1655.32 1674.34 1683.58 1678.77 1666.70 1678.88 1711.29 1727.55 1756.13 1797.38 1844.43 1881.34 1945.92 2013.81 2061.62 2041.50 2050.32 2097.81 2048.39 2001.86 1980.87 1974.64 1976.41 1982.64 1991.27 2000.83 2009.87 2016.24 2015.79 2000.95 1976.23 1997.45 2048.83 2086.44 2112.72 2132.81 2148.27 2159.30 2165.94 2168.39 2167.33 2163.81 2158.78 2152.87 2146.40 2139.56 2132.44 2125.14 2117.71 2110.23 2102.75 2095.31 2087.94 2080.66 2073.49 2066.42 2059.46 2052.60 2045.83 2039.14 2032.51 2025.95 2019.45 2012.99 2006.58 2000.21 1993.88 1987.60 1981.37 1975.18 1969.04 1962.96 1956.94 1950.98 1945.08 1939.26 1933.50 1927.82 1922.22 1916.70 1911.26 1905.90 1900.63 1895.44 1890.34 1885.33
1653.83 1652.08 1650.17 1648.08 1645.79 1643.29 1640.57 1637.61 1634.40 1630.92 1627.16 1623.11 1618.78 1614.17 1609.30 1604.20 1598.94 1593.58 1588.23 1583.01 1578.05 1573.47 1569.37 1565.79 1562.73 1560.12 1557.90 1555.98 1554.30 1552.85 1551.77 1551.56 1553.44 1559.37 1570.94 1587.77 1607.44 1627.19 1644.83 1657.99 1662.87 1652.35 1609.83 1482.14 1551.13 1647.04 1569.16 1502.41 1790.29 1811.02 1855.58 1914.27 2002.63 2027.25 1996.81 1989.81 1992.98 1987.00 1976.15 1969.68 1969.52 1974.41 1982.76 1993.17 2004.43 2015.25 2023.89 2027.59 2022.51 2015.05 2042.35 2085.79 2117.55 2148.30 2177.66 2200.51 2216.72 2225.53 2224.16 2214.66 2202.03 2189.17 2176.86 2165.18 2154.11 2143.67 2133.88 2124.71 2116.11 2108.01 2100.35 2093.06 2086.06 2079.31 2072.74 2066.31 2059.98 2053.71 2047.48 2041.27 2035.06 2028.84 2022.61 2016.37 2010.13 2003.88 1997.64 1991.40 1985.19 1979.00 1972.84 1966.73 1960.66 1954.65 1948.70 1942.82 1937.00 1931.26 1925.60 1920.01 1914.52 1909.10 1903.78 1898.54 1893.40
1657.18 1655.64 1653.96 1652.14 1650.16 1648.02 1645.70 1643.21 1640.52 1637.66 1634.60 1631.35 1627.93 1624.36 1620.65 1616.84 1612.97 1609.12 1605.34 1601.70 1598.29 1595.17 1592.40 1590.03 1588.08 1586.57 1585.52 1584.97 1584.99 1585.72 1587.40 1590.37 1595.11 1602.05 1611.32 1622.61 1635.07 1647.51 1658.49 1666.34 1669.16 1665.27 1655.24 1647.27 1653.05 1662.61 1664.96 1682.86 1728.97 1777.49 1820.97 1861.24 1895.82 1918.74 1930.34 1937.01 1942.20 1946.32 1950.10 1954.99 1961.97 1971.22 1982.42 1994.94 2008.06 2020.98 2032.99 2043.76 2054.19 2068.19 2101.75 2151.46 2133.98 2189.86 2265.43 2281.89 2312.53 2358.88 2330.80 2284.68 2253.07 2230.27 2210.54 2192.18 2175.27 2160.14 2146.82 2135.19 2125.00 2116.00 2107.94 2100.62 2093.85 2087.48 2081.37 2075.43 2069.57 2063.73 2057.86 2051.93 2045.94 2039.87 2033.73 2027.52 2021.25 2014.94 2008.60 2002.24 1995.88 1989.52 1983.19 1976.90 1970.64 1964.44 1958.29 1952.22 1946.21 1940.28 1934.44 1928.67 1923.00 1917.42 1911.93 1906.53 1901.23
1660.78 1659.46 1658.03 1656.48 1654.82 1653.03 1651.11 1649.06 1646.88 1644.58 1642.15 1639.62 1636.98 1634.26 1631.49 1628.70 1625.91 1623.19 1620.57 1618.10 1615.84 1613.84 1612.15 1610.81 1609.87 1609.36 1609.34 1609.87 1611.05 1612.98 1615.81 1619.70 1624.78 1631.12 1638.65 1647.12 1656.09 1664.96 1673.05 1679.68 1684.41 1687.29 1689.30 1692.15 1697.37 1705.45 1717.08 1733.87 1756.27 1782.28 1809.21 1834.99 1858.01 1877.21 1892.57 1904.97 1915.55 1925.25 1934.83 1944.96 1956.06 1968.31 1981.60 1995.60 2009.78 2023.41 2035.51 2044.63 2048.11 2039.59 1999.06 1978.49 2099.37 2144.41 2265.32 2337.82 2332.54 2423.14 2368.52 2324.04 2308.03 2286.76 2256.26 2225.60 2199.23 2177.71 2160.35 2146.31 2134.84 2125.33 2117.28 2110.30 2104.08 2098.33 2092.86 2087.49 2082.11 2076.64 2071.01 2065.22 2059.26 2053.13 2046.86 2040.46 2033.96 2027.39 2020.76 2014.11 2007.44 2000.78 1994.15 1987.55 1981.01 1974.52 1968.10 1961.75 1955.49 1949.32 1943.24 1937.25 1931.37 1925.58 1919.90 1914.32 1908.84
1664.55 1663.46 1662.28 1661.01 1659.65 1658.20 1656.66 1655.03 1653.32 1651.52 1649.66 1647.73 1645.76 1643.76 1641.76 1639.78 1637.84 1636.00 1634.28 1632.72 1631.36 1630.24 1629.41 1628.91 1628.78 1629.06 1629.81 1631.08 1632.94 1635.45 1638.69 1642.71 1647.54 1653.16 1659.49 1666.35 1673.52 1680.71 1687.62 1694.05 1699.90 1705.33 1710.74 1716.71 1723.86 1732.75 1743.80 1757.26 1773.03 1790.53 1808.88 1827.18 1844.66 1860.85 1875.62 1889.14 1901.80 1914.03 1926.25 1938.81 1951.93 1965.71 1980.06 1994.72 2009.26 2023.00 2034.96 2043.71 2047.13 2042.05 2021.80 1968.07 2016.28 2117.77 2178.04 2241.54 2320.46 2296.81 2317.45 2413.47 2485.63 2400.22 2312.07 2254.46 2216.19 2189.34 2169.73 2155.03 2143.81 2135.10 2128.16 2122.45 2117.49 2112.90 2108.40 2103.77 2098.87 2093.63 2088.03 2082.08 2075.82 2069.29 2062.55 2055.65 2048.63 2041.52 2034.37 2027.19 2020.03 2012.89 2005.80 1998.76 1991.80 1984.92 1978.13 1971.44 1964.86 1958.38 1952.01 1945.75 1939.61 1933.59 1927.68 1921.90 1916.22
1668.44 1667.57 1666.63 1665.63 1664.56 1663.44 1662.25 1661.00 1659.71 1658.37 1656.99 1655.59 1654.19 1652.79 1651.42 1650.10 1648.85 1647.71 1646.70 1645.86 1645.21 1644.79 1644.64 1644.79 1645.28 1646.15 1647.43 1649.17 1651.41 1654.19 1657.54 1661.47 1665.97 1671.03 1676.57 1682.49 1688.69 1695.02 1701.38 1707.69 1713.95 1720.27 1726.82 1733.87 1741.70 1750.57 1760.66 1772.03 1784.62 1798.18 1812.38 1826.83 1841.22 1855.30 1868.97 1882.28 1895.34 1908.34 1921.47 1934.90 1948.72 1962.96 1977.54 1992.26 2006.81 2020.73 2033.43 2044.21 2052.37 2057.54 2061.06 2069.52 2093.74 2130.10 2157.38 2187.84 2231.33 2251.28 2278.59 2331.95 2365.32 2335.12 2284.02 2241.49 2210.35 2187.88 2171.67 2160.03 2151.76 2145.98 2141.90 2138.86 2136.25 2133.55 2130.39 2126.54 2121.89 2116.47 2110.35 2103.66 2096.52 2089.04 2081.33 2073.47 2065.52 2057.52 2049.53 2041.58 2033.68 2025.86 2018.14 2010.52 2003.01 1995.63 1988.38 1981.26 1974.27 1967.42 1960.71 1954.14 1947.71 1941.41 1935.25 1929.23 1923.34
1672.39 1671.74 1671.03 1670.28 1669.49 1668.66 1667.79 1666.90 1665.97 1665.03 1664.08 1663.14 1662.21 1661.32 1660.47 1659.70 1659.01 1658.43 1657.99 1657.72 1657.63 1657.76 1658.14 1658.79 1659.75 1661.04 1662.69 1664.73 1667.19 1670.09 1673.43 1677.22 1681.46 1686.12 1691.15 1696.51 1702.14 1707.98 1713.99 1720.14 1726.45 1732.99 1739.83 1747.12 1754.96 1763.49 1772.78 1782.85 1793.66 1805.13 1817.09 1829.41 1841.93 1854.54 1867.18 1879.86 1892.61 1905.50 1918.62 1932.01 1945.73 1959.74 1973.98 1988.32 2002.56 2016.46 2029.76 2042.27 2053.97 2065.25 2077.10 2091.05 2108.15 2127.66 2147.51 2166.54 2184.24 2200.19 2215.33 2228.93 2235.84 2231.86 2219.29 2203.74 2189.24 2177.58 2169.20 2163.96 2161.45 2161.08 2162.11 2163.68 2164.86 2164.87 2163.18 2159.61 2154.29 2147.53 2139.70 2131.15 2122.13 2112.86 2103.46 2094.04 2084.67 2075.38 2066.21 2057.18 2048.31 2039.61 2031.07 2022.72 2014.54 2006.55 1998.74 1991.11 1983.65 1976.38 1969.28 1962.35 1955.59 1948.99 1942.56 1936.28 1930.16
1676.36 1675.91 1675.42 1674.91 1674.37 1673.81 1673.24 1672.65 1672.06 1671.47 1670.89 1670.33 1669.81 1669.34 1668.93 1668.61 1668.37 1668.26 1668.28 1668.46 1668.82 1669.38 1670.16 1671.19 1672.50 1674.09 1676.00 1678.24 1680.83 1683.78 1687.09 1690.77 1694.81 1699.19 1703.89 1708.88 1714.15 1719.65 1725.39 1731.35 1737.54 1744.01 1750.80 1757.97 1765.58 1773.68 1782.32 1791.50 1801.20 1811.40 1822.02 1833.00 1844.27 1855.78 1867.50 1879.43 1891.56 1903.93 1916.55 1929.43 1942.57 1955.95 1969.49 1983.12 1996.71 2010.14 2023.29 2036.12 2048.64 2061.02 2073.55 2086.50 2099.97 2113.72 2127.26 2140.06 2151.71 2161.96 2170.56 2176.96 2180.45 2180.68 2178.24 2174.49 2170.97 2168.90 2169.11 2172.02 2177.64 2185.60 2194.98 2204.28 2211.60 2215.18 2214.12 2208.69 2199.95 2189.15 2177.29 2165.01 2152.69 2140.52 2128.61 2116.99 2105.70 2094.72 2084.05 2073.69 2063.64 2053.87 2044.38 2035.16 2026.21 2017.52 2009.07 2000.86 1992.89 1985.14 1977.61 1970.30 1963.18 1956.26 1949.54 1942.99 1936.63
1680.31 1680.05 1679.77 1679.47 1679.16 1678.85 1678.53 1678.22 1677.92 1677.63 1677.38 1677.16 1676.98 1676.87 1676.82 1676.86 1677.01 1677.26 1677.66 1678.20 1678.91 1679.81 1680.91 1682.23 1683.79 1685.61 1687.70 1690.08 1692.75 1695.72 1699.00 1702.59 1706.48 1710.66 1715.13 1719.88 1724.88 1730.13 1735.63 1741.38 1747.38 1753.67 1760.26 1767.18 1774.47 1782.16 1790.25 1798.76 1807.68 1817.00 1826.69 1836.72 1847.06 1857.69 1868.58 1879.73 1891.13 1902.78 1914.67 1926.80 1939.15 1951.67 1964.33 1977.04 1989.74 2002.35 2014.79 2027.02 2039.02 2050.81 2062.42 2073.88 2085.14 2096.09 2106.53 2116.27 2125.12 2132.92 2139.55 2144.94 2149.08 2152.19 2154.73 2157.44 2161.20 2166.91 2175.45 2187.54 2203.71 2224.01 2247.50 2271.38 2290.48 2298.99 2294.56 2280.22 2261.16 2241.10 2221.73 2203.52 2186.49 2170.52 2155.46 2141.21 2127.67 2114.75 2102.39 2090.54 2079.17 2068.22 2057.69 2047.53 2037.73 2028.28 2019.15 2010.33 2001.80 1993.56 1985.58 1977.85 1970.37 1963.13 1956.10 1949.29 1942.67
1684.21 1684.12 1684.02 1683.92 1683.82 1683.73 1683.65 1683.58 1683.53 1683.51 1683.53 1683.60 1683.72 1683.90 1684.16 1684.51 1684.96 1685.52 1686.21 1687.05 1688.04 1689.20 1690.55 1692.10 1693.86 1695.84 1698.06 1700.53 1703.26 1706.24 1709.49 1713.00 1716.78 1720.82 1725.12 1729.67 1734.47 1739.51 1744.80 1750.33 1756.12 1762.18 1768.52 1775.16 1782.11 1789.39 1797.02 1804.98 1813.29 1821.94 1830.91 1840.20 1849.78 1859.64 1869.77 1880.15 1890.79 1901.66 1912.75 1924.04 1935.50 1947.10 1958.80 1970.54 1982.26 1993.89 2005.40 2016.71 2027.80 2038.63 2049.18 2059.42 2069.29 2078.74 2087.69 2096.08 2103.86 2111.01 2117.56 2123.63 2129.41 2135.23 2141.58 2149.07 2158.48 2170.73 2186.84 2208.02 2235.64 2271.25 2315.98 2368.20 2416.50 2435.67 2413.01 2370.05 2328.68 2294.36 2265.84 2241.29 2219.51 2199.79 2181.67 2164.85 2149.11 2134.30 2120.27 2106.95 2094.25 2082.13 2070.53 2059.42 2048.76 2038.54 2028.72 2019.27 2010.19 2001.44 1993.01 1984.88 1977.04 1969.46 1962.15 1955.07 1948.22
1688.02 1688.09 1688.16 1688.24 1688.33 1688.44 1688.56 1688.71 1688.88 1689.10 1689.35 1689.66 1690.03 1690.46 1690.98 1691.58 1692.28 1693.10 1694.03 1695.10 1696.32 1697.69 1699.23 1700.95 1702.86 1704.97 1707.29 1709.82 1712.58 1715.57 1718.79 1722.25 1725.93 1729.86 1734.02 1738.41 1743.03 1747.89 1752.98 1758.30 1763.87 1769.69 1775.77 1782.12 1788.74 1795.65 1802.85 1810.35 1818.14 1826.22 1834.59 1843.24 1852.16 1861.34 1870.76 1880.43 1890.31 1900.41 1910.69 1921.14 1931.74 1942.43 1953.20 1963.98 1974.74 1985.43 1995.99 2006.39 2016.58 2026.52 2036.19 2045.55 2054.57 2063.25 2071.56 2079.51 2087.13 2094.49 2101.72 2109.00 2116.60 2124.88 2134.32 2145.51 2159.19 2176.23 2197.66 2224.76 2259.09 2302.64 2358.10 2428.34 2508.18 2546.94 2492.66 2420.71 2368.74 2330.16 2298.60 2271.21 2246.76 2224.65 2204.43 2185.76 2168.37 2152.04 2136.63 2122.03 2108.16 2094.96 2082.38 2070.37 2058.90 2047.94 2037.46 2027.42 2017.81 2008.58 1999.73 1991.22 1983.04 1975.16 1967.57 1960.25 1953.18
1691.73 1691.95 1692.18 1692.42 1692.67 1692.95 1693.26 1693.59 1693.96 1694.37 1694.83 1695.35 1695.93 1696.58 1697.30 1698.12 1699.03 1700.05 1701.18 1702.44 1703.83 1705.37 1707.06 1708.91 1710.94 1713.14 1715.53 1718.11 1720.89 1723.88 1727.07 1730.47 1734.09 1737.91 1741.95 1746.20 1750.67 1755.35 1760.26 1765.38 1770.73 1776.32 1782.14 1788.20 1794.51 1801.07 1807.88 1814.96 1822.29 1829.88 1837.72 1845.80 1854.13 1862.69 1871.46 1880.45 1889.63 1899.00 1908.52 1918.18 1927.96 1937.81 1947.72 1957.64 1967.54 1977.37 1987.10 1996.69 2006.11 2015.34 2024.35 2033.13 2041.67 2049.99 2058.10 2066.06 2073.95 2081.87 2089.99 2098.52 2107.74 2117.99 2129.72 2143.44 2159.73 2179.27 2202.79 2231.04 2264.70 2304.05 2348.37 2394.39 2434.39 2457.70 2451.55 2413.73 2375.85 2345.11 2316.48 2289.55 2264.85 2242.30 2221.55 2202.24 2184.08 2166.89 2150.56 2135.02 2120.23 2106.14 2092.71 2079.93 2067.75 2056.15 2045.08 2034.51 2024.43 2014.78 2005.55 1996.71 1988.23 1980.08 1972.26 1964.73 1957.48
1695.32 1695.67 1696.04 1696.42 1696.83 1697.27 1697.73 1698.23 1698.77 1699.35 1699.99 1700.68 1701.43 1702.26 1703.17 1704.16 1705.24 1706.42 1707.72 1709.13 1710.66 1712.33 1714.14 1716.09 1718.21 1720.48 1722.92 1725.53 1728.33 1731.30 1734.46 1737.81 1741.35 1745.09 1749.02 1753.14 1757.47 1761.99 1766.72 1771.66 1776.80 1782.15 1787.72 1793.51 1799.51 1805.75 1812.21 1818.90 1825.81 1832.95 1840.31 1847.89 1855.67 1863.66 1871.85 1880.21 1888.75 1897.44 1906.27 1915.21 1924.25 1933.35 1942.50 1951.66 1960.80 1969.90 1978.93 1987.86 1996.67 2005.35 2013.89 2022.29 2030.57 2038.76 2046.90 2055.06 2063.34 2071.86 2080.81 2090.38 2100.82 2112.44 2125.59 2140.63 2157.98 2178.03 2201.13 2227.53 2257.36 2290.65 2327.52 2369.18 2419.61 2479.85 2481.17 2368.05 2360.16 2344.13 2318.73 2294.21 2272.03 2251.59 2232.26 2213.67 2195.69 2178.29 2161.51 2145.38 2129.92 2115.16 2101.08 2087.68 2074.93 2062.80 2051.26 2040.27 2029.81 2019.82 2010.29 2001.19 1992.47 1984.12 1976.11 1968.42 1961.02
1698.78 1699.26 1699.75 1700.26 1700.80 1701.37 1701.97 1702.61 1703.30 1704.03 1704.82 1705.66 1706.56 1707.54 1708.59 1709.73 1710.95 1712.27 1713.70 1715.23 1716.88 1718.65 1720.55 1722.58 1724.76 1727.08 1729.56 1732.19 1734.98 1737.94 1741.07 1744.37 1747.84 1751.49 1755.32 1759.32 1763.51 1767.89 1772.45 1777.19 1782.13 1787.27 1792.59 1798.12 1803.84 1809.77 1815.90 1822.23 1828.76 1835.48 1842.41 1849.52 1856.82 1864.29 1871.94 1879.74 1887.69 1895.77 1903.97 1912.27 1920.65 1929.10 1937.59 1946.09 1954.60 1963.08 1971.53 1979.92 1988.25 1996.51 2004.71 2012.86 2020.99 2029.14 2037.37 2045.76 2054.40 2063.43 2073.00 2083.28 2094.50 2106.89 2120.68 2136.13 2153.45 2172.78 2194.17 2217.51 2242.48 2268.57 2295.03 2320.67 2342.95 2356.12 2354.49 2344.83 2333.02 2317.23 2301.18 2285.99 2270.80 2254.94 2238.30 2221.10 2203.68 2186.33 2169.31 2152.78 2136.87 2121.63 2107.10 2093.26 2080.11 2067.62 2055.75 2044.47 2033.74 2023.53 2013.80 2004.52 1995.65 1987.16 1979.03 1971.24 1963.75
1702.11 1702.69 1703.29 1703.92 1704.57 1705.26 1705.99 1706.75 1707.56 1708.42 1709.33 1710.30 1711.34 1712.44 1713.61 1714.87 1716.21 1717.64 1719.17 1720.80 1722.53 1724.39 1726.36 1728.45 1730.67 1733.03 1735.53 1738.17 1740.95 1743.89 1746.98 1750.22 1753.62 1757.19 1760.91 1764.81 1768.87 1773.10 1777.49 1782.07 1786.81 1791.73 1796.83 1802.11 1807.57 1813.20 1819.02 1825.02 1831.19 1837.54 1844.06 1850.75 1857.60 1864.60 1871.76 1879.05 1886.47 1894.01 1901.66 1909.39 1917.20 1925.07 1932.99 1940.93 1948.90 1956.86 1964.82 1972.77 1980.71 1988.64 1996.57 2004.54 2012.56 2020.69 2029.00 2037.55 2046.44 2055.78 2065.72 2076.39 2087.97 2100.62 2114.51 2129.77 2146.48 2164.64 2184.12 2204.62 2225.58 2246.20 2265.35 2281.64 2293.68 2301.17 2307.34 2315.75 2300.04 2286.04 2284.72 2280.94 2271.91 2258.84 2243.26 2226.30 2208.74 2191.12 2173.77 2156.93 2140.71 2125.19 2110.40 2096.35 2083.00 2070.34 2058.32 2046.91 2036.07 2025.76 2015.95 2006.59 1997.66 1989.12 1980.95 1973.12 1965.61
1705.29 1705.96 1706.66 1707.39 1708.15 1708.94 1709.77 1710.65 1711.56 1712.53 1713.55 1714.63 1715.77 1716.97 1718.25 1719.60 1721.04 1722.56 1724.17 1725.88 1727.68 1729.60 1731.62 1733.75 1736.01 1738.39 1740.89 1743.53 1746.30 1749.21 1752.25 1755.44 1758.77 1762.25 1765.88 1769.67 1773.60 1777.69 1781.93 1786.33 1790.89 1795.61 1800.49 1805.54 1810.74 1816.10 1821.63 1827.32 1833.16 1839.16 1845.31 1851.61 1858.05 1864.64 1871.35 1878.18 1885.13 1892.19 1899.34 1906.57 1913.88 1921.25 1928.67 1936.13 1943.63 1951.15 1958.70 1966.28 1973.88 1981.52 1989.23 1997.02 2004.93 2013.01 2021.31 2029.92 2038.90 2048.37 2058.43 2069.19 2080.79 2093.33 2106.94 2121.67 2137.55 2154.53 2172.45 2191.02 2209.78 2228.14 2245.34 2260.58 2273.12 2282.20 2285.62 2262.99 2205.76 2276.34 2307.74 2300.62 2284.02 2265.95 2247.39 2228.69 2210.12 2191.92 2174.27 2157.26 2140.99 2125.46 2110.70 2096.69 2083.39 2070.79 2058.82 2047.47 2036.68 2026.43 2016.66 2007.35 1998.46 1989.96 1981.83 1974.04 1966.56
1708.32 1709.08 1709.87 1710.68 1711.53 1712.41 1713.34 1714.30 1715.31 1716.37 1717.48 1718.65 1719.88 1721.17 1722.53 1723.96 1725.47 1727.07 1728.74 1730.51 1732.37 1734.33 1736.39 1738.55 1740.83 1743.21 1745.72 1748.34 1751.09 1753.96 1756.96 1760.09 1763.35 1766.75 1770.28 1773.95 1777.77 1781.72 1785.81 1790.05 1794.43 1798.96 1803.63 1808.45 1813.42 1818.53 1823.78 1829.18 1834.72 1840.39 1846.21 1852.15 1858.22 1864.42 1870.73 1877.15 1883.68 1890.30 1897.01 1903.80 1910.67 1917.59 1924.58 1931.62 1938.71 1945.85 1953.04 1960.28 1967.58 1974.96 1982.43 1990.04 1997.79 2005.76 2013.98 2022.51 2031.44 2040.84 2050.79 2061.40 2072.74 2084.90 2097.96 2111.96 2126.89 2142.72 2159.33 2176.52 2194.00 2211.44 2228.43 2244.56 2259.54 2273.57 2288.93 2313.51 2331.69 2314.83 2318.98 2305.52 2284.54 2263.62 2243.49 2224.05 2205.28 2187.18 2169.80 2153.17 2137.29 2122.17 2107.80 2094.16 2081.20 2068.90 2057.21 2046.11 2035.55 2025.49 2015.91 2006.76 1998.03 1989.67 1981.66 1973.98 1966.61
